( pcb2gcode 2.4.0 )
( Software-independent Gcode )

G94 ( Millimeters per minute feed rate. )
G21 ( Units == Millimeters. )

G90 ( Absolute coordinates. )
G00 S20000 ( RPM spindle speed. )
G64 P0.05000 ( set maximum deviation from commanded toolpath )
G01 F500.00000 ( Feedrate. )


G00 Z40.00000 (Retract to tool change height)
T0
M5      (Spindle stop.)
G04 P1.00000 (Wait for spindle to stop)
(MSG, Change tool bit to mill diameter -0.28000mm)
M6      (Tool change.)
M0      (Temporary machine stop.)
M3 ( Spindle on clockwise. )
G04 P1.00000 (Wait for spindle to get up to speed)
G04 P0 ( dwell for no time -- G64 should not smooth over this point )
G00 Z5.00000 ( retract )

G00 X-1.70115 Y146.99214 ( rapid move to begin. )
G01 F250.00000
( Mill infeed pass 1/1 )
G01 Z-0.20000
G04 P0 ( dwell for no time -- G64 should not smooth over this point )
G01 F500.00000
G01 X-1.70115 Y146.99214
G01 X-1.70135 Y146.99037
G01 X-1.70186 Y146.98859
G01 X-1.70272 Y146.98701
G01 X-1.70389 Y146.98557
G01 X-1.70531 Y146.98440
G01 X-1.70691 Y146.98353
G01 X-1.70867 Y146.98303
G01 X-1.71735 Y146.98216
G01 X-3.20361 Y146.98216
G01 X-3.21230 Y146.98303
G01 X-3.21405 Y146.98353
G01 X-3.21565 Y146.98440
G01 X-3.21707 Y146.98557
G01 X-3.21824 Y146.98701
G01 X-3.21910 Y146.98859
G01 X-3.21961 Y146.99037
G01 X-3.21981 Y146.99214
G01 X-3.21961 Y146.99400
G01 X-3.21910 Y146.99573
G01 X-3.21857 Y146.99674
G01 X-3.20828 Y147.02135
G01 X-3.20287 Y147.04747
G01 X-3.20249 Y147.07416
G01 X-3.20719 Y147.10042
G01 X-3.21303 Y147.11566
G01 X-3.21928 Y147.13296
G01 X-3.22048 Y147.14315
G01 X-3.22048 Y147.41262
G01 X-3.21928 Y147.42280
G01 X-3.21580 Y147.43248
G01 X-3.15052 Y147.56303
G01 X-3.14679 Y147.56918
G01 X-3.14214 Y147.57467
G01 X-3.07867 Y147.63812
G01 X-3.07318 Y147.64277
G01 X-3.06703 Y147.64650
G01 X-2.93650 Y147.71178
G01 X-2.92683 Y147.71526
G01 X-2.91664 Y147.71645
G01 X-2.50430 Y147.71645
G01 X-2.49411 Y147.71526
G01 X-2.48443 Y147.71178
G01 X-2.35390 Y147.64650
G01 X-2.34776 Y147.64277
G01 X-2.34227 Y147.63812
G01 X-2.27882 Y147.57467
G01 X-2.27417 Y147.56918
G01 X-2.27044 Y147.56303
G01 X-2.20516 Y147.43248
G01 X-2.20168 Y147.42280
G01 X-2.20049 Y147.41262
G01 X-2.20049 Y147.14216
G01 X-2.19779 Y147.11485
G01 X-2.18982 Y147.08861
G01 X-2.17689 Y147.06441
G01 X-2.15947 Y147.04317
G01 X-2.13826 Y147.02575
G01 X-2.11405 Y147.01282
G01 X-2.08779 Y147.00484
G01 X-2.06048 Y147.00215
G01 X-1.71735 Y147.00215
G01 X-1.70867 Y147.00129
G01 X-1.70691 Y147.00078
G01 X-1.70531 Y146.99992
G01 X-1.70389 Y146.99875
G01 X-1.70272 Y146.99733
G01 X-1.70186 Y146.99573
G01 X-1.70135 Y146.99400
G01 X-1.70115 Y146.99214
G04 P0 ( dwell for no time -- G64 should not smooth over this point )
G00 Z5.00000 ( retract )

G00 X-2.22048 Y147.17043 ( rapid move to begin. )
G01 F250.00000
( Mill infeed pass 1/1 )
G01 Z-0.20000
G04 P0 ( dwell for no time -- G64 should not smooth over this point )
G01 F500.00000
G01 X-2.22048 Y147.17043
G01 X-2.22048 Y147.38534
G01 X-2.22424 Y147.41749
G01 X-2.23526 Y147.44792
G01 X-2.27996 Y147.53736
G01 X-2.29162 Y147.55661
G01 X-2.30620 Y147.57375
G01 X-2.34318 Y147.61074
G01 X-2.36033 Y147.62532
G01 X-2.37958 Y147.63697
G01 X-2.46899 Y147.68168
G01 X-2.49942 Y147.69270
G01 X-2.53160 Y147.69646
G01 X-2.88934 Y147.69646
G01 X-2.92152 Y147.69270
G01 X-2.95195 Y147.68168
G01 X-3.04138 Y147.63697
G01 X-3.06061 Y147.62532
G01 X-3.07775 Y147.61076
G01 X-3.11476 Y147.57375
G01 X-3.12934 Y147.55661
G01 X-3.14100 Y147.53736
G01 X-3.18570 Y147.44792
G01 X-3.19673 Y147.41749
G01 X-3.20049 Y147.38534
G01 X-3.20049 Y147.17043
G01 X-3.19673 Y147.13827
G01 X-3.18570 Y147.10784
G01 X-3.17155 Y147.07955
G01 X-3.15797 Y147.05765
G01 X-3.14054 Y147.03863
G01 X-3.11994 Y147.02306
G01 X-3.09685 Y147.01158
G01 X-3.07204 Y147.00456
G01 X-3.04633 Y147.00215
G01 X-2.37463 Y147.00215
G01 X-2.34892 Y147.00456
G01 X-2.32411 Y147.01158
G01 X-2.30102 Y147.02306
G01 X-2.28042 Y147.03863
G01 X-2.26300 Y147.05765
G01 X-2.24941 Y147.07955
G01 X-2.23526 Y147.10784
G01 X-2.22424 Y147.13827
G01 X-2.22048 Y147.17043
G04 P0 ( dwell for no time -- G64 should not smooth over this point )
G00 Z5.00000 ( retract )

G00 X-2.20049 Y148.57172 ( rapid move to begin. )
G01 F250.00000
( Mill infeed pass 1/1 )
G01 Z-0.20000
G04 P0 ( dwell for no time -- G64 should not smooth over this point )
G01 F500.00000
G01 X-2.20049 Y148.57172
G01 X-2.20049 Y148.76976
G01 X-2.20168 Y148.77995
G01 X-2.20516 Y148.78963
G01 X-2.22497 Y148.82920
G01 X-2.23460 Y148.85422
G01 X-2.23930 Y148.88061
G01 X-2.23887 Y148.90743
G01 X-2.23333 Y148.93367
G01 X-2.22292 Y148.95836
G01 X-2.20795 Y148.98063
G01 X-2.20272 Y148.98701
G01 X-2.20186 Y148.98861
G01 X-2.20135 Y148.99036
G01 X-2.20115 Y148.99217
G01 X-2.20135 Y148.99399
G01 X-2.20186 Y148.99575
G01 X-2.20272 Y148.99735
G01 X-2.20389 Y148.99877
G01 X-2.20531 Y148.99994
G01 X-2.20691 Y149.00080
G01 X-2.20867 Y149.00131
G01 X-2.21735 Y149.00217
G01 X-3.20361 Y149.00217
G01 X-3.21230 Y149.00131
G01 X-3.21405 Y149.00080
G01 X-3.21565 Y148.99994
G01 X-3.21707 Y148.99877
G01 X-3.21824 Y148.99735
G01 X-3.21910 Y148.99575
G01 X-3.21961 Y148.99399
G01 X-3.21981 Y148.99217
G01 X-3.21961 Y148.99036
G01 X-3.21910 Y148.98861
G01 X-3.21824 Y148.98701
G01 X-3.21707 Y148.98559
G01 X-3.21565 Y148.98442
G01 X-3.21405 Y148.98355
G01 X-3.21230 Y148.98305
G01 X-3.20361 Y148.98218
G01 X-2.41547 Y148.98218
G01 X-2.38817 Y148.97949
G01 X-2.36190 Y148.97152
G01 X-2.33767 Y148.95856
G01 X-2.31646 Y148.94116
G01 X-2.30618 Y148.93088
G01 X-2.29162 Y148.91373
G01 X-2.27996 Y148.89450
G01 X-2.23526 Y148.80507
G01 X-2.22424 Y148.77464
G01 X-2.22048 Y148.74246
G01 X-2.22048 Y148.59900
G01 X-2.22424 Y148.56684
G01 X-2.23526 Y148.53641
G01 X-2.26848 Y148.46992
G01 X-2.28469 Y148.44469
G01 X-2.30587 Y148.42351
G01 X-2.33109 Y148.40731
G01 X-2.39757 Y148.37408
G01 X-2.42800 Y148.36306
G01 X-2.46018 Y148.35930
G01 X-3.20361 Y148.35930
G01 X-3.21230 Y148.35844
G01 X-3.21405 Y148.35793
G01 X-3.21565 Y148.35706
G01 X-3.21707 Y148.35590
G01 X-3.21824 Y148.35447
G01 X-3.21910 Y148.35287
G01 X-3.21961 Y148.35112
G01 X-3.21981 Y148.34929
G01 X-3.21961 Y148.34749
G01 X-3.21910 Y148.34574
G01 X-3.21824 Y148.34414
G01 X-3.21707 Y148.34271
G01 X-3.21565 Y148.34154
G01 X-3.21405 Y148.34068
G01 X-3.21230 Y148.34017
G01 X-3.20361 Y148.33931
G01 X-2.43287 Y148.33931
G01 X-2.42269 Y148.34050
G01 X-2.41301 Y148.34398
G01 X-2.28415 Y148.40842
G01 X-2.27613 Y148.41358
G01 X-2.27476 Y148.41498
G01 X-2.26960 Y148.42298
G01 X-2.20516 Y148.55186
G01 X-2.20168 Y148.56153
G01 X-2.20049 Y148.57172
G04 P0 ( dwell for no time -- G64 should not smooth over this point )
G00 Z5.00000 ( retract )

G00 X-2.20117 Y149.92010 ( rapid move to begin. )
G01 F250.00000
( Mill infeed pass 1/1 )
G01 Z-0.20000
G04 P0 ( dwell for no time -- G64 should not smooth over this point )
G01 F500.00000
G01 X-2.20117 Y149.92010
G01 X-2.20122 Y149.92191
G01 X-2.20163 Y149.92371
G01 X-2.20239 Y149.92536
G01 X-2.20343 Y149.92686
G01 X-2.20475 Y149.92810
G01 X-2.20630 Y149.92910
G01 X-2.20803 Y149.92976
G01 X-2.20983 Y149.93006
G01 X-2.21164 Y149.93001
G01 X-2.21344 Y149.92960
G01 X-2.21509 Y149.92884
G01 X-2.21659 Y149.92780
G01 X-2.21784 Y149.92648
G01 X-2.22251 Y149.91906
G01 X-2.26848 Y149.82706
G01 X-2.28469 Y149.80184
G01 X-2.30587 Y149.78066
G01 X-2.33109 Y149.76445
G01 X-2.39757 Y149.73123
G01 X-2.42800 Y149.72021
G01 X-2.46018 Y149.71645
G01 X-3.70361 Y149.71645
G01 X-3.71230 Y149.71558
G01 X-3.71405 Y149.71507
G01 X-3.71565 Y149.71421
G01 X-3.71707 Y149.71304
G01 X-3.71824 Y149.71162
G01 X-3.71910 Y149.71002
G01 X-3.71961 Y149.70827
G01 X-3.71981 Y149.70644
G01 X-3.71961 Y149.70464
G01 X-3.71910 Y149.70288
G01 X-3.71824 Y149.70128
G01 X-3.71707 Y149.69986
G01 X-3.71565 Y149.69869
G01 X-3.71405 Y149.69783
G01 X-3.71230 Y149.69732
G01 X-3.70361 Y149.69646
G01 X-2.43287 Y149.69646
G01 X-2.42269 Y149.69765
G01 X-2.41301 Y149.70113
G01 X-2.28415 Y149.76557
G01 X-2.27613 Y149.77073
G01 X-2.27476 Y149.77212
G01 X-2.26960 Y149.78012
G01 X-2.20460 Y149.91012
G01 X-2.20148 Y149.91830
G01 X-2.20117 Y149.92010
G04 P0 ( dwell for no time -- G64 should not smooth over this point )
G00 Z5.00000 ( retract )

G00 X-2.20117 Y150.70578 ( rapid move to begin. )
G01 F250.00000
( Mill infeed pass 1/1 )
G01 Z-0.20000
G04 P0 ( dwell for no time -- G64 should not smooth over this point )
G01 F500.00000
G01 X-2.20117 Y150.70578
G01 X-2.20122 Y150.70761
G01 X-2.20163 Y150.70941
G01 X-2.20239 Y150.71106
G01 X-2.20343 Y150.71256
G01 X-2.20475 Y150.71380
G01 X-2.20630 Y150.71479
G01 X-2.20803 Y150.71543
G01 X-2.20981 Y150.71576
G01 X-2.21164 Y150.71571
G01 X-2.21344 Y150.71530
G01 X-2.21509 Y150.71454
G01 X-2.21659 Y150.71350
G01 X-2.21784 Y150.71218
G01 X-2.22251 Y150.70476
G01 X-2.26848 Y150.61279
G01 X-2.28469 Y150.58756
G01 X-2.30587 Y150.56638
G01 X-2.33109 Y150.55018
G01 X-2.39757 Y150.51695
G01 X-2.42800 Y150.50593
G01 X-2.46018 Y150.50217
G01 X-3.70361 Y150.50217
G01 X-3.71230 Y150.50131
G01 X-3.71405 Y150.50080
G01 X-3.71565 Y150.49993
G01 X-3.71707 Y150.49877
G01 X-3.71824 Y150.49734
G01 X-3.71910 Y150.49574
G01 X-3.71961 Y150.49399
G01 X-3.71981 Y150.49216
G01 X-3.71961 Y150.49036
G01 X-3.71910 Y150.48861
G01 X-3.71824 Y150.48701
G01 X-3.71707 Y150.48558
G01 X-3.71565 Y150.48442
G01 X-3.71405 Y150.48355
G01 X-3.71230 Y150.48304
G01 X-3.70361 Y150.48218
G01 X-2.43287 Y150.48218
G01 X-2.42269 Y150.48337
G01 X-2.41301 Y150.48685
G01 X-2.28415 Y150.55129
G01 X-2.27613 Y150.55645
G01 X-2.27476 Y150.55782
G01 X-2.26960 Y150.56585
G01 X-2.20460 Y150.69582
G01 X-2.20150 Y150.70400
G01 X-2.20117 Y150.70578
G04 P0 ( dwell for no time -- G64 should not smooth over this point )
G00 Z5.00000 ( retract )

G00 X-2.20049 Y151.50029 ( rapid move to begin. )
G01 F250.00000
( Mill infeed pass 1/1 )
G01 Z-0.20000
G04 P0 ( dwell for no time -- G64 should not smooth over this point )
G01 F500.00000
G01 X-2.20049 Y151.50029
G01 X-2.20049 Y151.76976
G01 X-2.20168 Y151.77994
G01 X-2.20788 Y151.79727
G01 X-2.21377 Y151.81248
G01 X-2.21847 Y151.83874
G01 X-2.21809 Y151.86544
G01 X-2.21268 Y151.89155
G01 X-2.20239 Y151.91619
G01 X-2.20186 Y151.91718
G01 X-2.20135 Y151.91893
G01 X-2.20115 Y151.92073
G01 X-2.20135 Y151.92256
G01 X-2.20186 Y151.92432
G01 X-2.20272 Y151.92592
G01 X-2.20389 Y151.92734
G01 X-2.20531 Y151.92851
G01 X-2.20691 Y151.92937
G01 X-2.20867 Y151.92988
G01 X-2.21735 Y151.93074
G01 X-3.70361 Y151.93074
G01 X-3.71230 Y151.92988
G01 X-3.71405 Y151.92937
G01 X-3.71565 Y151.92851
G01 X-3.71707 Y151.92734
G01 X-3.71824 Y151.92592
G01 X-3.71910 Y151.92432
G01 X-3.71961 Y151.92256
G01 X-3.71981 Y151.92073
G01 X-3.71961 Y151.91893
G01 X-3.71910 Y151.91718
G01 X-3.71824 Y151.91558
G01 X-3.71707 Y151.91416
G01 X-3.71565 Y151.91299
G01 X-3.71405 Y151.91212
G01 X-3.71230 Y151.91162
G01 X-3.70361 Y151.91075
G01 X-3.36048 Y151.91075
G01 X-3.33317 Y151.90806
G01 X-3.30691 Y151.90008
G01 X-3.28271 Y151.88716
G01 X-3.26150 Y151.86973
G01 X-3.24407 Y151.84852
G01 X-3.23114 Y151.82432
G01 X-3.22317 Y151.79805
G01 X-3.22048 Y151.77075
G01 X-3.22048 Y151.50029
G01 X-3.21928 Y151.49010
G01 X-3.21580 Y151.48043
G01 X-3.15052 Y151.34990
G01 X-3.14679 Y151.34375
G01 X-3.14214 Y151.33826
G01 X-3.07867 Y151.27479
G01 X-3.07318 Y151.27014
G01 X-3.06703 Y151.26641
G01 X-2.93650 Y151.20113
G01 X-2.92683 Y151.19765
G01 X-2.91664 Y151.19645
G01 X-2.50430 Y151.19645
G01 X-2.49411 Y151.19765
G01 X-2.48443 Y151.20113
G01 X-2.35390 Y151.26641
G01 X-2.34776 Y151.27014
G01 X-2.34227 Y151.27479
G01 X-2.27882 Y151.33826
G01 X-2.27417 Y151.34375
G01 X-2.27044 Y151.34990
G01 X-2.20516 Y151.48043
G01 X-2.20168 Y151.49010
G01 X-2.20049 Y151.50029
G04 P0 ( dwell for no time -- G64 should not smooth over this point )
G00 Z5.00000 ( retract )

G00 X-2.22048 Y151.52759 ( rapid move to begin. )
G01 F250.00000
( Mill infeed pass 1/1 )
G01 Z-0.20000
G04 P0 ( dwell for no time -- G64 should not smooth over this point )
G01 F500.00000
G01 X-2.22048 Y151.52759
G01 X-2.22048 Y151.74248
G01 X-2.22424 Y151.77463
G01 X-2.23526 Y151.80506
G01 X-2.24941 Y151.83336
G01 X-2.26300 Y151.85525
G01 X-2.28042 Y151.87430
G01 X-2.30102 Y151.88985
G01 X-2.32411 Y151.90133
G01 X-2.34892 Y151.90836
G01 X-2.37463 Y151.91075
G01 X-3.04633 Y151.91075
G01 X-3.07204 Y151.90836
G01 X-3.09685 Y151.90133
G01 X-3.11994 Y151.88985
G01 X-3.14054 Y151.87430
G01 X-3.15797 Y151.85525
G01 X-3.17155 Y151.83336
G01 X-3.18570 Y151.80506
G01 X-3.19673 Y151.77463
G01 X-3.20049 Y151.74248
G01 X-3.20049 Y151.52759
G01 X-3.19673 Y151.49541
G01 X-3.18570 Y151.46498
G01 X-3.14100 Y151.37557
G01 X-3.12934 Y151.35632
G01 X-3.11476 Y151.33918
G01 X-3.07775 Y151.30217
G01 X-3.06061 Y151.28759
G01 X-3.04135 Y151.27593
G01 X-2.95195 Y151.23123
G01 X-2.92152 Y151.22020
G01 X-2.88934 Y151.21644
G01 X-2.53160 Y151.21644
G01 X-2.49942 Y151.22020
G01 X-2.46899 Y151.23123
G01 X-2.37958 Y151.27593
G01 X-2.36033 Y151.28759
G01 X-2.34318 Y151.30217
G01 X-2.30618 Y151.33918
G01 X-2.29162 Y151.35632
G01 X-2.27996 Y151.37555
G01 X-2.23526 Y151.46498
G01 X-2.22424 Y151.49541
G01 X-2.22048 Y151.52759
G04 P0 ( dwell for no time -- G64 should not smooth over this point )
G00 Z5.00000 ( retract )

G00 X-2.20049 Y152.85744 ( rapid move to begin. )
G01 F250.00000
( Mill infeed pass 1/1 )
G01 Z-0.20000
G04 P0 ( dwell for no time -- G64 should not smooth over this point )
G01 F500.00000
G01 X-2.20049 Y152.85744
G01 X-2.20049 Y153.05548
G01 X-2.20168 Y153.06567
G01 X-2.20516 Y153.07534
G01 X-2.27044 Y153.20587
G01 X-2.27417 Y153.21202
G01 X-2.27882 Y153.21751
G01 X-2.34227 Y153.28098
G01 X-2.34776 Y153.28563
G01 X-2.35390 Y153.28936
G01 X-2.48443 Y153.35464
G01 X-2.49411 Y153.35812
G01 X-2.50430 Y153.35931
G01 X-2.91664 Y153.35931
G01 X-2.92683 Y153.35812
G01 X-2.93650 Y153.35464
G01 X-3.06703 Y153.28936
G01 X-3.07318 Y153.28563
G01 X-3.07867 Y153.28098
G01 X-3.14214 Y153.21751
G01 X-3.14679 Y153.21202
G01 X-3.15052 Y153.20587
G01 X-3.21580 Y153.07534
G01 X-3.21928 Y153.06567
G01 X-3.22048 Y153.05548
G01 X-3.22048 Y152.85744
G01 X-3.21928 Y152.84725
G01 X-3.21580 Y152.83757
G01 X-3.15052 Y152.70702
G01 X-3.14679 Y152.70087
G01 X-3.14214 Y152.69538
G01 X-3.07867 Y152.63193
G01 X-3.07318 Y152.62729
G01 X-3.06703 Y152.62355
G01 X-2.93650 Y152.55827
G01 X-2.92683 Y152.55479
G01 X-2.91664 Y152.55360
G01 X-2.50430 Y152.55360
G01 X-2.49411 Y152.55479
G01 X-2.48443 Y152.55827
G01 X-2.35390 Y152.62355
G01 X-2.34776 Y152.62729
G01 X-2.34227 Y152.63193
G01 X-2.27882 Y152.69538
G01 X-2.27417 Y152.70087
G01 X-2.27044 Y152.70702
G01 X-2.20516 Y152.83757
G01 X-2.20168 Y152.84725
G01 X-2.20049 Y152.85744
G04 P0 ( dwell for no time -- G64 should not smooth over this point )
G00 Z5.00000 ( retract )

G00 X-2.22048 Y152.88472 ( rapid move to begin. )
G01 F250.00000
( Mill infeed pass 1/1 )
G01 Z-0.20000
G04 P0 ( dwell for no time -- G64 should not smooth over this point )
G01 F500.00000
G01 X-2.22048 Y152.88472
G01 X-2.22048 Y153.02817
G01 X-2.22424 Y153.06036
G01 X-2.23526 Y153.09079
G01 X-2.27996 Y153.18022
G01 X-2.29162 Y153.19945
G01 X-2.30618 Y153.21659
G01 X-2.34318 Y153.25360
G01 X-2.36033 Y153.26818
G01 X-2.37958 Y153.27984
G01 X-2.46899 Y153.32454
G01 X-2.49942 Y153.33557
G01 X-2.53160 Y153.33932
G01 X-2.88934 Y153.33932
G01 X-2.92152 Y153.33557
G01 X-2.95195 Y153.32454
G01 X-3.04135 Y153.27984
G01 X-3.06061 Y153.26818
G01 X-3.07775 Y153.25360
G01 X-3.11476 Y153.21659
G01 X-3.12934 Y153.19945
G01 X-3.14100 Y153.18019
G01 X-3.18570 Y153.09079
G01 X-3.19673 Y153.06036
G01 X-3.20049 Y153.02817
G01 X-3.20049 Y152.88472
G01 X-3.19673 Y152.85256
G01 X-3.18570 Y152.82213
G01 X-3.14100 Y152.73270
G01 X-3.12934 Y152.71344
G01 X-3.11476 Y152.69630
G01 X-3.07775 Y152.65929
G01 X-3.06061 Y152.64474
G01 X-3.04138 Y152.63308
G01 X-2.95195 Y152.58837
G01 X-2.92152 Y152.57735
G01 X-2.88934 Y152.57359
G01 X-2.53160 Y152.57359
G01 X-2.49942 Y152.57735
G01 X-2.46899 Y152.58837
G01 X-2.37958 Y152.63308
G01 X-2.36033 Y152.64474
G01 X-2.34318 Y152.65932
G01 X-2.30620 Y152.69630
G01 X-2.29162 Y152.71344
G01 X-2.27996 Y152.73270
G01 X-2.23526 Y152.82213
G01 X-2.22424 Y152.85256
G01 X-2.22048 Y152.88472
G04 P0 ( dwell for no time -- G64 should not smooth over this point )
G00 Z5.00000 ( retract )

G00 X-2.20112 Y154.13544 ( rapid move to begin. )
G01 F250.00000
( Mill infeed pass 1/1 )
G01 Z-0.20000
G04 P0 ( dwell for no time -- G64 should not smooth over this point )
G01 F500.00000
G01 X-2.20112 Y154.13544
G01 X-2.20122 Y154.13366
G01 X-2.20166 Y154.13191
G01 X-2.20239 Y154.13031
G01 X-2.20343 Y154.12886
G01 X-2.20475 Y154.12761
G01 X-2.20625 Y154.12667
G01 X-2.21418 Y154.12358
G01 X-3.20112 Y153.84158
G01 X-3.20971 Y153.84003
G01 X-3.21153 Y153.84006
G01 X-3.21334 Y153.84044
G01 X-3.21501 Y153.84118
G01 X-3.21651 Y153.84222
G01 X-3.21778 Y153.84351
G01 X-3.21877 Y153.84506
G01 X-3.21943 Y153.84677
G01 X-3.21976 Y153.84854
G01 X-3.21974 Y153.85037
G01 X-3.21936 Y153.85218
G01 X-3.21862 Y153.85385
G01 X-3.21758 Y153.85535
G01 X-3.21628 Y153.85662
G01 X-3.21473 Y153.85761
G01 X-3.20661 Y153.86081
G01 X-2.63513 Y154.02411
G01 X-2.61027 Y154.03384
G01 X-2.58771 Y154.04814
G01 X-2.56828 Y154.06645
G01 X-2.55268 Y154.08812
G01 X-2.54148 Y154.11235
G01 X-2.53508 Y154.13826
G01 X-2.53371 Y154.16493
G01 X-2.53744 Y154.19137
G01 X-2.54611 Y154.21662
G01 X-2.55941 Y154.23975
G01 X-2.57689 Y154.25995
G01 X-2.59784 Y154.27646
G01 X-2.62159 Y154.28870
G01 X-2.92203 Y154.40887
G01 X-2.92985 Y154.41296
G01 X-2.93130 Y154.41410
G01 X-2.93246 Y154.41552
G01 X-2.93335 Y154.41715
G01 X-2.93389 Y154.41890
G01 X-2.93406 Y154.42073
G01 X-2.93389 Y154.42258
G01 X-2.93335 Y154.42434
G01 X-2.93246 Y154.42596
G01 X-2.93130 Y154.42738
G01 X-2.92985 Y154.42853
G01 X-2.92203 Y154.43262
G01 X-2.62159 Y154.55278
G01 X-2.59784 Y154.56503
G01 X-2.57689 Y154.58154
G01 X-2.55941 Y154.60173
G01 X-2.54611 Y154.62487
G01 X-2.53744 Y154.65012
G01 X-2.53371 Y154.67656
G01 X-2.53508 Y154.70323
G01 X-2.54148 Y154.72914
G01 X-2.55268 Y154.75337
G01 X-2.56828 Y154.77503
G01 X-2.58771 Y154.79335
G01 X-2.61027 Y154.80765
G01 X-2.63513 Y154.81738
G01 X-3.20661 Y154.98067
G01 X-3.21473 Y154.98387
G01 X-3.21628 Y154.98486
G01 X-3.21758 Y154.98613
G01 X-3.21862 Y154.98763
G01 X-3.21936 Y154.98931
G01 X-3.21974 Y154.99111
G01 X-3.21976 Y154.99294
G01 X-3.21943 Y154.99472
G01 X-3.21877 Y154.99642
G01 X-3.21778 Y154.99797
G01 X-3.21651 Y154.99927
G01 X-3.21501 Y155.00031
G01 X-3.21334 Y155.00104
G01 X-3.21153 Y155.00142
G01 X-3.20971 Y155.00145
G01 X-3.20112 Y154.99990
G01 X-2.21418 Y154.71791
G01 X-2.20625 Y154.71481
G01 X-2.20475 Y154.71387
G01 X-2.20343 Y154.71263
G01 X-2.20239 Y154.71118
G01 X-2.20166 Y154.70958
G01 X-2.20122 Y154.70783
G01 X-2.20112 Y154.70605
G01 X-2.20138 Y154.70430
G01 X-2.20196 Y154.70259
G01 X-2.20285 Y154.70104
G01 X-2.20402 Y154.69970
G01 X-2.20541 Y154.69861
G01 X-2.21298 Y154.69469
G01 X-2.57288 Y154.55073
G01 X-2.59749 Y154.53793
G01 X-2.61908 Y154.52053
G01 X-2.63681 Y154.49924
G01 X-2.65002 Y154.47483
G01 X-2.65814 Y154.44834
G01 X-2.66089 Y154.42073
G01 X-2.65814 Y154.39315
G01 X-2.65002 Y154.36665
G01 X-2.63681 Y154.34224
G01 X-2.61908 Y154.32096
G01 X-2.59749 Y154.30356
G01 X-2.57288 Y154.29076
G01 X-2.21298 Y154.14679
G01 X-2.20541 Y154.14288
G01 X-2.20402 Y154.14179
G01 X-2.20285 Y154.14044
G01 X-2.20196 Y154.13889
G01 X-2.20138 Y154.13719
G01 X-2.20112 Y154.13544
G04 P0 ( dwell for no time -- G64 should not smooth over this point )
G00 Z5.00000 ( retract )

G00 X-2.20115 Y155.56358 ( rapid move to begin. )
G01 F250.00000
( Mill infeed pass 1/1 )
G01 Z-0.20000
G04 P0 ( dwell for no time -- G64 should not smooth over this point )
G01 F500.00000
G01 X-2.20115 Y155.56358
G01 X-2.20135 Y155.56177
G01 X-2.20186 Y155.56002
G01 X-2.20272 Y155.55842
G01 X-2.20389 Y155.55700
G01 X-2.20531 Y155.55583
G01 X-2.20691 Y155.55497
G01 X-2.20867 Y155.55446
G01 X-2.21735 Y155.55360
G01 X-3.20361 Y155.55360
G01 X-3.21230 Y155.55446
G01 X-3.21405 Y155.55497
G01 X-3.21565 Y155.55583
G01 X-3.21707 Y155.55700
G01 X-3.21824 Y155.55842
G01 X-3.21910 Y155.56002
G01 X-3.21961 Y155.56177
G01 X-3.21981 Y155.56358
G01 X-3.21961 Y155.56541
G01 X-3.21910 Y155.56716
G01 X-3.21824 Y155.56876
G01 X-3.21301 Y155.57513
G01 X-3.19805 Y155.59741
G01 X-3.18763 Y155.62210
G01 X-3.18210 Y155.64834
G01 X-3.18166 Y155.67513
G01 X-3.18636 Y155.70155
G01 X-3.19599 Y155.72657
G01 X-3.21580 Y155.76614
G01 X-3.21928 Y155.77582
G01 X-3.22048 Y155.78601
G01 X-3.22048 Y155.98405
G01 X-3.21928 Y155.99423
G01 X-3.21580 Y156.00391
G01 X-3.15136 Y156.13277
G01 X-3.14621 Y156.14079
G01 X-3.14483 Y156.14216
G01 X-3.13681 Y156.14732
G01 X-3.00793 Y156.21179
G01 X-2.99825 Y156.21526
G01 X-2.98807 Y156.21646
G01 X-2.21735 Y156.21646
G01 X-2.20867 Y156.21560
G01 X-2.20691 Y156.21509
G01 X-2.20531 Y156.21422
G01 X-2.20389 Y156.21306
G01 X-2.20272 Y156.21163
G01 X-2.20186 Y156.21003
G01 X-2.20135 Y156.20828
G01 X-2.20115 Y156.20645
G01 X-2.20135 Y156.20465
G01 X-2.20186 Y156.20290
G01 X-2.20272 Y156.20130
G01 X-2.20389 Y156.19987
G01 X-2.20531 Y156.19870
G01 X-2.20691 Y156.19784
G01 X-2.20867 Y156.19733
G01 X-2.21735 Y156.19647
G01 X-2.96076 Y156.19647
G01 X-2.99294 Y156.19271
G01 X-3.02337 Y156.18169
G01 X-3.08987 Y156.14844
G01 X-3.11509 Y156.13223
G01 X-3.13627 Y156.11105
G01 X-3.15248 Y156.08583
G01 X-3.18570 Y156.01935
G01 X-3.19673 Y155.98893
G01 X-3.20049 Y155.95674
G01 X-3.20049 Y155.81328
G01 X-3.19673 Y155.78113
G01 X-3.18570 Y155.75070
G01 X-3.14100 Y155.66127
G01 X-3.12934 Y155.64201
G01 X-3.11476 Y155.62487
G01 X-3.10447 Y155.61458
G01 X-3.08326 Y155.59718
G01 X-3.05906 Y155.58425
G01 X-3.03279 Y155.57628
G01 X-3.00549 Y155.57358
G01 X-2.21735 Y155.57358
G01 X-2.20867 Y155.57272
G01 X-2.20691 Y155.57221
G01 X-2.20531 Y155.57135
G01 X-2.20389 Y155.57018
G01 X-2.20272 Y155.56876
G01 X-2.20186 Y155.56716
G01 X-2.20135 Y155.56541
G01 X-2.20115 Y155.56358
G04 P0 ( dwell for no time -- G64 should not smooth over this point )
G00 Z5.00000 ( retract )

G00 X-4.61613 Y153.49216 ( rapid move to begin. )
G01 F250.00000
( Mill infeed pass 1/1 )
G01 Z-0.20000
G04 P0 ( dwell for no time -- G64 should not smooth over this point )
G01 F500.00000
G01 X-4.61613 Y153.49216
G01 X-4.61633 Y153.49035
G01 X-4.61684 Y153.48860
G01 X-4.61770 Y153.48700
G01 X-4.61887 Y153.48558
G01 X-4.62029 Y153.48441
G01 X-4.62189 Y153.48355
G01 X-4.62365 Y153.48304
G01 X-4.63233 Y153.48217
G01 X-6.11862 Y153.48217
G01 X-6.12730 Y153.48304
G01 X-6.12905 Y153.48355
G01 X-6.13065 Y153.48441
G01 X-6.13208 Y153.48558
G01 X-6.13325 Y153.48700
G01 X-6.13411 Y153.48860
G01 X-6.13462 Y153.49035
G01 X-6.13482 Y153.49216
G01 X-6.13462 Y153.49399
G01 X-6.13411 Y153.49574
G01 X-6.13325 Y153.49734
G01 X-6.13208 Y153.49876
G01 X-6.13065 Y153.49993
G01 X-6.12905 Y153.50079
G01 X-6.12730 Y153.50130
G01 X-6.11862 Y153.50216
G01 X-4.63233 Y153.50216
G01 X-4.62365 Y153.50130
G01 X-4.62189 Y153.50079
G01 X-4.62029 Y153.49993
G01 X-4.61887 Y153.49876
G01 X-4.61770 Y153.49734
G01 X-4.61684 Y153.49574
G01 X-4.61633 Y153.49399
G01 X-4.61613 Y153.49216
G04 P0 ( dwell for no time -- G64 should not smooth over this point )
G00 Z5.00000 ( retract )

G00 X-4.61613 Y154.20643 ( rapid move to begin. )
G01 F250.00000
( Mill infeed pass 1/1 )
G01 Z-0.20000
G04 P0 ( dwell for no time -- G64 should not smooth over this point )
G01 F500.00000
G01 X-4.61613 Y154.20643
G01 X-4.61633 Y154.20463
G01 X-4.61684 Y154.20287
G01 X-4.61770 Y154.20127
G01 X-4.61887 Y154.19985
G01 X-4.62029 Y154.19868
G01 X-4.62189 Y154.19782
G01 X-4.62365 Y154.19731
G01 X-4.63233 Y154.19645
G01 X-6.11841 Y154.19645
G01 X-6.12735 Y154.19734
G01 X-6.12913 Y154.19790
G01 X-6.13076 Y154.19881
G01 X-6.13218 Y154.20003
G01 X-6.13335 Y154.20150
G01 X-6.13419 Y154.20318
G01 X-6.13464 Y154.20498
G01 X-6.13477 Y154.20684
G01 X-6.13449 Y154.20869
G01 X-6.13386 Y154.21044
G01 X-6.13289 Y154.21204
G01 X-6.13162 Y154.21341
G01 X-6.12430 Y154.21862
G01 X-5.12085 Y154.79203
G01 X-5.09789 Y154.80841
G01 X-5.07869 Y154.82906
G01 X-5.06403 Y154.85314
G01 X-5.05448 Y154.87966
G01 X-5.05044 Y154.90757
G01 X-5.05207 Y154.93571
G01 X-5.05931 Y154.96297
G01 X-5.07186 Y154.98822
G01 X-5.08920 Y155.01044
G01 X-5.11067 Y155.02873
G01 X-5.13533 Y155.04234
G01 X-5.16225 Y155.05075
G01 X-5.19030 Y155.05360
G01 X-6.11862 Y155.05360
G01 X-6.12730 Y155.05446
G01 X-6.12905 Y155.05497
G01 X-6.13065 Y155.05583
G01 X-6.13208 Y155.05700
G01 X-6.13325 Y155.05842
G01 X-6.13411 Y155.06002
G01 X-6.13462 Y155.06177
G01 X-6.13482 Y155.06358
G01 X-6.13462 Y155.06541
G01 X-6.13411 Y155.06716
G01 X-6.13325 Y155.06876
G01 X-6.13208 Y155.07018
G01 X-6.13065 Y155.07135
G01 X-6.12905 Y155.07221
G01 X-6.12730 Y155.07272
G01 X-6.11862 Y155.07359
G01 X-4.63254 Y155.07359
G01 X-4.62360 Y155.07270
G01 X-4.62182 Y155.07214
G01 X-4.62019 Y155.07122
G01 X-4.61877 Y155.07000
G01 X-4.61760 Y155.06853
G01 X-4.61676 Y155.06685
G01 X-4.61631 Y155.06505
G01 X-4.61618 Y155.06320
G01 X-4.61646 Y155.06134
G01 X-4.61709 Y155.05959
G01 X-4.61806 Y155.05799
G01 X-4.61933 Y155.05662
G01 X-4.62664 Y155.05141
G01 X-5.63010 Y154.47801
G01 X-5.65306 Y154.46162
G01 X-5.67226 Y154.44097
G01 X-5.68692 Y154.41689
G01 X-5.69647 Y154.39038
G01 X-5.70051 Y154.36246
G01 X-5.69888 Y154.33432
G01 X-5.69164 Y154.30706
G01 X-5.67909 Y154.28182
G01 X-5.66175 Y154.25959
G01 X-5.64028 Y154.24130
G01 X-5.61562 Y154.22769
G01 X-5.58869 Y154.21928
G01 X-5.56065 Y154.21644
G01 X-4.63233 Y154.21644
G01 X-4.62365 Y154.21557
G01 X-4.62189 Y154.21507
G01 X-4.62029 Y154.21420
G01 X-4.61887 Y154.21303
G01 X-4.61770 Y154.21161
G01 X-4.61684 Y154.21001
G01 X-4.61633 Y154.20826
G01 X-4.61613 Y154.20643
G04 P0 ( dwell for no time -- G64 should not smooth over this point )
G00 Z5.00000 ( retract )

G00 X-14.55256 Y155.34633 ( rapid move to begin. )
G01 F250.00000
( Mill infeed pass 1/1 )
G01 Z-0.20000
G04 P0 ( dwell for no time -- G64 should not smooth over this point )
G01 F500.00000
G01 X-14.55256 Y155.34633
G01 X-14.55256 Y156.53259
G01 X-14.55342 Y156.54127
G01 X-14.55393 Y156.54303
G01 X-14.55479 Y156.54463
G01 X-14.55596 Y156.54605
G01 X-14.55738 Y156.54722
G01 X-14.55898 Y156.54808
G01 X-14.56074 Y156.54859
G01 X-14.56257 Y156.54879
G01 X-14.56437 Y156.54859
G01 X-14.56612 Y156.54808
G01 X-14.56772 Y156.54722
G01 X-14.56914 Y156.54605
G01 X-14.57031 Y156.54463
G01 X-14.57118 Y156.54303
G01 X-14.57168 Y156.54127
G01 X-14.57255 Y156.53259
G01 X-14.57255 Y156.11803
G01 X-14.57524 Y156.09073
G01 X-14.58322 Y156.06447
G01 X-14.59614 Y156.04026
G01 X-14.61357 Y156.01905
G01 X-14.63478 Y156.00163
G01 X-14.65898 Y155.98870
G01 X-14.68525 Y155.98072
G01 X-14.71255 Y155.97803
G01 X-15.01156 Y155.97803
G01 X-15.02175 Y155.97684
G01 X-15.03142 Y155.97336
G01 X-15.13341 Y155.92235
G01 X-15.13955 Y155.91862
G01 X-15.14504 Y155.91397
G01 X-15.19421 Y155.86480
G01 X-15.19886 Y155.85931
G01 X-15.20259 Y155.85316
G01 X-15.25357 Y155.75121
G01 X-15.25705 Y155.74153
G01 X-15.25825 Y155.73134
G01 X-15.25825 Y155.57615
G01 X-15.25705 Y155.56596
G01 X-15.25357 Y155.55631
G01 X-15.20259 Y155.45431
G01 X-15.19886 Y155.44816
G01 X-15.19421 Y155.44267
G01 X-15.14504 Y155.39350
G01 X-15.13955 Y155.38885
G01 X-15.13341 Y155.38512
G01 X-15.03140 Y155.33414
G01 X-15.02175 Y155.33066
G01 X-15.01156 Y155.32947
G01 X-14.56942 Y155.32947
G01 X-14.56074 Y155.33033
G01 X-14.55898 Y155.33084
G01 X-14.55738 Y155.33170
G01 X-14.55596 Y155.33287
G01 X-14.55479 Y155.33429
G01 X-14.55393 Y155.33589
G01 X-14.55342 Y155.33764
G01 X-14.55256 Y155.34633
G04 P0 ( dwell for no time -- G64 should not smooth over this point )
G00 Z5.00000 ( retract )

G00 X-14.57255 Y155.48946 ( rapid move to begin. )
G01 F250.00000
( Mill infeed pass 1/1 )
G01 Z-0.20000
G04 P0 ( dwell for no time -- G64 should not smooth over this point )
G01 F500.00000
G01 X-14.57255 Y155.48946
G01 X-14.57255 Y155.81803
G01 X-14.57524 Y155.84534
G01 X-14.58322 Y155.87160
G01 X-14.59614 Y155.89581
G01 X-14.61357 Y155.91702
G01 X-14.63478 Y155.93444
G01 X-14.65898 Y155.94737
G01 X-14.68525 Y155.95535
G01 X-14.71255 Y155.95804
G01 X-14.98426 Y155.95804
G01 X-15.01644 Y155.95428
G01 X-15.04687 Y155.94326
G01 X-15.10773 Y155.91283
G01 X-15.12698 Y155.90117
G01 X-15.14412 Y155.88659
G01 X-15.16683 Y155.86388
G01 X-15.18141 Y155.84674
G01 X-15.19307 Y155.82748
G01 X-15.22347 Y155.76665
G01 X-15.23450 Y155.73622
G01 X-15.23826 Y155.70406
G01 X-15.23826 Y155.60343
G01 X-15.23450 Y155.57127
G01 X-15.22347 Y155.54084
G01 X-15.19307 Y155.47999
G01 X-15.18141 Y155.46073
G01 X-15.16683 Y155.44359
G01 X-15.14412 Y155.42088
G01 X-15.12698 Y155.40630
G01 X-15.10773 Y155.39464
G01 X-15.04687 Y155.36424
G01 X-15.01644 Y155.35321
G01 X-14.98428 Y155.34946
G01 X-14.71255 Y155.34946
G01 X-14.68525 Y155.35215
G01 X-14.65898 Y155.36012
G01 X-14.63478 Y155.37305
G01 X-14.61357 Y155.39048
G01 X-14.59614 Y155.41169
G01 X-14.58322 Y155.43589
G01 X-14.57524 Y155.46216
G01 X-14.57255 Y155.48946
G04 P0 ( dwell for no time -- G64 should not smooth over this point )
G00 Z5.00000 ( retract )

G00 X-15.75256 Y155.34633 ( rapid move to begin. )
G01 F250.00000
( Mill infeed pass 1/1 )
G01 Z-0.20000
G04 P0 ( dwell for no time -- G64 should not smooth over this point )
G01 F500.00000
G01 X-15.75256 Y155.34633
G01 X-15.75256 Y156.53259
G01 X-15.75342 Y156.54127
G01 X-15.75393 Y156.54303
G01 X-15.75479 Y156.54463
G01 X-15.75596 Y156.54605
G01 X-15.75738 Y156.54722
G01 X-15.75898 Y156.54808
G01 X-15.76073 Y156.54859
G01 X-15.76942 Y156.54945
G01 X-16.21158 Y156.54945
G01 X-16.22177 Y156.54826
G01 X-16.23145 Y156.54478
G01 X-16.33340 Y156.49378
G01 X-16.33955 Y156.49004
G01 X-16.34504 Y156.48539
G01 X-16.39421 Y156.43622
G01 X-16.39886 Y156.43073
G01 X-16.40259 Y156.42459
G01 X-16.45357 Y156.32263
G01 X-16.45705 Y156.31295
G01 X-16.45824 Y156.30277
G01 X-16.45824 Y156.14757
G01 X-16.45705 Y156.13739
G01 X-16.45357 Y156.12774
G01 X-16.40259 Y156.02573
G01 X-16.39886 Y156.01958
G01 X-16.39421 Y156.01410
G01 X-16.35923 Y155.97915
G01 X-16.34232 Y155.95867
G01 X-16.32957 Y155.93538
G01 X-16.32144 Y155.91008
G01 X-16.31824 Y155.88372
G01 X-16.32009 Y155.85723
G01 X-16.32690 Y155.83157
G01 X-16.33841 Y155.80765
G01 X-16.34544 Y155.79604
G01 X-16.39645 Y155.69406
G01 X-16.39993 Y155.68438
G01 X-16.40112 Y155.67419
G01 X-16.40112 Y155.57615
G01 X-16.39993 Y155.56596
G01 X-16.39645 Y155.55629
G01 X-16.34544 Y155.45431
G01 X-16.34171 Y155.44816
G01 X-16.33706 Y155.44267
G01 X-16.28789 Y155.39350
G01 X-16.28240 Y155.38885
G01 X-16.27625 Y155.38512
G01 X-16.17430 Y155.33414
G01 X-16.16462 Y155.33066
G01 X-16.15443 Y155.32947
G01 X-15.76942 Y155.32947
G01 X-15.76073 Y155.33033
G01 X-15.75898 Y155.33084
G01 X-15.75738 Y155.33170
G01 X-15.75596 Y155.33287
G01 X-15.75479 Y155.33429
G01 X-15.75393 Y155.33589
G01 X-15.75342 Y155.33764
G01 X-15.75256 Y155.34633
G04 P0 ( dwell for no time -- G64 should not smooth over this point )
G00 Z5.00000 ( retract )

G00 X-15.77255 Y155.48946 ( rapid move to begin. )
G01 F250.00000
( Mill infeed pass 1/1 )
G01 Z-0.20000
G04 P0 ( dwell for no time -- G64 should not smooth over this point )
G01 F500.00000
G01 X-15.77255 Y155.48946
G01 X-15.77255 Y155.76088
G01 X-15.77524 Y155.78819
G01 X-15.78321 Y155.81445
G01 X-15.79614 Y155.83866
G01 X-15.81357 Y155.85987
G01 X-15.83478 Y155.87729
G01 X-15.85898 Y155.89022
G01 X-15.88525 Y155.89820
G01 X-15.91255 Y155.90089
G01 X-16.12713 Y155.90089
G01 X-16.15931 Y155.89713
G01 X-16.18977 Y155.88611
G01 X-16.25060 Y155.85568
G01 X-16.26983 Y155.84404
G01 X-16.28695 Y155.82946
G01 X-16.30968 Y155.80676
G01 X-16.32426 Y155.78961
G01 X-16.33592 Y155.77036
G01 X-16.36635 Y155.70950
G01 X-16.37737 Y155.67907
G01 X-16.38113 Y155.64689
G01 X-16.38113 Y155.60346
G01 X-16.37737 Y155.57127
G01 X-16.36635 Y155.54084
G01 X-16.33592 Y155.47999
G01 X-16.32426 Y155.46073
G01 X-16.30968 Y155.44359
G01 X-16.28697 Y155.42088
G01 X-16.26983 Y155.40630
G01 X-16.25057 Y155.39464
G01 X-16.18974 Y155.36424
G01 X-16.15931 Y155.35321
G01 X-16.12715 Y155.34946
G01 X-15.91255 Y155.34946
G01 X-15.88525 Y155.35215
G01 X-15.85898 Y155.36012
G01 X-15.83478 Y155.37305
G01 X-15.81357 Y155.39048
G01 X-15.79614 Y155.41169
G01 X-15.78321 Y155.43589
G01 X-15.77524 Y155.46216
G01 X-15.77255 Y155.48946
G04 P0 ( dwell for no time -- G64 should not smooth over this point )
G00 Z5.00000 ( retract )

G00 X-15.77255 Y156.06088 ( rapid move to begin. )
G01 F250.00000
( Mill infeed pass 1/1 )
G01 Z-0.20000
G04 P0 ( dwell for no time -- G64 should not smooth over this point )
G01 F500.00000
G01 X-15.77255 Y156.06088
G01 X-15.77255 Y156.38946
G01 X-15.77524 Y156.41676
G01 X-15.78321 Y156.44303
G01 X-15.79614 Y156.46723
G01 X-15.81357 Y156.48844
G01 X-15.83478 Y156.50587
G01 X-15.85898 Y156.51880
G01 X-15.88525 Y156.52677
G01 X-15.91255 Y156.52946
G01 X-16.18428 Y156.52946
G01 X-16.21646 Y156.52570
G01 X-16.24692 Y156.51468
G01 X-16.30775 Y156.48425
G01 X-16.32698 Y156.47259
G01 X-16.34412 Y156.45804
G01 X-16.36683 Y156.43531
G01 X-16.38141 Y156.41816
G01 X-16.39307 Y156.39891
G01 X-16.42347 Y156.33807
G01 X-16.43449 Y156.30764
G01 X-16.43825 Y156.27549
G01 X-16.43825 Y156.17485
G01 X-16.43449 Y156.14270
G01 X-16.42347 Y156.11227
G01 X-16.39307 Y156.05144
G01 X-16.38141 Y156.03216
G01 X-16.36683 Y156.01501
G01 X-16.35194 Y156.00013
G01 X-16.32654 Y155.98004
G01 X-16.29723 Y155.96632
G01 X-16.18248 Y155.92807
G01 X-16.16063 Y155.92268
G01 X-16.13820 Y155.92088
G01 X-15.91255 Y155.92088
G01 X-15.88525 Y155.92357
G01 X-15.85898 Y155.93155
G01 X-15.83478 Y155.94448
G01 X-15.81357 Y155.96190
G01 X-15.79614 Y155.98311
G01 X-15.78321 Y156.00732
G01 X-15.77524 Y156.03358
G01 X-15.77255 Y156.06088
G04 P0 ( dwell for no time -- G64 should not smooth over this point )
G00 Z5.00000 ( retract )

G00 X-16.89540 Y155.80518 ( rapid move to begin. )
G01 F250.00000
( Mill infeed pass 1/1 )
G01 Z-0.20000
G04 P0 ( dwell for no time -- G64 should not smooth over this point )
G01 F500.00000
G01 X-16.89540 Y155.80518
G01 X-16.89540 Y156.07371
G01 X-16.89779 Y156.09307
G01 X-16.95098 Y156.30587
G01 X-16.95702 Y156.32220
G01 X-17.00823 Y156.42459
G01 X-17.01196 Y156.43073
G01 X-17.01661 Y156.43622
G01 X-17.06576 Y156.48539
G01 X-17.07125 Y156.49004
G01 X-17.07739 Y156.49378
G01 X-17.17938 Y156.54478
G01 X-17.18905 Y156.54826
G01 X-17.19924 Y156.54945
G01 X-17.29728 Y156.54945
G01 X-17.30747 Y156.54826
G01 X-17.31714 Y156.54478
G01 X-17.41913 Y156.49378
G01 X-17.42527 Y156.49004
G01 X-17.43076 Y156.48539
G01 X-17.47991 Y156.43622
G01 X-17.48456 Y156.43073
G01 X-17.48829 Y156.42459
G01 X-17.53950 Y156.32220
G01 X-17.54554 Y156.30587
G01 X-17.59873 Y156.09307
G01 X-17.60112 Y156.07371
G01 X-17.60112 Y155.80518
G01 X-17.59873 Y155.78583
G01 X-17.54554 Y155.57305
G01 X-17.53950 Y155.55672
G01 X-17.48829 Y155.45431
G01 X-17.48456 Y155.44816
G01 X-17.47991 Y155.44267
G01 X-17.43076 Y155.39350
G01 X-17.42527 Y155.38885
G01 X-17.41913 Y155.38512
G01 X-17.31712 Y155.33414
G01 X-17.30747 Y155.33066
G01 X-17.29728 Y155.32947
G01 X-17.19924 Y155.32947
G01 X-17.18905 Y155.33066
G01 X-17.17940 Y155.33414
G01 X-17.07739 Y155.38512
G01 X-17.07125 Y155.38885
G01 X-17.06576 Y155.39350
G01 X-17.01661 Y155.44267
G01 X-17.01196 Y155.44816
G01 X-17.00823 Y155.45431
G01 X-16.95702 Y155.55672
G01 X-16.95098 Y155.57305
G01 X-16.89779 Y155.78583
G01 X-16.89540 Y155.80518
G04 P0 ( dwell for no time -- G64 should not smooth over this point )
G00 Z5.00000 ( retract )

G00 X-16.91539 Y155.81506 ( rapid move to begin. )
G01 F250.00000
( Mill infeed pass 1/1 )
G01 Z-0.20000
G04 P0 ( dwell for no time -- G64 should not smooth over this point )
G01 F500.00000
G01 X-16.91539 Y155.81506
G01 X-16.91539 Y156.06383
G01 X-16.91958 Y156.09779
G01 X-16.96825 Y156.29248
G01 X-16.97887 Y156.32113
G01 X-17.01776 Y156.39893
G01 X-17.02939 Y156.41816
G01 X-17.04397 Y156.43528
G01 X-17.06668 Y156.45801
G01 X-17.08382 Y156.47259
G01 X-17.10307 Y156.48425
G01 X-17.16393 Y156.51468
G01 X-17.19436 Y156.52570
G01 X-17.22654 Y156.52946
G01 X-17.26998 Y156.52946
G01 X-17.30216 Y156.52570
G01 X-17.33259 Y156.51468
G01 X-17.39345 Y156.48425
G01 X-17.41270 Y156.47259
G01 X-17.42984 Y156.45801
G01 X-17.45255 Y156.43528
G01 X-17.46713 Y156.41816
G01 X-17.47877 Y156.39893
G01 X-17.51765 Y156.32113
G01 X-17.52827 Y156.29248
G01 X-17.57694 Y156.09779
G01 X-17.58113 Y156.06383
G01 X-17.58113 Y155.81506
G01 X-17.57694 Y155.78110
G01 X-17.52827 Y155.58644
G01 X-17.51768 Y155.55779
G01 X-17.47877 Y155.47996
G01 X-17.46711 Y155.46073
G01 X-17.45255 Y155.44361
G01 X-17.42984 Y155.42088
G01 X-17.41270 Y155.40630
G01 X-17.39342 Y155.39464
G01 X-17.33259 Y155.36424
G01 X-17.30216 Y155.35321
G01 X-17.27000 Y155.34946
G01 X-17.22652 Y155.34946
G01 X-17.19436 Y155.35321
G01 X-17.16393 Y155.36424
G01 X-17.10310 Y155.39464
G01 X-17.08382 Y155.40630
G01 X-17.06668 Y155.42088
G01 X-17.04397 Y155.44361
G01 X-17.02941 Y155.46073
G01 X-17.01776 Y155.47996
G01 X-16.97884 Y155.55779
G01 X-16.96825 Y155.58644
G01 X-16.91958 Y155.78110
G01 X-16.91539 Y155.81506
G04 P0 ( dwell for no time -- G64 should not smooth over this point )
G00 Z5.00000 ( retract )

G00 X-19.92397 Y155.34633 ( rapid move to begin. )
G01 F250.00000
( Mill infeed pass 1/1 )
G01 Z-0.20000
G04 P0 ( dwell for no time -- G64 should not smooth over this point )
G01 F500.00000
G01 X-19.92397 Y155.34633
G01 X-19.92397 Y156.53259
G01 X-19.92484 Y156.54127
G01 X-19.92534 Y156.54303
G01 X-19.92621 Y156.54463
G01 X-19.92738 Y156.54605
G01 X-19.92880 Y156.54722
G01 X-19.93040 Y156.54808
G01 X-19.93215 Y156.54859
G01 X-19.93398 Y156.54879
G01 X-19.93578 Y156.54859
G01 X-19.93754 Y156.54808
G01 X-19.93914 Y156.54722
G01 X-19.94056 Y156.54605
G01 X-19.94173 Y156.54463
G01 X-19.94259 Y156.54303
G01 X-19.94310 Y156.54127
G01 X-19.94396 Y156.53259
G01 X-19.94396 Y156.11803
G01 X-19.94665 Y156.09073
G01 X-19.95463 Y156.06447
G01 X-19.96756 Y156.04026
G01 X-19.98498 Y156.01905
G01 X-20.00619 Y156.00163
G01 X-20.03040 Y155.98870
G01 X-20.05666 Y155.98072
G01 X-20.08397 Y155.97803
G01 X-20.38300 Y155.97803
G01 X-20.39319 Y155.97684
G01 X-20.40286 Y155.97336
G01 X-20.50482 Y155.92235
G01 X-20.51097 Y155.91862
G01 X-20.51645 Y155.91397
G01 X-20.56563 Y155.86480
G01 X-20.57028 Y155.85931
G01 X-20.57401 Y155.85316
G01 X-20.62501 Y155.75121
G01 X-20.62849 Y155.74153
G01 X-20.62969 Y155.73134
G01 X-20.62969 Y155.57615
G01 X-20.62849 Y155.56596
G01 X-20.62501 Y155.55629
G01 X-20.57401 Y155.45431
G01 X-20.57028 Y155.44816
G01 X-20.56563 Y155.44267
G01 X-20.51645 Y155.39350
G01 X-20.51097 Y155.38885
G01 X-20.50482 Y155.38512
G01 X-20.40286 Y155.33414
G01 X-20.39319 Y155.33066
G01 X-20.38300 Y155.32947
G01 X-19.94084 Y155.32947
G01 X-19.93215 Y155.33033
G01 X-19.93040 Y155.33084
G01 X-19.92880 Y155.33170
G01 X-19.92738 Y155.33287
G01 X-19.92621 Y155.33429
G01 X-19.92534 Y155.33589
G01 X-19.92484 Y155.33764
G01 X-19.92397 Y155.34633
G04 P0 ( dwell for no time -- G64 should not smooth over this point )
G00 Z5.00000 ( retract )

G00 X-19.94396 Y155.48946 ( rapid move to begin. )
G01 F250.00000
( Mill infeed pass 1/1 )
G01 Z-0.20000
G04 P0 ( dwell for no time -- G64 should not smooth over this point )
G01 F500.00000
G01 X-19.94396 Y155.48946
G01 X-19.94396 Y155.81803
G01 X-19.94665 Y155.84534
G01 X-19.95463 Y155.87160
G01 X-19.96756 Y155.89581
G01 X-19.98498 Y155.91702
G01 X-20.00619 Y155.93444
G01 X-20.03040 Y155.94737
G01 X-20.05666 Y155.95535
G01 X-20.08397 Y155.95804
G01 X-20.35570 Y155.95804
G01 X-20.38788 Y155.95428
G01 X-20.41833 Y155.94326
G01 X-20.47917 Y155.91283
G01 X-20.49839 Y155.90117
G01 X-20.51554 Y155.88661
G01 X-20.53827 Y155.86388
G01 X-20.55283 Y155.84674
G01 X-20.56448 Y155.82751
G01 X-20.59491 Y155.76668
G01 X-20.60594 Y155.73622
G01 X-20.60970 Y155.70404
G01 X-20.60970 Y155.60346
G01 X-20.60594 Y155.57127
G01 X-20.59491 Y155.54084
G01 X-20.56448 Y155.47999
G01 X-20.55283 Y155.46073
G01 X-20.53825 Y155.44359
G01 X-20.51554 Y155.42088
G01 X-20.49839 Y155.40630
G01 X-20.47914 Y155.39464
G01 X-20.41831 Y155.36424
G01 X-20.38788 Y155.35321
G01 X-20.35572 Y155.34946
G01 X-20.08397 Y155.34946
G01 X-20.05666 Y155.35215
G01 X-20.03040 Y155.36012
G01 X-20.00619 Y155.37305
G01 X-19.98498 Y155.39048
G01 X-19.96756 Y155.41169
G01 X-19.95463 Y155.43589
G01 X-19.94665 Y155.46216
G01 X-19.94396 Y155.48946
G04 P0 ( dwell for no time -- G64 should not smooth over this point )
G00 Z5.00000 ( retract )

G00 X-21.12397 Y155.34633 ( rapid move to begin. )
G01 F250.00000
( Mill infeed pass 1/1 )
G01 Z-0.20000
G04 P0 ( dwell for no time -- G64 should not smooth over this point )
G01 F500.00000
G01 X-21.12397 Y155.34633
G01 X-21.12397 Y156.53259
G01 X-21.12483 Y156.54127
G01 X-21.12534 Y156.54303
G01 X-21.12621 Y156.54463
G01 X-21.12737 Y156.54605
G01 X-21.12880 Y156.54722
G01 X-21.13040 Y156.54808
G01 X-21.13215 Y156.54859
G01 X-21.14084 Y156.54945
G01 X-21.58300 Y156.54945
G01 X-21.59318 Y156.54826
G01 X-21.60286 Y156.54478
G01 X-21.70484 Y156.49378
G01 X-21.71099 Y156.49004
G01 X-21.71648 Y156.48539
G01 X-21.76562 Y156.43622
G01 X-21.77027 Y156.43073
G01 X-21.77401 Y156.42459
G01 X-21.82501 Y156.32263
G01 X-21.82849 Y156.31295
G01 X-21.82968 Y156.30277
G01 X-21.82968 Y156.14757
G01 X-21.82849 Y156.13739
G01 X-21.82501 Y156.12771
G01 X-21.77401 Y156.02573
G01 X-21.77027 Y156.01958
G01 X-21.76562 Y156.01410
G01 X-21.73062 Y155.97912
G01 X-21.71373 Y155.95865
G01 X-21.70098 Y155.93536
G01 X-21.69288 Y155.91008
G01 X-21.68968 Y155.88372
G01 X-21.69151 Y155.85723
G01 X-21.69831 Y155.83157
G01 X-21.70985 Y155.80765
G01 X-21.71688 Y155.79601
G01 X-21.76786 Y155.69406
G01 X-21.77134 Y155.68438
G01 X-21.77253 Y155.67419
G01 X-21.77253 Y155.57615
G01 X-21.77134 Y155.56596
G01 X-21.76786 Y155.55631
G01 X-21.71688 Y155.45431
G01 X-21.71315 Y155.44816
G01 X-21.70850 Y155.44267
G01 X-21.65933 Y155.39350
G01 X-21.65384 Y155.38885
G01 X-21.64769 Y155.38512
G01 X-21.54569 Y155.33414
G01 X-21.53603 Y155.33066
G01 X-21.52585 Y155.32947
G01 X-21.14084 Y155.32947
G01 X-21.13215 Y155.33033
G01 X-21.13040 Y155.33084
G01 X-21.12880 Y155.33170
G01 X-21.12737 Y155.33287
G01 X-21.12621 Y155.33429
G01 X-21.12534 Y155.33589
G01 X-21.12483 Y155.33764
G01 X-21.12397 Y155.34633
G04 P0 ( dwell for no time -- G64 should not smooth over this point )
G00 Z5.00000 ( retract )

G00 X-21.14396 Y155.48946 ( rapid move to begin. )
G01 F250.00000
( Mill infeed pass 1/1 )
G01 Z-0.20000
G04 P0 ( dwell for no time -- G64 should not smooth over this point )
G01 F500.00000
G01 X-21.14396 Y155.48946
G01 X-21.14396 Y155.76088
G01 X-21.14665 Y155.78819
G01 X-21.15463 Y155.81445
G01 X-21.16756 Y155.83866
G01 X-21.18498 Y155.85987
G01 X-21.20619 Y155.87729
G01 X-21.23040 Y155.89022
G01 X-21.25666 Y155.89820
G01 X-21.28396 Y155.90089
G01 X-21.49854 Y155.90089
G01 X-21.53073 Y155.89713
G01 X-21.56115 Y155.88611
G01 X-21.62201 Y155.85568
G01 X-21.64127 Y155.84402
G01 X-21.65841 Y155.82944
G01 X-21.68112 Y155.80673
G01 X-21.69570 Y155.78959
G01 X-21.70736 Y155.77033
G01 X-21.73776 Y155.70950
G01 X-21.74878 Y155.67907
G01 X-21.75254 Y155.64691
G01 X-21.75254 Y155.60343
G01 X-21.74878 Y155.57127
G01 X-21.73776 Y155.54084
G01 X-21.70736 Y155.47999
G01 X-21.69570 Y155.46073
G01 X-21.68112 Y155.44359
G01 X-21.65841 Y155.42088
G01 X-21.64127 Y155.40630
G01 X-21.62201 Y155.39464
G01 X-21.56115 Y155.36424
G01 X-21.53073 Y155.35321
G01 X-21.49857 Y155.34946
G01 X-21.28396 Y155.34946
G01 X-21.25666 Y155.35215
G01 X-21.23040 Y155.36012
G01 X-21.20619 Y155.37305
G01 X-21.18498 Y155.39048
G01 X-21.16756 Y155.41169
G01 X-21.15463 Y155.43589
G01 X-21.14665 Y155.46216
G01 X-21.14396 Y155.48946
G04 P0 ( dwell for no time -- G64 should not smooth over this point )
G00 Z5.00000 ( retract )

G00 X-21.14396 Y156.06088 ( rapid move to begin. )
G01 F250.00000
( Mill infeed pass 1/1 )
G01 Z-0.20000
G04 P0 ( dwell for no time -- G64 should not smooth over this point )
G01 F500.00000
G01 X-21.14396 Y156.06088
G01 X-21.14396 Y156.38946
G01 X-21.14665 Y156.41676
G01 X-21.15463 Y156.44303
G01 X-21.16756 Y156.46723
G01 X-21.18498 Y156.48844
G01 X-21.20619 Y156.50587
G01 X-21.23040 Y156.51880
G01 X-21.25666 Y156.52677
G01 X-21.28396 Y156.52946
G01 X-21.55569 Y156.52946
G01 X-21.58788 Y156.52570
G01 X-21.61830 Y156.51468
G01 X-21.67916 Y156.48425
G01 X-21.69842 Y156.47259
G01 X-21.71556 Y156.45801
G01 X-21.73827 Y156.43528
G01 X-21.75285 Y156.41816
G01 X-21.76448 Y156.39893
G01 X-21.79491 Y156.33810
G01 X-21.80593 Y156.30764
G01 X-21.80969 Y156.27546
G01 X-21.80969 Y156.17488
G01 X-21.80593 Y156.14270
G01 X-21.79491 Y156.11227
G01 X-21.76448 Y156.05141
G01 X-21.75282 Y156.03216
G01 X-21.73824 Y156.01501
G01 X-21.72338 Y156.00015
G01 X-21.69798 Y155.98004
G01 X-21.66865 Y155.96632
G01 X-21.55389 Y155.92807
G01 X-21.53205 Y155.92268
G01 X-21.50962 Y155.92088
G01 X-21.28396 Y155.92088
G01 X-21.25666 Y155.92357
G01 X-21.23040 Y155.93155
G01 X-21.20619 Y155.94448
G01 X-21.18498 Y155.96190
G01 X-21.16756 Y155.98311
G01 X-21.15463 Y156.00732
G01 X-21.14665 Y156.03358
G01 X-21.14396 Y156.06088
G04 P0 ( dwell for no time -- G64 should not smooth over this point )
G00 Z5.00000 ( retract )

G00 X-22.26750 Y156.53945 ( rapid move to begin. )
G01 F250.00000
( Mill infeed pass 1/1 )
G01 Z-0.20000
G04 P0 ( dwell for no time -- G64 should not smooth over this point )
G01 F500.00000
G01 X-22.26750 Y156.53945
G01 X-22.26771 Y156.53764
G01 X-22.26821 Y156.53589
G01 X-22.26908 Y156.53429
G01 X-22.27025 Y156.53287
G01 X-22.27167 Y156.53170
G01 X-22.27327 Y156.53083
G01 X-22.27502 Y156.53033
G01 X-22.28371 Y156.52946
G01 X-22.46969 Y156.52946
G01 X-22.49699 Y156.52677
G01 X-22.52326 Y156.51880
G01 X-22.54746 Y156.50587
G01 X-22.56867 Y156.48844
G01 X-22.58610 Y156.46723
G01 X-22.59902 Y156.44303
G01 X-22.60700 Y156.41676
G01 X-22.60969 Y156.38946
G01 X-22.60969 Y155.75238
G01 X-22.60710 Y155.72563
G01 X-22.59946 Y155.69985
G01 X-22.58704 Y155.67602
G01 X-22.57030 Y155.65502
G01 X-22.54982 Y155.63757
G01 X-22.52641 Y155.62438
G01 X-22.50090 Y155.61590
G01 X-22.47426 Y155.61245
G01 X-22.44744 Y155.61415
G01 X-22.42143 Y155.62096
G01 X-22.39722 Y155.63259
G01 X-22.39054 Y155.63663
G01 X-22.28747 Y155.68819
G01 X-22.27929 Y155.69129
G01 X-22.27751 Y155.69162
G01 X-22.27568 Y155.69157
G01 X-22.27388 Y155.69116
G01 X-22.27223 Y155.69040
G01 X-22.27073 Y155.68936
G01 X-22.26948 Y155.68804
G01 X-22.26849 Y155.68649
G01 X-22.26786 Y155.68476
G01 X-22.26753 Y155.68298
G01 X-22.26758 Y155.68115
G01 X-22.26799 Y155.67935
G01 X-22.26875 Y155.67770
G01 X-22.26979 Y155.67620
G01 X-22.27111 Y155.67496
G01 X-22.27853 Y155.67028
G01 X-22.36489 Y155.62710
G01 X-22.38411 Y155.61547
G01 X-22.40123 Y155.60089
G01 X-22.48782 Y155.51433
G01 X-22.50535 Y155.49297
G01 X-22.60756 Y155.33965
G01 X-22.61310 Y155.33287
G01 X-22.61449 Y155.33173
G01 X-22.61612 Y155.33086
G01 X-22.61787 Y155.33033
G01 X-22.61967 Y155.33013
G01 X-22.62150 Y155.33033
G01 X-22.62326 Y155.33084
G01 X-22.62486 Y155.33170
G01 X-22.62628 Y155.33287
G01 X-22.62745 Y155.33429
G01 X-22.62831 Y155.33589
G01 X-22.62882 Y155.33764
G01 X-22.62968 Y155.34633
G01 X-22.62968 Y156.38946
G01 X-22.63237 Y156.41676
G01 X-22.64035 Y156.44303
G01 X-22.65328 Y156.46723
G01 X-22.67070 Y156.48844
G01 X-22.69191 Y156.50587
G01 X-22.71612 Y156.51880
G01 X-22.74238 Y156.52677
G01 X-22.76969 Y156.52946
G01 X-22.95567 Y156.52946
G01 X-22.96435 Y156.53033
G01 X-22.96610 Y156.53083
G01 X-22.96771 Y156.53170
G01 X-22.96913 Y156.53287
G01 X-22.97030 Y156.53429
G01 X-22.97116 Y156.53589
G01 X-22.97167 Y156.53764
G01 X-22.97187 Y156.53945
G01 X-22.97167 Y156.54127
G01 X-22.97116 Y156.54303
G01 X-22.97030 Y156.54463
G01 X-22.96913 Y156.54605
G01 X-22.96771 Y156.54722
G01 X-22.96610 Y156.54808
G01 X-22.96435 Y156.54859
G01 X-22.95567 Y156.54945
G01 X-22.28371 Y156.54945
G01 X-22.27502 Y156.54859
G01 X-22.27327 Y156.54808
G01 X-22.27167 Y156.54722
G01 X-22.27025 Y156.54605
G01 X-22.26908 Y156.54463
G01 X-22.26821 Y156.54303
G01 X-22.26771 Y156.54127
G01 X-22.26750 Y156.53945
G04 P0 ( dwell for no time -- G64 should not smooth over this point )
G00 Z5.00000 ( retract )

G00 X-25.29541 Y155.34633 ( rapid move to begin. )
G01 F250.00000
( Mill infeed pass 1/1 )
G01 Z-0.20000
G04 P0 ( dwell for no time -- G64 should not smooth over this point )
G01 F500.00000
G01 X-25.29541 Y155.34633
G01 X-25.29541 Y156.53259
G01 X-25.29628 Y156.54127
G01 X-25.29678 Y156.54303
G01 X-25.29765 Y156.54463
G01 X-25.29882 Y156.54605
G01 X-25.30024 Y156.54722
G01 X-25.30184 Y156.54808
G01 X-25.30359 Y156.54859
G01 X-25.30542 Y156.54879
G01 X-25.30722 Y156.54859
G01 X-25.30898 Y156.54808
G01 X-25.31058 Y156.54722
G01 X-25.31200 Y156.54605
G01 X-25.31317 Y156.54463
G01 X-25.31403 Y156.54303
G01 X-25.31454 Y156.54127
G01 X-25.31540 Y156.53259
G01 X-25.31540 Y156.11803
G01 X-25.31809 Y156.09073
G01 X-25.32607 Y156.06447
G01 X-25.33900 Y156.04026
G01 X-25.35642 Y156.01905
G01 X-25.37763 Y156.00163
G01 X-25.40184 Y155.98870
G01 X-25.42810 Y155.98072
G01 X-25.45541 Y155.97803
G01 X-25.75444 Y155.97803
G01 X-25.76463 Y155.97684
G01 X-25.77430 Y155.97336
G01 X-25.87626 Y155.92235
G01 X-25.88241 Y155.91862
G01 X-25.88789 Y155.91397
G01 X-25.93707 Y155.86480
G01 X-25.94171 Y155.85931
G01 X-25.94545 Y155.85316
G01 X-25.99643 Y155.75121
G01 X-25.99991 Y155.74153
G01 X-26.00110 Y155.73134
G01 X-26.00110 Y155.57615
G01 X-25.99991 Y155.56596
G01 X-25.99643 Y155.55631
G01 X-25.94545 Y155.45431
G01 X-25.94171 Y155.44816
G01 X-25.93707 Y155.44267
G01 X-25.88789 Y155.39350
G01 X-25.88241 Y155.38885
G01 X-25.87626 Y155.38512
G01 X-25.77430 Y155.33414
G01 X-25.76463 Y155.33066
G01 X-25.75444 Y155.32947
G01 X-25.31228 Y155.32947
G01 X-25.30359 Y155.33033
G01 X-25.30184 Y155.33084
G01 X-25.30024 Y155.33170
G01 X-25.29882 Y155.33287
G01 X-25.29765 Y155.33429
G01 X-25.29678 Y155.33589
G01 X-25.29628 Y155.33764
G01 X-25.29541 Y155.34633
G04 P0 ( dwell for no time -- G64 should not smooth over this point )
G00 Z5.00000 ( retract )

G00 X-25.31540 Y155.48946 ( rapid move to begin. )
G01 F250.00000
( Mill infeed pass 1/1 )
G01 Z-0.20000
G04 P0 ( dwell for no time -- G64 should not smooth over this point )
G01 F500.00000
G01 X-25.31540 Y155.48946
G01 X-25.31540 Y155.81803
G01 X-25.31809 Y155.84534
G01 X-25.32607 Y155.87160
G01 X-25.33900 Y155.89581
G01 X-25.35642 Y155.91702
G01 X-25.37763 Y155.93444
G01 X-25.40184 Y155.94737
G01 X-25.42810 Y155.95535
G01 X-25.45541 Y155.95804
G01 X-25.72714 Y155.95804
G01 X-25.75932 Y155.95428
G01 X-25.78977 Y155.94326
G01 X-25.85061 Y155.91283
G01 X-25.86983 Y155.90117
G01 X-25.88698 Y155.88661
G01 X-25.90969 Y155.86388
G01 X-25.92427 Y155.84674
G01 X-25.93592 Y155.82748
G01 X-25.96633 Y155.76665
G01 X-25.97735 Y155.73622
G01 X-25.98111 Y155.70406
G01 X-25.98111 Y155.60343
G01 X-25.97735 Y155.57127
G01 X-25.96633 Y155.54084
G01 X-25.93592 Y155.47999
G01 X-25.92427 Y155.46073
G01 X-25.90969 Y155.44359
G01 X-25.88698 Y155.42088
G01 X-25.86983 Y155.40630
G01 X-25.85058 Y155.39464
G01 X-25.78975 Y155.36424
G01 X-25.75932 Y155.35321
G01 X-25.72716 Y155.34946
G01 X-25.45541 Y155.34946
G01 X-25.42810 Y155.35215
G01 X-25.40184 Y155.36012
G01 X-25.37763 Y155.37305
G01 X-25.35642 Y155.39048
G01 X-25.33900 Y155.41169
G01 X-25.32607 Y155.43589
G01 X-25.31809 Y155.46216
G01 X-25.31540 Y155.48946
G04 P0 ( dwell for no time -- G64 should not smooth over this point )
G00 Z5.00000 ( retract )

G00 X-26.49541 Y155.34633 ( rapid move to begin. )
G01 F250.00000
( Mill infeed pass 1/1 )
G01 Z-0.20000
G04 P0 ( dwell for no time -- G64 should not smooth over this point )
G01 F500.00000
G01 X-26.49541 Y155.34633
G01 X-26.49541 Y156.53259
G01 X-26.49627 Y156.54127
G01 X-26.49678 Y156.54303
G01 X-26.49764 Y156.54463
G01 X-26.49881 Y156.54605
G01 X-26.50024 Y156.54722
G01 X-26.50184 Y156.54808
G01 X-26.50359 Y156.54859
G01 X-26.51228 Y156.54945
G01 X-26.95444 Y156.54945
G01 X-26.96462 Y156.54826
G01 X-26.97430 Y156.54478
G01 X-27.07626 Y156.49378
G01 X-27.08240 Y156.49004
G01 X-27.08789 Y156.48539
G01 X-27.13706 Y156.43622
G01 X-27.14171 Y156.43073
G01 X-27.14545 Y156.42459
G01 X-27.19645 Y156.32263
G01 X-27.19993 Y156.31295
G01 X-27.20112 Y156.30277
G01 X-27.20112 Y156.14757
G01 X-27.19993 Y156.13739
G01 X-27.19645 Y156.12771
G01 X-27.14545 Y156.02573
G01 X-27.14171 Y156.01958
G01 X-27.13706 Y156.01410
G01 X-27.10206 Y155.97912
G01 X-27.08515 Y155.95865
G01 X-27.07240 Y155.93536
G01 X-27.06429 Y155.91008
G01 X-27.06109 Y155.88372
G01 X-27.06292 Y155.85723
G01 X-27.06973 Y155.83155
G01 X-27.08126 Y155.80762
G01 X-27.08830 Y155.79601
G01 X-27.13930 Y155.69406
G01 X-27.14278 Y155.68438
G01 X-27.14397 Y155.67419
G01 X-27.14397 Y155.57615
G01 X-27.14278 Y155.56596
G01 X-27.13930 Y155.55629
G01 X-27.08830 Y155.45431
G01 X-27.08456 Y155.44816
G01 X-27.07991 Y155.44267
G01 X-27.03074 Y155.39350
G01 X-27.02525 Y155.38885
G01 X-27.01911 Y155.38512
G01 X-26.91715 Y155.33414
G01 X-26.90747 Y155.33066
G01 X-26.89729 Y155.32947
G01 X-26.51228 Y155.32947
G01 X-26.50359 Y155.33033
G01 X-26.50184 Y155.33084
G01 X-26.50024 Y155.33170
G01 X-26.49881 Y155.33287
G01 X-26.49764 Y155.33429
G01 X-26.49678 Y155.33589
G01 X-26.49627 Y155.33764
G01 X-26.49541 Y155.34633
G04 P0 ( dwell for no time -- G64 should not smooth over this point )
G00 Z5.00000 ( retract )

G00 X-26.51540 Y155.48946 ( rapid move to begin. )
G01 F250.00000
( Mill infeed pass 1/1 )
G01 Z-0.20000
G04 P0 ( dwell for no time -- G64 should not smooth over this point )
G01 F500.00000
G01 X-26.51540 Y155.48946
G01 X-26.51540 Y155.76088
G01 X-26.51809 Y155.78819
G01 X-26.52607 Y155.81445
G01 X-26.53900 Y155.83866
G01 X-26.55642 Y155.85987
G01 X-26.57763 Y155.87729
G01 X-26.60184 Y155.89022
G01 X-26.62810 Y155.89820
G01 X-26.65540 Y155.90089
G01 X-26.86998 Y155.90089
G01 X-26.90217 Y155.89713
G01 X-26.93262 Y155.88611
G01 X-26.99345 Y155.85568
G01 X-27.01268 Y155.84402
G01 X-27.02983 Y155.82946
G01 X-27.05256 Y155.80673
G01 X-27.06711 Y155.78959
G01 X-27.07877 Y155.77036
G01 X-27.10920 Y155.70953
G01 X-27.12022 Y155.67907
G01 X-27.12398 Y155.64689
G01 X-27.12398 Y155.60346
G01 X-27.12022 Y155.57127
G01 X-27.10920 Y155.54084
G01 X-27.07877 Y155.47999
G01 X-27.06711 Y155.46073
G01 X-27.05253 Y155.44359
G01 X-27.02983 Y155.42088
G01 X-27.01268 Y155.40630
G01 X-26.99343 Y155.39464
G01 X-26.93259 Y155.36424
G01 X-26.90217 Y155.35321
G01 X-26.87001 Y155.34946
G01 X-26.65540 Y155.34946
G01 X-26.62810 Y155.35215
G01 X-26.60184 Y155.36012
G01 X-26.57763 Y155.37305
G01 X-26.55642 Y155.39048
G01 X-26.53900 Y155.41169
G01 X-26.52607 Y155.43589
G01 X-26.51809 Y155.46216
G01 X-26.51540 Y155.48946
G04 P0 ( dwell for no time -- G64 should not smooth over this point )
G00 Z5.00000 ( retract )

G00 X-26.51540 Y156.06088 ( rapid move to begin. )
G01 F250.00000
( Mill infeed pass 1/1 )
G01 Z-0.20000
G04 P0 ( dwell for no time -- G64 should not smooth over this point )
G01 F500.00000
G01 X-26.51540 Y156.06088
G01 X-26.51540 Y156.38946
G01 X-26.51809 Y156.41676
G01 X-26.52607 Y156.44303
G01 X-26.53900 Y156.46723
G01 X-26.55642 Y156.48844
G01 X-26.57763 Y156.50587
G01 X-26.60184 Y156.51880
G01 X-26.62810 Y156.52677
G01 X-26.65540 Y156.52946
G01 X-26.92713 Y156.52946
G01 X-26.95932 Y156.52570
G01 X-26.98977 Y156.51468
G01 X-27.05060 Y156.48425
G01 X-27.06983 Y156.47259
G01 X-27.08698 Y156.45804
G01 X-27.10971 Y156.43531
G01 X-27.12426 Y156.41816
G01 X-27.13592 Y156.39893
G01 X-27.16635 Y156.33810
G01 X-27.17737 Y156.30764
G01 X-27.18113 Y156.27546
G01 X-27.18113 Y156.17488
G01 X-27.17737 Y156.14270
G01 X-27.16635 Y156.11227
G01 X-27.13592 Y156.05141
G01 X-27.12426 Y156.03216
G01 X-27.10968 Y156.01501
G01 X-27.09480 Y156.00013
G01 X-27.06940 Y155.98004
G01 X-27.04009 Y155.96632
G01 X-26.92533 Y155.92807
G01 X-26.90349 Y155.92268
G01 X-26.88106 Y155.92088
G01 X-26.65540 Y155.92088
G01 X-26.62810 Y155.92357
G01 X-26.60184 Y155.93155
G01 X-26.57763 Y155.94448
G01 X-26.55642 Y155.96190
G01 X-26.53900 Y155.98311
G01 X-26.52607 Y156.00732
G01 X-26.51809 Y156.03358
G01 X-26.51540 Y156.06088
G04 P0 ( dwell for no time -- G64 should not smooth over this point )
G00 Z5.00000 ( retract )

G00 X-27.58179 Y156.53947 ( rapid move to begin. )
G01 F250.00000
( Mill infeed pass 1/1 )
G01 Z-0.20000
G04 P0 ( dwell for no time -- G64 should not smooth over this point )
G01 F500.00000
G01 X-27.58179 Y156.53947
G01 X-27.58200 Y156.53764
G01 X-27.58250 Y156.53589
G01 X-27.58337 Y156.53429
G01 X-27.58893 Y156.52753
G01 X-28.24471 Y155.87170
G01 X-28.26482 Y155.84630
G01 X-28.27854 Y155.81699
G01 X-28.31679 Y155.70224
G01 X-28.32218 Y155.68039
G01 X-28.32398 Y155.65796
G01 X-28.32398 Y155.60346
G01 X-28.32022 Y155.57127
G01 X-28.30920 Y155.54084
G01 X-28.27877 Y155.47996
G01 X-28.26711 Y155.46073
G01 X-28.25256 Y155.44361
G01 X-28.22985 Y155.42088
G01 X-28.21270 Y155.40630
G01 X-28.19342 Y155.39464
G01 X-28.13259 Y155.36424
G01 X-28.10216 Y155.35321
G01 X-28.07001 Y155.34946
G01 X-27.85507 Y155.34946
G01 X-27.82292 Y155.35321
G01 X-27.79249 Y155.36424
G01 X-27.73165 Y155.39464
G01 X-27.71240 Y155.40630
G01 X-27.69525 Y155.42088
G01 X-27.66018 Y155.45593
G01 X-27.65342 Y155.46149
G01 X-27.65182 Y155.46236
G01 X-27.65007 Y155.46287
G01 X-27.64826 Y155.46307
G01 X-27.64644 Y155.46287
G01 X-27.64468 Y155.46236
G01 X-27.64308 Y155.46149
G01 X-27.64166 Y155.46033
G01 X-27.64049 Y155.45890
G01 X-27.63963 Y155.45730
G01 X-27.63912 Y155.45555
G01 X-27.63892 Y155.45372
G01 X-27.63912 Y155.45192
G01 X-27.63963 Y155.45017
G01 X-27.64049 Y155.44857
G01 X-27.64605 Y155.44181
G01 X-27.69434 Y155.39350
G01 X-27.69983 Y155.38885
G01 X-27.70597 Y155.38512
G01 X-27.80793 Y155.33414
G01 X-27.81761 Y155.33066
G01 X-27.82779 Y155.32947
G01 X-28.09729 Y155.32947
G01 X-28.10747 Y155.33066
G01 X-28.11712 Y155.33414
G01 X-28.21913 Y155.38512
G01 X-28.22528 Y155.38885
G01 X-28.23076 Y155.39350
G01 X-28.27991 Y155.44267
G01 X-28.28456 Y155.44816
G01 X-28.28829 Y155.45431
G01 X-28.33930 Y155.55629
G01 X-28.34278 Y155.56596
G01 X-28.34397 Y155.57615
G01 X-28.34397 Y155.67668
G01 X-28.34339 Y155.68385
G01 X-28.34168 Y155.69081
G01 X-28.28888 Y155.84920
G01 X-28.28453 Y155.85850
G01 X-28.27816 Y155.86655
G01 X-27.85426 Y156.29047
G01 X-27.83683 Y156.31168
G01 X-27.82391 Y156.33589
G01 X-27.81593 Y156.36215
G01 X-27.81324 Y156.38946
G01 X-27.81593 Y156.41676
G01 X-27.82391 Y156.44303
G01 X-27.83683 Y156.46723
G01 X-27.85426 Y156.48844
G01 X-27.87547 Y156.50587
G01 X-27.89967 Y156.51880
G01 X-27.92594 Y156.52677
G01 X-27.95324 Y156.52946
G01 X-28.32711 Y156.52946
G01 X-28.33579 Y156.53033
G01 X-28.33754 Y156.53083
G01 X-28.33914 Y156.53170
G01 X-28.34057 Y156.53287
G01 X-28.34174 Y156.53429
G01 X-28.34260 Y156.53589
G01 X-28.34311 Y156.53764
G01 X-28.34331 Y156.53945
G01 X-28.34311 Y156.54127
G01 X-28.34260 Y156.54303
G01 X-28.34174 Y156.54463
G01 X-28.34057 Y156.54605
G01 X-28.33914 Y156.54722
G01 X-28.33754 Y156.54808
G01 X-28.33579 Y156.54859
G01 X-28.32711 Y156.54945
G01 X-27.59800 Y156.54945
G01 X-27.58931 Y156.54859
G01 X-27.58756 Y156.54808
G01 X-27.58596 Y156.54722
G01 X-27.58454 Y156.54605
G01 X-27.58337 Y156.54463
G01 X-27.58250 Y156.54303
G01 X-27.58200 Y156.54127
G01 X-27.58179 Y156.53947
G04 P0 ( dwell for no time -- G64 should not smooth over this point )
G00 Z5.00000 ( retract )

G00 X-30.60970 Y155.86231 ( rapid move to begin. )
G01 F250.00000
( Mill infeed pass 1/1 )
G01 Z-0.20000
G04 P0 ( dwell for no time -- G64 should not smooth over this point )
G01 F500.00000
G01 X-30.60970 Y155.86231
G01 X-30.60970 Y156.01659
G01 X-30.61206 Y156.03592
G01 X-30.66525 Y156.24872
G01 X-30.67130 Y156.26505
G01 X-30.72250 Y156.36746
G01 X-30.72624 Y156.37361
G01 X-30.73088 Y156.37910
G01 X-30.83546 Y156.48364
G01 X-30.84351 Y156.49002
G01 X-30.85280 Y156.49436
G01 X-31.01120 Y156.54717
G01 X-31.01816 Y156.54887
G01 X-31.02532 Y156.54945
G01 X-31.12834 Y156.54945
G01 X-31.13551 Y156.54887
G01 X-31.14247 Y156.54717
G01 X-31.30086 Y156.49436
G01 X-31.31016 Y156.49002
G01 X-31.31821 Y156.48364
G01 X-31.36474 Y156.43708
G01 X-31.37030 Y156.43033
G01 X-31.37117 Y156.42873
G01 X-31.37168 Y156.42697
G01 X-31.37254 Y156.41829
G01 X-31.37254 Y156.03203
G01 X-31.37168 Y156.02334
G01 X-31.37117 Y156.02159
G01 X-31.37030 Y156.01999
G01 X-31.36914 Y156.01857
G01 X-31.36771 Y156.01740
G01 X-31.36611 Y156.01654
G01 X-31.36436 Y156.01603
G01 X-31.35567 Y156.01516
G01 X-31.14084 Y156.01516
G01 X-31.13215 Y156.01603
G01 X-31.13040 Y156.01654
G01 X-31.12880 Y156.01740
G01 X-31.12738 Y156.01857
G01 X-31.12621 Y156.01999
G01 X-31.12535 Y156.02159
G01 X-31.12484 Y156.02334
G01 X-31.12464 Y156.02515
G01 X-31.12484 Y156.02697
G01 X-31.12535 Y156.02873
G01 X-31.12621 Y156.03033
G01 X-31.12738 Y156.03175
G01 X-31.12880 Y156.03292
G01 X-31.13040 Y156.03378
G01 X-31.13215 Y156.03429
G01 X-31.14084 Y156.03515
G01 X-31.21255 Y156.03515
G01 X-31.23985 Y156.03785
G01 X-31.26611 Y156.04582
G01 X-31.29032 Y156.05875
G01 X-31.31153 Y156.07617
G01 X-31.32895 Y156.09738
G01 X-31.34188 Y156.12159
G01 X-31.34986 Y156.14785
G01 X-31.35255 Y156.17516
G01 X-31.35255 Y156.35514
G01 X-31.34953 Y156.38407
G01 X-31.34059 Y156.41176
G01 X-31.32611 Y156.43701
G01 X-31.30675 Y156.45870
G01 X-31.28331 Y156.47595
G01 X-31.25682 Y156.48796
G01 X-31.15390 Y156.52227
G01 X-31.13205 Y156.52766
G01 X-31.10962 Y156.52946
G01 X-31.04404 Y156.52946
G01 X-31.02161 Y156.52766
G01 X-30.99977 Y156.52227
G01 X-30.88501 Y156.48402
G01 X-30.85570 Y156.47031
G01 X-30.83030 Y156.45022
G01 X-30.75827 Y156.37818
G01 X-30.74369 Y156.36104
G01 X-30.73203 Y156.34178
G01 X-30.69314 Y156.26398
G01 X-30.68252 Y156.23533
G01 X-30.63388 Y156.04064
G01 X-30.62969 Y156.00671
G01 X-30.62969 Y155.87219
G01 X-30.63388 Y155.83825
G01 X-30.68252 Y155.64356
G01 X-30.69314 Y155.61489
G01 X-30.73203 Y155.53711
G01 X-30.74369 Y155.51788
G01 X-30.75824 Y155.50074
G01 X-30.83030 Y155.42870
G01 X-30.85570 Y155.40861
G01 X-30.88504 Y155.39487
G01 X-30.99977 Y155.35664
G01 X-31.02161 Y155.35126
G01 X-31.04404 Y155.34946
G01 X-31.15573 Y155.34946
G01 X-31.18788 Y155.35321
G01 X-31.21831 Y155.36424
G01 X-31.29476 Y155.40247
G01 X-31.30294 Y155.40559
G01 X-31.30475 Y155.40589
G01 X-31.30655 Y155.40584
G01 X-31.30835 Y155.40544
G01 X-31.31000 Y155.40467
G01 X-31.31150 Y155.40363
G01 X-31.31275 Y155.40231
G01 X-31.31374 Y155.40076
G01 X-31.31440 Y155.39904
G01 X-31.31470 Y155.39723
G01 X-31.31465 Y155.39543
G01 X-31.31425 Y155.39363
G01 X-31.31348 Y155.39197
G01 X-31.31244 Y155.39048
G01 X-31.31112 Y155.38923
G01 X-31.30371 Y155.38456
G01 X-31.20287 Y155.33414
G01 X-31.19319 Y155.33066
G01 X-31.18300 Y155.32947
G01 X-31.02532 Y155.32947
G01 X-31.01816 Y155.33005
G01 X-31.01120 Y155.33175
G01 X-30.85280 Y155.38453
G01 X-30.84351 Y155.38888
G01 X-30.83546 Y155.39525
G01 X-30.73088 Y155.49982
G01 X-30.72624 Y155.50531
G01 X-30.72250 Y155.51146
G01 X-30.67130 Y155.61382
G01 X-30.66525 Y155.63018
G01 X-30.61206 Y155.84298
G01 X-30.60970 Y155.86231
G04 P0 ( dwell for no time -- G64 should not smooth over this point )
G00 Z5.00000 ( retract )

G00 X-31.86685 Y155.34653 ( rapid move to begin. )
G01 F250.00000
( Mill infeed pass 1/1 )
G01 Z-0.20000
G04 P0 ( dwell for no time -- G64 should not smooth over this point )
G01 F500.00000
G01 X-31.86685 Y155.34653
G01 X-31.86685 Y156.53259
G01 X-31.86771 Y156.54127
G01 X-31.86822 Y156.54303
G01 X-31.86908 Y156.54463
G01 X-31.87025 Y156.54605
G01 X-31.87168 Y156.54722
G01 X-31.87328 Y156.54808
G01 X-31.87503 Y156.54859
G01 X-31.87686 Y156.54879
G01 X-31.87866 Y156.54859
G01 X-31.88041 Y156.54808
G01 X-31.88201 Y156.54722
G01 X-31.88344 Y156.54605
G01 X-31.88460 Y156.54463
G01 X-31.88547 Y156.54303
G01 X-31.88598 Y156.54127
G01 X-31.88684 Y156.53259
G01 X-31.88684 Y155.90429
G01 X-31.88968 Y155.87625
G01 X-31.89809 Y155.84935
G01 X-31.91171 Y155.82466
G01 X-31.92999 Y155.80320
G01 X-31.95222 Y155.78585
G01 X-31.97747 Y155.77331
G01 X-32.00472 Y155.76607
G01 X-32.03286 Y155.76444
G01 X-32.06078 Y155.76848
G01 X-32.08730 Y155.77803
G01 X-32.11137 Y155.79271
G01 X-32.13203 Y155.81191
G01 X-32.14841 Y155.83485
G01 X-32.55036 Y156.53828
G01 X-32.55557 Y156.54559
G01 X-32.55694 Y156.54686
G01 X-32.55854 Y156.54783
G01 X-32.56029 Y156.54846
G01 X-32.56215 Y156.54874
G01 X-32.56400 Y156.54861
G01 X-32.56581 Y156.54816
G01 X-32.56748 Y156.54732
G01 X-32.56896 Y156.54615
G01 X-32.57018 Y156.54473
G01 X-32.57109 Y156.54310
G01 X-32.57165 Y156.54132
G01 X-32.57254 Y156.53238
G01 X-32.57254 Y155.34633
G01 X-32.57167 Y155.33764
G01 X-32.57117 Y155.33589
G01 X-32.57030 Y155.33429
G01 X-32.56913 Y155.33287
G01 X-32.56771 Y155.33170
G01 X-32.56611 Y155.33084
G01 X-32.56436 Y155.33033
G01 X-32.56256 Y155.33013
G01 X-32.56073 Y155.33033
G01 X-32.55897 Y155.33084
G01 X-32.55737 Y155.33170
G01 X-32.55595 Y155.33287
G01 X-32.55478 Y155.33429
G01 X-32.55392 Y155.33589
G01 X-32.55341 Y155.33764
G01 X-32.55255 Y155.34633
G01 X-32.55255 Y155.97463
G01 X-32.54970 Y156.00267
G01 X-32.54130 Y156.02957
G01 X-32.52768 Y156.05425
G01 X-32.50939 Y156.07572
G01 X-32.48717 Y156.09307
G01 X-32.46192 Y156.10561
G01 X-32.43467 Y156.11285
G01 X-32.40652 Y156.11448
G01 X-32.37861 Y156.11044
G01 X-32.35209 Y156.10089
G01 X-32.32801 Y156.08621
G01 X-32.30736 Y156.06701
G01 X-32.29098 Y156.04407
G01 X-31.88902 Y155.34064
G01 X-31.88382 Y155.33333
G01 X-31.88244 Y155.33206
G01 X-31.88084 Y155.33109
G01 X-31.87909 Y155.33046
G01 X-31.87724 Y155.33018
G01 X-31.87538 Y155.33030
G01 X-31.87358 Y155.33076
G01 X-31.87190 Y155.33160
G01 X-31.87043 Y155.33277
G01 X-31.86921 Y155.33419
G01 X-31.86830 Y155.33582
G01 X-31.86774 Y155.33759
G01 X-31.86685 Y155.34653
G04 P0 ( dwell for no time -- G64 should not smooth over this point )
G00 Z5.00000 ( retract )

G00 X-33.14396 Y155.48946 ( rapid move to begin. )
G01 F250.00000
( Mill infeed pass 1/1 )
G01 Z-0.20000
G04 P0 ( dwell for no time -- G64 should not smooth over this point )
G01 F500.00000
G01 X-33.14396 Y155.48946
G01 X-33.14665 Y155.46216
G01 X-33.15463 Y155.43589
G01 X-33.16756 Y155.41169
G01 X-33.18498 Y155.39048
G01 X-33.20619 Y155.37305
G01 X-33.23040 Y155.36012
G01 X-33.25666 Y155.35215
G01 X-33.28397 Y155.34946
G01 X-33.39534 Y155.34946
G01 X-33.41777 Y155.35126
G01 X-33.43962 Y155.35664
G01 X-33.55435 Y155.39487
G01 X-33.58369 Y155.40861
G01 X-33.60909 Y155.42870
G01 X-33.68112 Y155.50074
G01 X-33.69570 Y155.51788
G01 X-33.70736 Y155.53714
G01 X-33.74625 Y155.61491
G01 X-33.75684 Y155.64356
G01 X-33.80550 Y155.83825
G01 X-33.80970 Y155.87221
G01 X-33.80970 Y156.00668
G01 X-33.80550 Y156.04064
G01 X-33.75684 Y156.23536
G01 X-33.74625 Y156.26398
G01 X-33.70736 Y156.34176
G01 X-33.69570 Y156.36104
G01 X-33.68112 Y156.37818
G01 X-33.60909 Y156.45022
G01 X-33.58369 Y156.47031
G01 X-33.55437 Y156.48402
G01 X-33.43962 Y156.52227
G01 X-33.41777 Y156.52766
G01 X-33.39534 Y156.52946
G01 X-33.28397 Y156.52946
G01 X-33.25666 Y156.52677
G01 X-33.23040 Y156.51880
G01 X-33.20619 Y156.50587
G01 X-33.18498 Y156.48844
G01 X-33.16756 Y156.46723
G01 X-33.15463 Y156.44303
G01 X-33.14665 Y156.41676
G01 X-33.14396 Y156.38946
G01 X-33.14396 Y155.48946
G04 P0 ( dwell for no time -- G64 should not smooth over this point )
G00 Z5.00000 ( retract )

G00 X-33.12397 Y155.34633 ( rapid move to begin. )
G01 F250.00000
( Mill infeed pass 1/1 )
G01 Z-0.20000
G04 P0 ( dwell for no time -- G64 should not smooth over this point )
G01 F500.00000
G01 X-33.12397 Y155.34633
G01 X-33.12483 Y155.33764
G01 X-33.12534 Y155.33589
G01 X-33.12621 Y155.33429
G01 X-33.12737 Y155.33287
G01 X-33.12880 Y155.33170
G01 X-33.13040 Y155.33084
G01 X-33.13215 Y155.33033
G01 X-33.14084 Y155.32947
G01 X-33.41406 Y155.32947
G01 X-33.42123 Y155.33005
G01 X-33.42819 Y155.33175
G01 X-33.58658 Y155.38453
G01 X-33.59588 Y155.38888
G01 X-33.60393 Y155.39525
G01 X-33.70850 Y155.49982
G01 X-33.71315 Y155.50531
G01 X-33.71688 Y155.51146
G01 X-33.76806 Y155.61384
G01 X-33.77411 Y155.63015
G01 X-33.82730 Y155.84298
G01 X-33.82968 Y155.86233
G01 X-33.82968 Y156.01656
G01 X-33.82730 Y156.03592
G01 X-33.77411 Y156.24874
G01 X-33.76806 Y156.26505
G01 X-33.71688 Y156.36746
G01 X-33.71315 Y156.37361
G01 X-33.70850 Y156.37910
G01 X-33.60393 Y156.48364
G01 X-33.59588 Y156.49002
G01 X-33.58658 Y156.49436
G01 X-33.42819 Y156.54717
G01 X-33.42123 Y156.54887
G01 X-33.41406 Y156.54945
G01 X-33.14084 Y156.54945
G01 X-33.13215 Y156.54859
G01 X-33.13040 Y156.54808
G01 X-33.12880 Y156.54722
G01 X-33.12737 Y156.54605
G01 X-33.12621 Y156.54463
G01 X-33.12534 Y156.54303
G01 X-33.12483 Y156.54127
G01 X-33.12397 Y156.53259
G01 X-33.12397 Y155.34633
G04 P0 ( dwell for no time -- G64 should not smooth over this point )
G00 Z5.00000 ( retract )

G00 X-5.61882 Y114.69744 ( rapid move to begin. )
G01 F250.00000
( Mill infeed pass 1/1 )
G01 Z-0.20000
G04 P0 ( dwell for no time -- G64 should not smooth over this point )
G01 F500.00000
G01 X-5.61882 Y114.69744
G01 X-5.61882 Y114.84090
G01 X-5.62258 Y114.87308
G01 X-5.63360 Y114.90351
G01 X-5.67831 Y114.99292
G01 X-5.68996 Y115.01217
G01 X-5.70454 Y115.02932
G01 X-5.74155 Y115.06633
G01 X-5.75870 Y115.08088
G01 X-5.77792 Y115.09254
G01 X-5.86736 Y115.13724
G01 X-5.89779 Y115.14827
G01 X-5.92997 Y115.15202
G01 X-6.31597 Y115.15202
G01 X-6.34328 Y115.14933
G01 X-6.36954 Y115.14136
G01 X-6.39375 Y115.12843
G01 X-6.41496 Y115.11100
G01 X-6.43238 Y115.08979
G01 X-6.44531 Y115.06559
G01 X-6.45329 Y115.03933
G01 X-6.45598 Y115.01202
G01 X-6.45598 Y114.52632
G01 X-6.45329 Y114.49902
G01 X-6.44531 Y114.47275
G01 X-6.43238 Y114.44855
G01 X-6.41496 Y114.42734
G01 X-6.39375 Y114.40991
G01 X-6.36954 Y114.39698
G01 X-6.34328 Y114.38901
G01 X-6.31597 Y114.38632
G01 X-5.92997 Y114.38632
G01 X-5.89779 Y114.39008
G01 X-5.86736 Y114.40110
G01 X-5.77792 Y114.44580
G01 X-5.75870 Y114.45746
G01 X-5.74155 Y114.47202
G01 X-5.70454 Y114.50902
G01 X-5.68996 Y114.52617
G01 X-5.67831 Y114.54542
G01 X-5.63360 Y114.63483
G01 X-5.62258 Y114.66526
G01 X-5.61882 Y114.69744
G04 P0 ( dwell for no time -- G64 should not smooth over this point )
G00 Z5.00000 ( retract )

G00 X-5.59883 Y114.67014 ( rapid move to begin. )
G01 F250.00000
( Mill infeed pass 1/1 )
G01 Z-0.20000
G04 P0 ( dwell for no time -- G64 should not smooth over this point )
G01 F500.00000
G01 X-5.59883 Y114.67014
G01 X-5.59883 Y114.86821
G01 X-5.60002 Y114.87839
G01 X-5.60350 Y114.88807
G01 X-5.66878 Y115.01860
G01 X-5.67251 Y115.02475
G01 X-5.67716 Y115.03023
G01 X-5.74064 Y115.09368
G01 X-5.74612 Y115.09833
G01 X-5.75227 Y115.10206
G01 X-5.88280 Y115.16734
G01 X-5.89248 Y115.17082
G01 X-5.90266 Y115.17201
G01 X-6.45910 Y115.17201
G01 X-6.46779 Y115.17115
G01 X-6.46954 Y115.17064
G01 X-6.47114 Y115.16978
G01 X-6.47256 Y115.16861
G01 X-6.47373 Y115.16719
G01 X-6.47460 Y115.16559
G01 X-6.47510 Y115.16384
G01 X-6.47597 Y115.15515
G01 X-6.47597 Y113.66889
G01 X-6.47510 Y113.66021
G01 X-6.47460 Y113.65845
G01 X-6.47373 Y113.65685
G01 X-6.47256 Y113.65543
G01 X-6.47114 Y113.65426
G01 X-6.46954 Y113.65340
G01 X-6.46779 Y113.65289
G01 X-6.46599 Y113.65269
G01 X-6.46416 Y113.65289
G01 X-6.46240 Y113.65340
G01 X-6.46080 Y113.65426
G01 X-6.45938 Y113.65543
G01 X-6.45821 Y113.65685
G01 X-6.45735 Y113.65845
G01 X-6.45684 Y113.66021
G01 X-6.45598 Y113.66889
G01 X-6.45598 Y114.22632
G01 X-6.45329 Y114.25363
G01 X-6.44531 Y114.27989
G01 X-6.43238 Y114.30410
G01 X-6.41496 Y114.32531
G01 X-6.39375 Y114.34273
G01 X-6.36954 Y114.35566
G01 X-6.34328 Y114.36363
G01 X-6.31597 Y114.36633
G01 X-5.90266 Y114.36633
G01 X-5.89248 Y114.36752
G01 X-5.88280 Y114.37100
G01 X-5.75227 Y114.43628
G01 X-5.74612 Y114.44001
G01 X-5.74064 Y114.44466
G01 X-5.67716 Y114.50811
G01 X-5.67251 Y114.51360
G01 X-5.66878 Y114.51974
G01 X-5.60350 Y114.65027
G01 X-5.60002 Y114.65995
G01 X-5.59883 Y114.67014
G04 P0 ( dwell for no time -- G64 should not smooth over this point )
G00 Z5.00000 ( retract )

G00 X-7.09883 Y113.95586 ( rapid move to begin. )
G01 F250.00000
( Mill infeed pass 1/1 )
G01 Z-0.20000
G04 P0 ( dwell for no time -- G64 should not smooth over this point )
G01 F500.00000
G01 X-7.09883 Y113.95586
G01 X-7.10002 Y113.94568
G01 X-7.10350 Y113.93600
G01 X-7.16880 Y113.80544
G01 X-7.17254 Y113.79930
G01 X-7.17719 Y113.79381
G01 X-7.24063 Y113.73036
G01 X-7.24612 Y113.72571
G01 X-7.25227 Y113.72198
G01 X-7.38280 Y113.65670
G01 X-7.39248 Y113.65322
G01 X-7.40266 Y113.65203
G01 X-7.74607 Y113.65203
G01 X-7.75323 Y113.65261
G01 X-7.76019 Y113.65431
G01 X-7.96260 Y113.72178
G01 X-7.97058 Y113.72536
G01 X-7.97208 Y113.72640
G01 X-7.97332 Y113.72772
G01 X-7.97431 Y113.72927
G01 X-7.97495 Y113.73100
G01 X-7.97528 Y113.73277
G01 X-7.97523 Y113.73460
G01 X-7.97482 Y113.73641
G01 X-7.97406 Y113.73806
G01 X-7.97302 Y113.73956
G01 X-7.97170 Y113.74080
G01 X-7.97015 Y113.74179
G01 X-7.96842 Y113.74243
G01 X-7.96664 Y113.74276
G01 X-7.96481 Y113.74271
G01 X-7.95628 Y113.74075
G01 X-7.77162 Y113.67921
G01 X-7.74978 Y113.67382
G01 X-7.72735 Y113.67202
G01 X-7.42997 Y113.67202
G01 X-7.39778 Y113.67578
G01 X-7.36736 Y113.68680
G01 X-7.27795 Y113.73150
G01 X-7.25869 Y113.74316
G01 X-7.24155 Y113.75774
G01 X-7.20454 Y113.79473
G01 X-7.18999 Y113.81187
G01 X-7.17833 Y113.83112
G01 X-7.13360 Y113.92056
G01 X-7.12258 Y113.95099
G01 X-7.11882 Y113.98317
G01 X-7.11882 Y114.05518
G01 X-7.12258 Y114.08736
G01 X-7.13360 Y114.11781
G01 X-7.17833 Y114.20722
G01 X-7.18996 Y114.22645
G01 X-7.20454 Y114.24357
G01 X-7.24157 Y114.28060
G01 X-7.25869 Y114.29518
G01 X-7.27792 Y114.30681
G01 X-7.38427 Y114.36000
G01 X-7.41295 Y114.37062
G01 X-7.67525 Y114.43618
G01 X-7.69159 Y114.44222
G01 X-7.82255 Y114.50770
G01 X-7.82870 Y114.51144
G01 X-7.83418 Y114.51609
G01 X-7.89763 Y114.57953
G01 X-7.90228 Y114.58502
G01 X-7.90601 Y114.59117
G01 X-7.97129 Y114.72170
G01 X-7.97477 Y114.73138
G01 X-7.97596 Y114.74156
G01 X-7.97596 Y114.86821
G01 X-7.97477 Y114.87839
G01 X-7.97129 Y114.88807
G01 X-7.90601 Y115.01860
G01 X-7.90228 Y115.02475
G01 X-7.89763 Y115.03023
G01 X-7.83418 Y115.09368
G01 X-7.82870 Y115.09833
G01 X-7.82255 Y115.10206
G01 X-7.69202 Y115.16734
G01 X-7.68234 Y115.17082
G01 X-7.67216 Y115.17201
G01 X-7.32875 Y115.17201
G01 X-7.32158 Y115.17143
G01 X-7.31462 Y115.16973
G01 X-7.11219 Y115.10227
G01 X-7.10421 Y115.09868
G01 X-7.10271 Y115.09764
G01 X-7.10147 Y115.09632
G01 X-7.10048 Y115.09477
G01 X-7.09984 Y115.09305
G01 X-7.09951 Y115.09127
G01 X-7.09956 Y115.08944
G01 X-7.09997 Y115.08764
G01 X-7.10073 Y115.08598
G01 X-7.10177 Y115.08449
G01 X-7.10309 Y115.08324
G01 X-7.10464 Y115.08225
G01 X-7.10637 Y115.08162
G01 X-7.10815 Y115.08129
G01 X-7.10998 Y115.08134
G01 X-7.11851 Y115.08329
G01 X-7.30319 Y115.14484
G01 X-7.32504 Y115.15022
G01 X-7.34747 Y115.15202
G01 X-7.64485 Y115.15202
G01 X-7.67703 Y115.14827
G01 X-7.70746 Y115.13724
G01 X-7.79687 Y115.09254
G01 X-7.81612 Y115.08088
G01 X-7.83327 Y115.06630
G01 X-7.87025 Y115.02932
G01 X-7.88483 Y115.01217
G01 X-7.89649 Y114.99292
G01 X-7.94119 Y114.90351
G01 X-7.95222 Y114.87308
G01 X-7.95597 Y114.84090
G01 X-7.95597 Y114.76887
G01 X-7.95222 Y114.73668
G01 X-7.94119 Y114.70625
G01 X-7.89649 Y114.61685
G01 X-7.88483 Y114.59759
G01 X-7.87025 Y114.58045
G01 X-7.83327 Y114.54347
G01 X-7.81612 Y114.52889
G01 X-7.79687 Y114.51723
G01 X-7.69052 Y114.46407
G01 X-7.66187 Y114.45345
G01 X-7.39956 Y114.38789
G01 X-7.38320 Y114.38185
G01 X-7.25227 Y114.31634
G01 X-7.24612 Y114.31261
G01 X-7.24063 Y114.30796
G01 X-7.17719 Y114.24451
G01 X-7.17254 Y114.23902
G01 X-7.16880 Y114.23288
G01 X-7.10350 Y114.10234
G01 X-7.10002 Y114.09267
G01 X-7.09883 Y114.08248
G01 X-7.09883 Y113.95586
G04 P0 ( dwell for no time -- G64 should not smooth over this point )
G00 Z5.00000 ( retract )

G00 X-8.59885 Y113.66889 ( rapid move to begin. )
G01 F250.00000
( Mill infeed pass 1/1 )
G01 Z-0.20000
G04 P0 ( dwell for no time -- G64 should not smooth over this point )
G01 F500.00000
G01 X-8.59885 Y113.66889
G01 X-8.59971 Y113.66021
G01 X-8.60022 Y113.65845
G01 X-8.60108 Y113.65685
G01 X-8.60225 Y113.65543
G01 X-8.60367 Y113.65426
G01 X-8.60528 Y113.65340
G01 X-8.60703 Y113.65289
G01 X-8.60886 Y113.65269
G01 X-8.61066 Y113.65289
G01 X-8.61241 Y113.65340
G01 X-8.61401 Y113.65426
G01 X-8.61544 Y113.65543
G01 X-8.61660 Y113.65685
G01 X-8.61747 Y113.65845
G01 X-8.61798 Y113.66021
G01 X-8.61884 Y113.66889
G01 X-8.61884 Y115.15515
G01 X-8.61798 Y115.16384
G01 X-8.61747 Y115.16559
G01 X-8.61660 Y115.16719
G01 X-8.61544 Y115.16861
G01 X-8.61401 Y115.16978
G01 X-8.61241 Y115.17064
G01 X-8.61066 Y115.17115
G01 X-8.60886 Y115.17135
G01 X-8.60703 Y115.17115
G01 X-8.60528 Y115.17064
G01 X-8.60367 Y115.16978
G01 X-8.60225 Y115.16861
G01 X-8.60108 Y115.16719
G01 X-8.60022 Y115.16559
G01 X-8.59971 Y115.16384
G01 X-8.59885 Y115.15515
G01 X-8.59885 Y113.66889
G04 P0 ( dwell for no time -- G64 should not smooth over this point )
G00 Z5.00000 ( retract )

G00 X-23.42323 Y110.08193 ( rapid move to begin. )
G01 F250.00000
( Mill infeed pass 1/1 )
G01 Z-0.20000
G04 P0 ( dwell for no time -- G64 should not smooth over this point )
G01 F500.00000
G01 X-23.42323 Y110.08193
G01 X-23.42343 Y110.08010
G01 X-23.42607 Y110.07172
G01 X-24.06351 Y108.58440
G01 X-24.06773 Y108.57675
G01 X-24.06890 Y108.57536
G01 X-24.07032 Y108.57421
G01 X-24.07194 Y108.57337
G01 X-24.07370 Y108.57287
G01 X-24.07553 Y108.57269
G01 X-24.07733 Y108.57289
G01 X-24.07908 Y108.57345
G01 X-24.08068 Y108.57434
G01 X-24.08208 Y108.57551
G01 X-24.08322 Y108.57693
G01 X-24.08406 Y108.57856
G01 X-24.08457 Y108.58031
G01 X-24.08475 Y108.58214
G01 X-24.08454 Y108.58394
G01 X-24.08190 Y108.59227
G01 X-23.53133 Y109.87688
G01 X-23.52303 Y109.90319
G01 X-23.52003 Y109.93065
G01 X-23.52249 Y109.95816
G01 X-23.53029 Y109.98465
G01 X-23.54314 Y110.00908
G01 X-23.56054 Y110.03052
G01 X-23.58183 Y110.04815
G01 X-23.60613 Y110.06123
G01 X-23.63255 Y110.06931
G01 X-23.66003 Y110.07202
G01 X-24.42567 Y110.07202
G01 X-24.43435 Y110.07289
G01 X-24.43610 Y110.07340
G01 X-24.43770 Y110.07426
G01 X-24.43913 Y110.07543
G01 X-24.44030 Y110.07685
G01 X-24.44116 Y110.07845
G01 X-24.44167 Y110.08020
G01 X-24.44187 Y110.08201
G01 X-24.44167 Y110.08384
G01 X-24.44116 Y110.08559
G01 X-24.44030 Y110.08719
G01 X-24.43913 Y110.08861
G01 X-24.43770 Y110.08978
G01 X-24.43610 Y110.09064
G01 X-24.43435 Y110.09115
G01 X-24.42567 Y110.09201
G01 X-23.43946 Y110.09201
G01 X-23.43072 Y110.09115
G01 X-23.42894 Y110.09062
G01 X-23.42734 Y110.08975
G01 X-23.42592 Y110.08859
G01 X-23.42475 Y110.08714
G01 X-23.42391 Y110.08551
G01 X-23.42338 Y110.08376
G01 X-23.42323 Y110.08193
G04 P0 ( dwell for no time -- G64 should not smooth over this point )
G00 Z5.00000 ( retract )

G00 X-24.92254 Y109.23347 ( rapid move to begin. )
G01 F250.00000
( Mill infeed pass 1/1 )
G01 Z-0.20000
G04 P0 ( dwell for no time -- G64 should not smooth over this point )
G01 F500.00000
G01 X-24.92254 Y109.23347
G01 X-24.92493 Y109.21411
G01 X-24.99242 Y108.94416
G01 X-24.99846 Y108.92786
G01 X-25.06394 Y108.79689
G01 X-25.06768 Y108.79075
G01 X-25.07232 Y108.78526
G01 X-25.20545 Y108.65211
G01 X-25.21350 Y108.64574
G01 X-25.22279 Y108.64140
G01 X-25.42406 Y108.57431
G01 X-25.43102 Y108.57261
G01 X-25.43819 Y108.57203
G01 X-25.78281 Y108.57203
G01 X-25.79150 Y108.57289
G01 X-25.79325 Y108.57340
G01 X-25.79485 Y108.57426
G01 X-25.79627 Y108.57543
G01 X-25.79744 Y108.57685
G01 X-25.79831 Y108.57845
G01 X-25.79881 Y108.58021
G01 X-25.79968 Y108.58889
G01 X-25.79968 Y110.07515
G01 X-25.79881 Y110.08384
G01 X-25.79831 Y110.08559
G01 X-25.79744 Y110.08719
G01 X-25.79627 Y110.08861
G01 X-25.79485 Y110.08978
G01 X-25.79325 Y110.09064
G01 X-25.79150 Y110.09115
G01 X-25.78281 Y110.09201
G01 X-25.43819 Y110.09201
G01 X-25.43102 Y110.09143
G01 X-25.42406 Y110.08973
G01 X-25.22279 Y110.02265
G01 X-25.21350 Y110.01830
G01 X-25.20545 Y110.01193
G01 X-25.07232 Y109.87881
G01 X-25.06768 Y109.87332
G01 X-25.06394 Y109.86717
G01 X-24.99846 Y109.73619
G01 X-24.99242 Y109.71988
G01 X-24.92493 Y109.44993
G01 X-24.92254 Y109.43057
G01 X-24.92254 Y109.23347
G04 P0 ( dwell for no time -- G64 should not smooth over this point )
G00 Z5.00000 ( retract )

G00 X-24.94253 Y109.24335 ( rapid move to begin. )
G01 F250.00000
( Mill infeed pass 1/1 )
G01 Z-0.20000
G04 P0 ( dwell for no time -- G64 should not smooth over this point )
G01 F500.00000
G01 X-24.94253 Y109.24335
G01 X-24.94672 Y109.20936
G01 X-25.00969 Y108.95757
G01 X-25.02028 Y108.92892
G01 X-25.07347 Y108.82255
G01 X-25.08513 Y108.80332
G01 X-25.09968 Y108.78618
G01 X-25.20029 Y108.68557
G01 X-25.22569 Y108.66547
G01 X-25.25503 Y108.65173
G01 X-25.41263 Y108.59921
G01 X-25.43448 Y108.59382
G01 X-25.45691 Y108.59202
G01 X-25.63968 Y108.59202
G01 X-25.66699 Y108.59471
G01 X-25.69325 Y108.60269
G01 X-25.71746 Y108.61561
G01 X-25.73867 Y108.63304
G01 X-25.75609 Y108.65425
G01 X-25.76902 Y108.67845
G01 X-25.77700 Y108.70472
G01 X-25.77969 Y108.73202
G01 X-25.77969 Y109.93202
G01 X-25.77700 Y109.95933
G01 X-25.76902 Y109.98559
G01 X-25.75609 Y110.00979
G01 X-25.73867 Y110.03100
G01 X-25.71746 Y110.04843
G01 X-25.69325 Y110.06136
G01 X-25.66699 Y110.06933
G01 X-25.63968 Y110.07202
G01 X-25.45691 Y110.07202
G01 X-25.43448 Y110.07022
G01 X-25.41263 Y110.06484
G01 X-25.25503 Y110.01231
G01 X-25.22569 Y109.99857
G01 X-25.20029 Y109.97848
G01 X-25.09970 Y109.87789
G01 X-25.08513 Y109.86075
G01 X-25.07347 Y109.84149
G01 X-25.02028 Y109.73512
G01 X-25.00969 Y109.70649
G01 X-24.94672 Y109.45468
G01 X-24.94253 Y109.42069
G01 X-24.94253 Y109.24335
G04 P0 ( dwell for no time -- G64 should not smooth over this point )
G00 Z5.00000 ( retract )

G00 X-26.42256 Y109.59014 ( rapid move to begin. )
G01 F250.00000
( Mill infeed pass 1/1 )
G01 Z-0.20000
G04 P0 ( dwell for no time -- G64 should not smooth over this point )
G01 F500.00000
G01 X-26.42256 Y109.59014
G01 X-26.42376 Y109.57995
G01 X-26.42724 Y109.57027
G01 X-26.49251 Y109.43974
G01 X-26.49625 Y109.43360
G01 X-26.50090 Y109.42811
G01 X-26.56435 Y109.36466
G01 X-26.56983 Y109.36001
G01 X-26.57598 Y109.35628
G01 X-26.70651 Y109.29100
G01 X-26.71619 Y109.28752
G01 X-26.72637 Y109.28633
G01 X-27.13968 Y109.28633
G01 X-27.16699 Y109.28363
G01 X-27.19325 Y109.27566
G01 X-27.21746 Y109.26273
G01 X-27.23866 Y109.24531
G01 X-27.25609 Y109.22410
G01 X-27.26902 Y109.19989
G01 X-27.27699 Y109.17363
G01 X-27.27969 Y109.14632
G01 X-27.27969 Y108.58889
G01 X-27.28055 Y108.58021
G01 X-27.28106 Y108.57845
G01 X-27.28192 Y108.57685
G01 X-27.28309 Y108.57543
G01 X-27.28451 Y108.57426
G01 X-27.28611 Y108.57340
G01 X-27.28786 Y108.57289
G01 X-27.28969 Y108.57269
G01 X-27.29150 Y108.57289
G01 X-27.29325 Y108.57340
G01 X-27.29485 Y108.57426
G01 X-27.29627 Y108.57543
G01 X-27.29744 Y108.57685
G01 X-27.29830 Y108.57845
G01 X-27.29881 Y108.58021
G01 X-27.29968 Y108.58889
G01 X-27.29968 Y110.07515
G01 X-27.29881 Y110.08384
G01 X-27.29830 Y110.08559
G01 X-27.29744 Y110.08719
G01 X-27.29627 Y110.08861
G01 X-27.29485 Y110.08978
G01 X-27.29325 Y110.09064
G01 X-27.29150 Y110.09115
G01 X-27.28281 Y110.09201
G01 X-26.72637 Y110.09201
G01 X-26.71619 Y110.09082
G01 X-26.70651 Y110.08734
G01 X-26.57598 Y110.02206
G01 X-26.56983 Y110.01833
G01 X-26.56435 Y110.01368
G01 X-26.50090 Y109.95023
G01 X-26.49625 Y109.94475
G01 X-26.49251 Y109.93860
G01 X-26.42724 Y109.80807
G01 X-26.42376 Y109.79839
G01 X-26.42256 Y109.78821
G01 X-26.42256 Y109.59014
G04 P0 ( dwell for no time -- G64 should not smooth over this point )
G00 Z5.00000 ( retract )

G00 X-26.44255 Y109.61744 ( rapid move to begin. )
G01 F250.00000
( Mill infeed pass 1/1 )
G01 Z-0.20000
G04 P0 ( dwell for no time -- G64 should not smooth over this point )
G01 F500.00000
G01 X-26.44255 Y109.61744
G01 X-26.44631 Y109.58526
G01 X-26.45733 Y109.55483
G01 X-26.50204 Y109.46542
G01 X-26.51370 Y109.44617
G01 X-26.52828 Y109.42902
G01 X-26.56526 Y109.39204
G01 X-26.58240 Y109.37746
G01 X-26.60166 Y109.36580
G01 X-26.69107 Y109.32110
G01 X-26.72149 Y109.31008
G01 X-26.75368 Y109.30632
G01 X-27.13968 Y109.30632
G01 X-27.16699 Y109.30901
G01 X-27.19325 Y109.31698
G01 X-27.21746 Y109.32991
G01 X-27.23866 Y109.34734
G01 X-27.25609 Y109.36855
G01 X-27.26902 Y109.39275
G01 X-27.27699 Y109.41902
G01 X-27.27969 Y109.44632
G01 X-27.27969 Y109.93202
G01 X-27.27699 Y109.95933
G01 X-27.26902 Y109.98559
G01 X-27.25609 Y110.00979
G01 X-27.23866 Y110.03100
G01 X-27.21746 Y110.04843
G01 X-27.19325 Y110.06136
G01 X-27.16699 Y110.06933
G01 X-27.13968 Y110.07202
G01 X-26.75368 Y110.07202
G01 X-26.72149 Y110.06827
G01 X-26.69107 Y110.05724
G01 X-26.60166 Y110.01254
G01 X-26.58240 Y110.00088
G01 X-26.56526 Y109.98630
G01 X-26.52828 Y109.94932
G01 X-26.51370 Y109.93217
G01 X-26.50204 Y109.91292
G01 X-26.45733 Y109.82351
G01 X-26.44631 Y109.79308
G01 X-26.44255 Y109.76090
G01 X-26.44255 Y109.61744
G04 P0 ( dwell for no time -- G64 should not smooth over this point )
G00 Z5.00000 ( retract )

G00 X-37.71797 Y110.65386 ( rapid move to begin. )
G01 F250.00000
( Mill infeed pass 1/1 )
G01 Z-0.20000
G04 P0 ( dwell for no time -- G64 should not smooth over this point )
G01 F500.00000
G01 X-37.71797 Y110.65386
G01 X-37.71914 Y110.64368
G01 X-37.72264 Y110.63400
G01 X-37.78794 Y110.50344
G01 X-37.79168 Y110.49730
G01 X-37.79633 Y110.49181
G01 X-37.85975 Y110.42836
G01 X-37.86521 Y110.42371
G01 X-37.87138 Y110.41998
G01 X-38.00189 Y110.35470
G01 X-38.01157 Y110.35122
G01 X-38.02175 Y110.35003
G01 X-38.29127 Y110.35003
G01 X-38.30146 Y110.35122
G01 X-38.31113 Y110.35470
G01 X-38.44169 Y110.41998
G01 X-38.44784 Y110.42371
G01 X-38.45332 Y110.42836
G01 X-38.51675 Y110.49181
G01 X-38.52140 Y110.49730
G01 X-38.52513 Y110.50344
G01 X-38.59043 Y110.63400
G01 X-38.59389 Y110.64368
G01 X-38.59511 Y110.65386
G01 X-38.59511 Y111.20857
G01 X-38.59272 Y111.22793
G01 X-38.52482 Y111.49948
G01 X-38.52233 Y111.50672
G01 X-38.51865 Y111.51340
G01 X-38.38297 Y111.71695
G01 X-38.37301 Y111.72915
G01 X-38.31047 Y111.79168
G01 X-38.30499 Y111.79633
G01 X-38.29884 Y111.80006
G01 X-38.16823 Y111.86534
G01 X-38.15858 Y111.86882
G01 X-38.14840 Y111.87001
G01 X-37.87768 Y111.87001
G01 X-37.86900 Y111.86915
G01 X-37.86724 Y111.86864
G01 X-37.86564 Y111.86778
G01 X-37.86422 Y111.86661
G01 X-37.86305 Y111.86519
G01 X-37.86219 Y111.86359
G01 X-37.86166 Y111.86184
G01 X-37.86148 Y111.86001
G01 X-37.86166 Y111.85820
G01 X-37.86219 Y111.85645
G01 X-37.86305 Y111.85485
G01 X-37.86422 Y111.85343
G01 X-37.86564 Y111.85226
G01 X-37.86724 Y111.85140
G01 X-37.86900 Y111.85089
G01 X-37.87768 Y111.85002
G01 X-38.12112 Y111.85002
G01 X-38.15327 Y111.84627
G01 X-38.18370 Y111.83524
G01 X-38.27316 Y111.79054
G01 X-38.29241 Y111.77888
G01 X-38.30953 Y111.76430
G01 X-38.35325 Y111.72061
G01 X-38.37075 Y111.69925
G01 X-38.49092 Y111.51894
G01 X-38.50247 Y111.49793
G01 X-38.51027 Y111.47525
G01 X-38.51670 Y111.44954
G01 X-38.52063 Y111.42328
G01 X-38.51959 Y111.39674
G01 X-38.51352 Y111.37088
G01 X-38.50270 Y111.34665
G01 X-38.48751 Y111.32488
G01 X-38.46849 Y111.30636
G01 X-38.44629 Y111.29178
G01 X-38.42170 Y111.28167
G01 X-38.39569 Y111.27637
G01 X-38.36917 Y111.27606
G01 X-38.34304 Y111.28079
G01 X-38.31825 Y111.29036
G01 X-38.31113 Y111.29392
G01 X-38.30146 Y111.29740
G01 X-38.29127 Y111.29859
G01 X-38.02175 Y111.29859
G01 X-38.01157 Y111.29740
G01 X-38.00189 Y111.29392
G01 X-37.87138 Y111.22864
G01 X-37.86521 Y111.22491
G01 X-37.85975 Y111.22026
G01 X-37.79633 Y111.15681
G01 X-37.79168 Y111.15132
G01 X-37.78794 Y111.14517
G01 X-37.72264 Y111.01462
G01 X-37.71914 Y111.00494
G01 X-37.71797 Y110.99476
G01 X-37.71797 Y110.65386
G04 P0 ( dwell for no time -- G64 should not smooth over this point )
G00 Z5.00000 ( retract )

G00 X-37.73796 Y110.68117 ( rapid move to begin. )
G01 F250.00000
( Mill infeed pass 1/1 )
G01 Z-0.20000
G04 P0 ( dwell for no time -- G64 should not smooth over this point )
G01 F500.00000
G01 X-37.73796 Y110.68117
G01 X-37.74172 Y110.64899
G01 X-37.75271 Y110.61856
G01 X-37.79747 Y110.52910
G01 X-37.80910 Y110.50987
G01 X-37.82368 Y110.49275
G01 X-37.86066 Y110.45574
G01 X-37.87778 Y110.44116
G01 X-37.89706 Y110.42950
G01 X-37.98647 Y110.38480
G01 X-38.01690 Y110.37378
G01 X-38.04908 Y110.37002
G01 X-38.26399 Y110.37002
G01 X-38.29617 Y110.37378
G01 X-38.32660 Y110.38480
G01 X-38.41601 Y110.42950
G01 X-38.43524 Y110.44116
G01 X-38.45241 Y110.45574
G01 X-38.48939 Y110.49275
G01 X-38.50397 Y110.50987
G01 X-38.51560 Y110.52910
G01 X-38.56033 Y110.61856
G01 X-38.57136 Y110.64899
G01 X-38.57512 Y110.68117
G01 X-38.57512 Y110.96745
G01 X-38.57136 Y110.99963
G01 X-38.56033 Y111.03006
G01 X-38.51560 Y111.11952
G01 X-38.50397 Y111.13875
G01 X-38.48939 Y111.15587
G01 X-38.45241 Y111.19288
G01 X-38.43524 Y111.20746
G01 X-38.41601 Y111.21911
G01 X-38.32660 Y111.26382
G01 X-38.29617 Y111.27484
G01 X-38.26399 Y111.27860
G01 X-38.04908 Y111.27860
G01 X-38.01690 Y111.27484
G01 X-37.98647 Y111.26382
G01 X-37.89706 Y111.21911
G01 X-37.87778 Y111.20746
G01 X-37.86066 Y111.19288
G01 X-37.82368 Y111.15587
G01 X-37.80910 Y111.13875
G01 X-37.79747 Y111.11952
G01 X-37.75271 Y111.03006
G01 X-37.74172 Y110.99963
G01 X-37.73796 Y110.96745
G01 X-37.73796 Y110.68117
G04 P0 ( dwell for no time -- G64 should not smooth over this point )
G00 Z5.00000 ( retract )

G00 X-39.14651 Y111.01147 ( rapid move to begin. )
G01 F250.00000
( Mill infeed pass 1/1 )
G01 Z-0.20000
G04 P0 ( dwell for no time -- G64 should not smooth over this point )
G01 F500.00000
G01 X-39.14651 Y111.01147
G01 X-39.14890 Y110.99211
G01 X-39.21639 Y110.72216
G01 X-39.22246 Y110.70586
G01 X-39.28792 Y110.57489
G01 X-39.29168 Y110.56875
G01 X-39.29630 Y110.56326
G01 X-39.42945 Y110.43011
G01 X-39.43750 Y110.42374
G01 X-39.44679 Y110.41940
G01 X-39.64799 Y110.35231
G01 X-39.65497 Y110.35061
G01 X-39.66213 Y110.35003
G01 X-40.00679 Y110.35003
G01 X-40.01547 Y110.35089
G01 X-40.01725 Y110.35140
G01 X-40.01885 Y110.35226
G01 X-40.02027 Y110.35343
G01 X-40.02144 Y110.35485
G01 X-40.02231 Y110.35645
G01 X-40.02281 Y110.35821
G01 X-40.02368 Y110.36689
G01 X-40.02368 Y111.85315
G01 X-40.02281 Y111.86184
G01 X-40.02231 Y111.86359
G01 X-40.02144 Y111.86519
G01 X-40.02027 Y111.86661
G01 X-40.01885 Y111.86778
G01 X-40.01725 Y111.86864
G01 X-40.01547 Y111.86915
G01 X-40.00679 Y111.87001
G01 X-39.66213 Y111.87001
G01 X-39.65497 Y111.86943
G01 X-39.64799 Y111.86773
G01 X-39.44679 Y111.80065
G01 X-39.43750 Y111.79630
G01 X-39.42945 Y111.78993
G01 X-39.29630 Y111.65681
G01 X-39.29168 Y111.65132
G01 X-39.28792 Y111.64517
G01 X-39.22246 Y111.51419
G01 X-39.21639 Y111.49788
G01 X-39.14890 Y111.22793
G01 X-39.14651 Y111.20857
G01 X-39.14651 Y111.01147
G04 P0 ( dwell for no time -- G64 should not smooth over this point )
G00 Z5.00000 ( retract )

G00 X-39.16650 Y111.02135 ( rapid move to begin. )
G01 F250.00000
( Mill infeed pass 1/1 )
G01 Z-0.20000
G04 P0 ( dwell for no time -- G64 should not smooth over this point )
G01 F500.00000
G01 X-39.16650 Y111.02135
G01 X-39.17070 Y110.98736
G01 X-39.23366 Y110.73555
G01 X-39.24428 Y110.70692
G01 X-39.29744 Y110.60055
G01 X-39.30913 Y110.58132
G01 X-39.32368 Y110.56418
G01 X-39.42429 Y110.46357
G01 X-39.44969 Y110.44345
G01 X-39.47900 Y110.42973
G01 X-39.63658 Y110.37721
G01 X-39.65843 Y110.37182
G01 X-39.68085 Y110.37002
G01 X-39.86368 Y110.37002
G01 X-39.89099 Y110.37271
G01 X-39.91725 Y110.38069
G01 X-39.94146 Y110.39361
G01 X-39.96267 Y110.41104
G01 X-39.98009 Y110.43225
G01 X-39.99302 Y110.45645
G01 X-40.00097 Y110.48272
G01 X-40.00369 Y110.51002
G01 X-40.00369 Y111.71002
G01 X-40.00097 Y111.73733
G01 X-39.99302 Y111.76359
G01 X-39.98009 Y111.78779
G01 X-39.96267 Y111.80900
G01 X-39.94146 Y111.82643
G01 X-39.91725 Y111.83936
G01 X-39.89099 Y111.84733
G01 X-39.86368 Y111.85002
G01 X-39.68085 Y111.85002
G01 X-39.65843 Y111.84822
G01 X-39.63658 Y111.84284
G01 X-39.47900 Y111.79031
G01 X-39.44969 Y111.77659
G01 X-39.42429 Y111.75648
G01 X-39.32370 Y111.65589
G01 X-39.30913 Y111.63875
G01 X-39.29744 Y111.61949
G01 X-39.24428 Y111.51312
G01 X-39.23366 Y111.48449
G01 X-39.17070 Y111.23268
G01 X-39.16650 Y111.19869
G01 X-39.16650 Y111.02135
G04 P0 ( dwell for no time -- G64 should not smooth over this point )
G00 Z5.00000 ( retract )

G00 X-40.64656 Y111.36814 ( rapid move to begin. )
G01 F250.00000
( Mill infeed pass 1/1 )
G01 Z-0.20000
G04 P0 ( dwell for no time -- G64 should not smooth over this point )
G01 F500.00000
G01 X-40.64656 Y111.36814
G01 X-40.64776 Y111.35795
G01 X-40.65124 Y111.34827
G01 X-40.71651 Y111.21774
G01 X-40.72025 Y111.21160
G01 X-40.72490 Y111.20611
G01 X-40.78835 Y111.14266
G01 X-40.79383 Y111.13801
G01 X-40.79998 Y111.13428
G01 X-40.93051 Y111.06900
G01 X-40.94019 Y111.06552
G01 X-40.95037 Y111.06433
G01 X-41.36368 Y111.06433
G01 X-41.39099 Y111.06163
G01 X-41.41725 Y111.05366
G01 X-41.44146 Y111.04073
G01 X-41.46266 Y111.02331
G01 X-41.48009 Y111.00210
G01 X-41.49302 Y110.97789
G01 X-41.50099 Y110.95163
G01 X-41.50369 Y110.92432
G01 X-41.50369 Y110.36689
G01 X-41.50455 Y110.35821
G01 X-41.50506 Y110.35645
G01 X-41.50592 Y110.35485
G01 X-41.50709 Y110.35343
G01 X-41.50851 Y110.35226
G01 X-41.51011 Y110.35140
G01 X-41.51186 Y110.35089
G01 X-41.51369 Y110.35069
G01 X-41.51550 Y110.35089
G01 X-41.51725 Y110.35140
G01 X-41.51885 Y110.35226
G01 X-41.52027 Y110.35343
G01 X-41.52144 Y110.35485
G01 X-41.52230 Y110.35645
G01 X-41.52281 Y110.35821
G01 X-41.52368 Y110.36689
G01 X-41.52368 Y111.85315
G01 X-41.52281 Y111.86184
G01 X-41.52230 Y111.86359
G01 X-41.52144 Y111.86519
G01 X-41.52027 Y111.86661
G01 X-41.51885 Y111.86778
G01 X-41.51725 Y111.86864
G01 X-41.51550 Y111.86915
G01 X-41.50681 Y111.87001
G01 X-40.95037 Y111.87001
G01 X-40.94019 Y111.86882
G01 X-40.93051 Y111.86534
G01 X-40.79998 Y111.80006
G01 X-40.79383 Y111.79633
G01 X-40.78835 Y111.79168
G01 X-40.72490 Y111.72823
G01 X-40.72025 Y111.72275
G01 X-40.71651 Y111.71660
G01 X-40.65124 Y111.58607
G01 X-40.64776 Y111.57639
G01 X-40.64656 Y111.56621
G01 X-40.64656 Y111.36814
G04 P0 ( dwell for no time -- G64 should not smooth over this point )
G00 Z5.00000 ( retract )

G00 X-40.66655 Y111.39544 ( rapid move to begin. )
G01 F250.00000
( Mill infeed pass 1/1 )
G01 Z-0.20000
G04 P0 ( dwell for no time -- G64 should not smooth over this point )
G01 F500.00000
G01 X-40.66655 Y111.39544
G01 X-40.67031 Y111.36326
G01 X-40.68133 Y111.33283
G01 X-40.72604 Y111.24342
G01 X-40.73770 Y111.22417
G01 X-40.75228 Y111.20702
G01 X-40.78926 Y111.17004
G01 X-40.80640 Y111.15546
G01 X-40.82566 Y111.14380
G01 X-40.91507 Y111.09910
G01 X-40.94549 Y111.08808
G01 X-40.97768 Y111.08432
G01 X-41.36368 Y111.08432
G01 X-41.39099 Y111.08701
G01 X-41.41725 Y111.09498
G01 X-41.44146 Y111.10791
G01 X-41.46266 Y111.12534
G01 X-41.48009 Y111.14655
G01 X-41.49302 Y111.17075
G01 X-41.50099 Y111.19702
G01 X-41.50369 Y111.22432
G01 X-41.50369 Y111.71002
G01 X-41.50099 Y111.73733
G01 X-41.49302 Y111.76359
G01 X-41.48009 Y111.78779
G01 X-41.46266 Y111.80900
G01 X-41.44146 Y111.82643
G01 X-41.41725 Y111.83936
G01 X-41.39099 Y111.84733
G01 X-41.36368 Y111.85002
G01 X-40.97768 Y111.85002
G01 X-40.94549 Y111.84627
G01 X-40.91507 Y111.83524
G01 X-40.82566 Y111.79054
G01 X-40.80640 Y111.77888
G01 X-40.78926 Y111.76430
G01 X-40.75228 Y111.72732
G01 X-40.73770 Y111.71017
G01 X-40.72604 Y111.69092
G01 X-40.68133 Y111.60151
G01 X-40.67031 Y111.57108
G01 X-40.66655 Y111.53890
G01 X-40.66655 Y111.39544
G04 P0 ( dwell for no time -- G64 should not smooth over this point )
G00 Z5.00000 ( retract )

G00 X-54.37856 Y123.74545 ( rapid move to begin. )
G01 F250.00000
( Mill infeed pass 1/1 )
G01 Z-0.20000
G04 P0 ( dwell for no time -- G64 should not smooth over this point )
G01 F500.00000
G01 X-54.37856 Y123.74545
G01 X-54.37943 Y123.73677
G01 X-54.37994 Y123.73502
G01 X-54.38080 Y123.73341
G01 X-54.38197 Y123.73199
G01 X-54.38339 Y123.73082
G01 X-54.38499 Y123.72996
G01 X-54.38674 Y123.72945
G01 X-54.39543 Y123.72859
G01 X-70.63769 Y123.72859
G01 X-70.64638 Y123.72945
G01 X-70.64813 Y123.72996
G01 X-70.64973 Y123.73082
G01 X-70.65115 Y123.73199
G01 X-70.65232 Y123.73341
G01 X-70.65318 Y123.73502
G01 X-70.65369 Y123.73677
G01 X-70.65455 Y123.74545
G01 X-70.65455 Y129.82771
G01 X-70.65369 Y129.83640
G01 X-70.65318 Y129.83815
G01 X-70.65232 Y129.83975
G01 X-70.65115 Y129.84118
G01 X-70.64973 Y129.84234
G01 X-70.64813 Y129.84321
G01 X-70.64638 Y129.84372
G01 X-70.63769 Y129.84458
G01 X-54.39543 Y129.84458
G01 X-54.38674 Y129.84372
G01 X-54.38499 Y129.84321
G01 X-54.38339 Y129.84234
G01 X-54.38197 Y129.84118
G01 X-54.38080 Y129.83975
G01 X-54.37994 Y129.83815
G01 X-54.37943 Y129.83640
G01 X-54.37856 Y129.82771
G01 X-54.37856 Y123.74545
G04 P0 ( dwell for no time -- G64 should not smooth over this point )
G00 Z5.00000 ( retract )

G00 X-54.39855 Y123.88858 ( rapid move to begin. )
G01 F250.00000
( Mill infeed pass 1/1 )
G01 Z-0.20000
G04 P0 ( dwell for no time -- G64 should not smooth over this point )
G01 F500.00000
G01 X-54.39855 Y123.88858
G01 X-54.40125 Y123.86128
G01 X-54.40922 Y123.83501
G01 X-54.42215 Y123.81081
G01 X-54.43958 Y123.78960
G01 X-54.46078 Y123.77218
G01 X-54.48499 Y123.75925
G01 X-54.51125 Y123.75127
G01 X-54.53856 Y123.74858
G01 X-70.49456 Y123.74858
G01 X-70.52186 Y123.75127
G01 X-70.54813 Y123.75925
G01 X-70.57233 Y123.77218
G01 X-70.59354 Y123.78960
G01 X-70.61097 Y123.81081
G01 X-70.62390 Y123.83501
G01 X-70.63187 Y123.86128
G01 X-70.63456 Y123.88858
G01 X-70.63456 Y129.68458
G01 X-70.63187 Y129.71189
G01 X-70.62390 Y129.73815
G01 X-70.61097 Y129.76236
G01 X-70.59354 Y129.78357
G01 X-70.57233 Y129.80099
G01 X-70.54813 Y129.81392
G01 X-70.52186 Y129.82190
G01 X-70.49456 Y129.82459
G01 X-54.53856 Y129.82459
G01 X-54.51125 Y129.82190
G01 X-54.48499 Y129.81392
G01 X-54.46078 Y129.80099
G01 X-54.43958 Y129.78357
G01 X-54.42215 Y129.76236
G01 X-54.40922 Y129.73815
G01 X-54.40125 Y129.71189
G01 X-54.39855 Y129.68458
G01 X-54.39855 Y123.88858
G04 P0 ( dwell for no time -- G64 should not smooth over this point )
G00 Z5.00000 ( retract )

G00 X-56.82799 Y125.97758 ( rapid move to begin. )
G01 F250.00000
( Mill infeed pass 1/1 )
G01 Z-0.20000
G04 P0 ( dwell for no time -- G64 should not smooth over this point )
G01 F500.00000
G01 X-56.82799 Y125.97758
G01 X-56.82857 Y125.97042
G01 X-56.83027 Y125.96346
G01 X-56.89736 Y125.76221
G01 X-56.90170 Y125.75292
G01 X-56.90807 Y125.74487
G01 X-57.50342 Y125.14952
G01 X-57.52082 Y125.12831
G01 X-57.53378 Y125.10410
G01 X-57.54173 Y125.07784
G01 X-57.54442 Y125.05053
G01 X-57.54173 Y125.02323
G01 X-57.53378 Y124.99696
G01 X-57.52082 Y124.97276
G01 X-57.50342 Y124.95155
G01 X-57.48222 Y124.93412
G01 X-57.45801 Y124.92120
G01 X-57.43175 Y124.91322
G01 X-57.40442 Y124.91053
G01 X-56.84485 Y124.91053
G01 X-56.83617 Y124.90966
G01 X-56.83441 Y124.90916
G01 X-56.83281 Y124.90829
G01 X-56.83139 Y124.90712
G01 X-56.83022 Y124.90570
G01 X-56.82936 Y124.90410
G01 X-56.82885 Y124.90235
G01 X-56.82865 Y124.90052
G01 X-56.82885 Y124.89872
G01 X-56.82936 Y124.89696
G01 X-56.83022 Y124.89536
G01 X-56.83139 Y124.89394
G01 X-56.83281 Y124.89277
G01 X-56.83441 Y124.89191
G01 X-56.83617 Y124.89140
G01 X-56.84485 Y124.89054
G01 X-57.75969 Y124.89054
G01 X-57.76837 Y124.89140
G01 X-57.77012 Y124.89191
G01 X-57.77172 Y124.89277
G01 X-57.77315 Y124.89394
G01 X-57.77432 Y124.89536
G01 X-57.77518 Y124.89696
G01 X-57.77569 Y124.89872
G01 X-57.77589 Y124.90052
G01 X-57.77569 Y124.90235
G01 X-57.77518 Y124.90410
G01 X-57.77432 Y124.90570
G01 X-57.76875 Y124.91246
G01 X-56.94153 Y125.73971
G01 X-56.92141 Y125.76511
G01 X-56.90769 Y125.79445
G01 X-56.85517 Y125.95203
G01 X-56.84978 Y125.97387
G01 X-56.84798 Y125.99630
G01 X-56.84798 Y126.07941
G01 X-56.85174 Y126.11157
G01 X-56.86276 Y126.14200
G01 X-56.90746 Y126.23143
G01 X-56.91912 Y126.25068
G01 X-56.93370 Y126.26783
G01 X-56.97069 Y126.30481
G01 X-56.98783 Y126.31939
G01 X-57.00708 Y126.33105
G01 X-57.09649 Y126.37575
G01 X-57.12692 Y126.38678
G01 X-57.15910 Y126.39053
G01 X-57.44541 Y126.39053
G01 X-57.47759 Y126.38678
G01 X-57.50802 Y126.37575
G01 X-57.59743 Y126.33105
G01 X-57.61668 Y126.31939
G01 X-57.63383 Y126.30481
G01 X-57.68318 Y126.25548
G01 X-57.68994 Y126.24992
G01 X-57.69154 Y126.24906
G01 X-57.69329 Y126.24855
G01 X-57.69509 Y126.24835
G01 X-57.69692 Y126.24855
G01 X-57.69867 Y126.24906
G01 X-57.70027 Y126.24992
G01 X-57.70170 Y126.25109
G01 X-57.70287 Y126.25251
G01 X-57.70373 Y126.25411
G01 X-57.70424 Y126.25586
G01 X-57.70444 Y126.25767
G01 X-57.70424 Y126.25950
G01 X-57.70373 Y126.26125
G01 X-57.70287 Y126.26285
G01 X-57.69730 Y126.26960
G01 X-57.63474 Y126.33219
G01 X-57.62926 Y126.33684
G01 X-57.62311 Y126.34057
G01 X-57.49258 Y126.40585
G01 X-57.48290 Y126.40933
G01 X-57.47272 Y126.41052
G01 X-57.13180 Y126.41052
G01 X-57.12161 Y126.40933
G01 X-57.11193 Y126.40585
G01 X-56.98140 Y126.34057
G01 X-56.97526 Y126.33684
G01 X-56.96977 Y126.33219
G01 X-56.90632 Y126.26874
G01 X-56.90167 Y126.26325
G01 X-56.89794 Y126.25711
G01 X-56.83266 Y126.12655
G01 X-56.82918 Y126.11687
G01 X-56.82799 Y126.10669
G01 X-56.82799 Y125.97758
