( pcb2gcode 2.4.0 )
( Software-independent Gcode )

G94 ( Millimeters per minute feed rate. )
G21 ( Units == Millimeters. )

G90 ( Absolute coordinates. )
G00 S20000 ( RPM spindle speed. )
G64 P0.05000 ( set maximum deviation from commanded toolpath )
G01 F500.00000 ( Feedrate. )


G00 Z30.00000 (Retract to tool change height)
T0
M5      (Spindle stop.)
G04 P1.00000 (Wait for spindle to stop)
(MSG, Change tool bit to mill diameter -0.28000mm)
M6      (Tool change.)
M0      (Temporary machine stop.)
M3 ( Spindle on clockwise. )
G04 P1.00000 (Wait for spindle to get up to speed)
G04 P0 ( dwell for no time -- G64 should not smooth over this point )
G00 Z2.00000 ( retract )

G00 X-3.21258 Y148.46557 ( rapid move to begin. )
G01 F250.00000
( Mill infeed pass 1/1 )
G01 Z-0.20000
G04 P0 ( dwell for no time -- G64 should not smooth over this point )
G01 F500.00000
G01 X-3.21258 Y148.46557
G01 X-3.21278 Y148.46377
G01 X-3.21329 Y148.46202
G01 X-3.21415 Y148.46042
G01 X-3.21532 Y148.45899
G01 X-3.21674 Y148.45783
G01 X-3.21834 Y148.45696
G01 X-3.22010 Y148.45645
G01 X-3.22878 Y148.45559
G01 X-4.71504 Y148.45559
G01 X-4.72372 Y148.45645
G01 X-4.72548 Y148.45696
G01 X-4.72708 Y148.45783
G01 X-4.72850 Y148.45899
G01 X-4.72967 Y148.46042
G01 X-4.73053 Y148.46202
G01 X-4.73104 Y148.46377
G01 X-4.73124 Y148.46557
G01 X-4.73104 Y148.46740
G01 X-4.73053 Y148.46915
G01 X-4.73000 Y148.47015
G01 X-4.71971 Y148.49478
G01 X-4.71430 Y148.52089
G01 X-4.71392 Y148.54759
G01 X-4.71862 Y148.57385
G01 X-4.72446 Y148.58909
G01 X-4.73071 Y148.60639
G01 X-4.73190 Y148.61660
G01 X-4.73190 Y148.88604
G01 X-4.73071 Y148.89623
G01 X-4.72723 Y148.90591
G01 X-4.66195 Y149.03649
G01 X-4.65822 Y149.04264
G01 X-4.65357 Y149.04812
G01 X-4.59010 Y149.11157
G01 X-4.58461 Y149.11619
G01 X-4.57846 Y149.11993
G01 X-4.44793 Y149.18521
G01 X-4.43825 Y149.18869
G01 X-4.42807 Y149.18988
G01 X-4.01572 Y149.18988
G01 X-4.00554 Y149.18869
G01 X-3.99586 Y149.18521
G01 X-3.86533 Y149.11993
G01 X-3.85918 Y149.11619
G01 X-3.85370 Y149.11157
G01 X-3.79025 Y149.04812
G01 X-3.78560 Y149.04264
G01 X-3.78187 Y149.03649
G01 X-3.71659 Y148.90591
G01 X-3.71311 Y148.89623
G01 X-3.71192 Y148.88604
G01 X-3.71192 Y148.61559
G01 X-3.70922 Y148.58828
G01 X-3.70125 Y148.56202
G01 X-3.68832 Y148.53781
G01 X-3.67089 Y148.51660
G01 X-3.64969 Y148.49918
G01 X-3.62548 Y148.48625
G01 X-3.59922 Y148.47827
G01 X-3.57191 Y148.47558
G01 X-3.22878 Y148.47558
G01 X-3.22010 Y148.47472
G01 X-3.21834 Y148.47421
G01 X-3.21674 Y148.47335
G01 X-3.21532 Y148.47218
G01 X-3.21415 Y148.47075
G01 X-3.21329 Y148.46915
G01 X-3.21278 Y148.46740
G01 X-3.21258 Y148.46557
G04 P0 ( dwell for no time -- G64 should not smooth over this point )
G00 Z2.00000 ( retract )

G00 X-3.73191 Y148.64388 ( rapid move to begin. )
G01 F250.00000
( Mill infeed pass 1/1 )
G01 Z-0.20000
G04 P0 ( dwell for no time -- G64 should not smooth over this point )
G01 F500.00000
G01 X-3.73191 Y148.64388
G01 X-3.73191 Y148.85877
G01 X-3.73566 Y148.89092
G01 X-3.74669 Y148.92135
G01 X-3.79139 Y149.01078
G01 X-3.80305 Y149.03006
G01 X-3.81763 Y149.04721
G01 X-3.85461 Y149.08422
G01 X-3.87176 Y149.09874
G01 X-3.89099 Y149.11040
G01 X-3.98042 Y149.15511
G01 X-4.01085 Y149.16613
G01 X-4.04303 Y149.16992
G01 X-4.40076 Y149.16992
G01 X-4.43295 Y149.16613
G01 X-4.46337 Y149.15511
G01 X-4.55281 Y149.11040
G01 X-4.57204 Y149.09877
G01 X-4.58916 Y149.08422
G01 X-4.62616 Y149.04721
G01 X-4.64077 Y149.03006
G01 X-4.65243 Y149.01078
G01 X-4.69713 Y148.92135
G01 X-4.70815 Y148.89092
G01 X-4.71191 Y148.85877
G01 X-4.71191 Y148.64388
G01 X-4.70815 Y148.61170
G01 X-4.69713 Y148.58127
G01 X-4.68298 Y148.55297
G01 X-4.66939 Y148.53108
G01 X-4.65197 Y148.51203
G01 X-4.63137 Y148.49648
G01 X-4.60828 Y148.48500
G01 X-4.58347 Y148.47797
G01 X-4.55776 Y148.47558
G01 X-3.88606 Y148.47558
G01 X-3.86035 Y148.47797
G01 X-3.83554 Y148.48500
G01 X-3.81245 Y148.49648
G01 X-3.79185 Y148.51203
G01 X-3.77442 Y148.53108
G01 X-3.76084 Y148.55297
G01 X-3.74669 Y148.58127
G01 X-3.73566 Y148.61170
G01 X-3.73191 Y148.64388
G04 P0 ( dwell for no time -- G64 should not smooth over this point )
G00 Z2.00000 ( retract )

G00 X-3.71192 Y150.04515 ( rapid move to begin. )
G01 F250.00000
( Mill infeed pass 1/1 )
G01 Z-0.20000
G04 P0 ( dwell for no time -- G64 should not smooth over this point )
G01 F500.00000
G01 X-3.71192 Y150.04515
G01 X-3.71192 Y150.24319
G01 X-3.71311 Y150.25338
G01 X-3.71659 Y150.26305
G01 X-3.73640 Y150.30263
G01 X-3.74603 Y150.32765
G01 X-3.75073 Y150.35404
G01 X-3.75029 Y150.38086
G01 X-3.74476 Y150.40710
G01 X-3.73434 Y150.43179
G01 X-3.71938 Y150.45406
G01 X-3.71415 Y150.46044
G01 X-3.71329 Y150.46204
G01 X-3.71278 Y150.46379
G01 X-3.71258 Y150.46559
G01 X-3.71278 Y150.46742
G01 X-3.71329 Y150.46918
G01 X-3.71415 Y150.47078
G01 X-3.71532 Y150.47220
G01 X-3.71674 Y150.47337
G01 X-3.71834 Y150.47423
G01 X-3.72009 Y150.47474
G01 X-3.72878 Y150.47560
G01 X-4.71504 Y150.47560
G01 X-4.72372 Y150.47474
G01 X-4.72548 Y150.47423
G01 X-4.72708 Y150.47337
G01 X-4.72850 Y150.47220
G01 X-4.72967 Y150.47078
G01 X-4.73053 Y150.46918
G01 X-4.73104 Y150.46742
G01 X-4.73124 Y150.46559
G01 X-4.73104 Y150.46379
G01 X-4.73053 Y150.46204
G01 X-4.72967 Y150.46044
G01 X-4.72850 Y150.45902
G01 X-4.72708 Y150.45785
G01 X-4.72548 Y150.45698
G01 X-4.72372 Y150.45648
G01 X-4.71504 Y150.45561
G01 X-3.92690 Y150.45561
G01 X-3.89960 Y150.45292
G01 X-3.87333 Y150.44494
G01 X-3.84910 Y150.43199
G01 X-3.82789 Y150.41459
G01 X-3.81760 Y150.40430
G01 X-3.80305 Y150.38716
G01 X-3.79139 Y150.36793
G01 X-3.74669 Y150.27850
G01 X-3.73566 Y150.24807
G01 X-3.73191 Y150.21589
G01 X-3.73191 Y150.07243
G01 X-3.73566 Y150.04027
G01 X-3.74669 Y150.00984
G01 X-3.77991 Y149.94335
G01 X-3.79612 Y149.91812
G01 X-3.81730 Y149.89694
G01 X-3.84252 Y149.88073
G01 X-3.90899 Y149.84754
G01 X-3.93942 Y149.83649
G01 X-3.97161 Y149.83273
G01 X-4.71504 Y149.83273
G01 X-4.72372 Y149.83186
G01 X-4.72548 Y149.83136
G01 X-4.72708 Y149.83049
G01 X-4.72850 Y149.82932
G01 X-4.72967 Y149.82793
G01 X-4.73053 Y149.82630
G01 X-4.73104 Y149.82455
G01 X-4.73124 Y149.82272
G01 X-4.73104 Y149.82092
G01 X-4.73053 Y149.81916
G01 X-4.72967 Y149.81756
G01 X-4.72850 Y149.81614
G01 X-4.72708 Y149.81497
G01 X-4.72548 Y149.81411
G01 X-4.72372 Y149.81360
G01 X-4.71504 Y149.81274
G01 X-3.94430 Y149.81274
G01 X-3.93411 Y149.81393
G01 X-3.92444 Y149.81744
G01 X-3.79558 Y149.88185
G01 X-3.78756 Y149.88701
G01 X-3.78619 Y149.88840
G01 X-3.78103 Y149.89641
G01 X-3.71659 Y150.02529
G01 X-3.71311 Y150.03496
G01 X-3.71192 Y150.04515
G04 P0 ( dwell for no time -- G64 should not smooth over this point )
G00 Z2.00000 ( retract )

G00 X-3.71260 Y151.39353 ( rapid move to begin. )
G01 F250.00000
( Mill infeed pass 1/1 )
G01 Z-0.20000
G04 P0 ( dwell for no time -- G64 should not smooth over this point )
G01 F500.00000
G01 X-3.71260 Y151.39353
G01 X-3.71265 Y151.39534
G01 X-3.71306 Y151.39714
G01 X-3.71382 Y151.39879
G01 X-3.71486 Y151.40029
G01 X-3.71618 Y151.40153
G01 X-3.71773 Y151.40252
G01 X-3.71946 Y151.40318
G01 X-3.72126 Y151.40349
G01 X-3.72307 Y151.40344
G01 X-3.72487 Y151.40303
G01 X-3.72652 Y151.40227
G01 X-3.72802 Y151.40123
G01 X-3.72926 Y151.39991
G01 X-3.73394 Y151.39249
G01 X-3.77991 Y151.30049
G01 X-3.79612 Y151.27527
G01 X-3.81730 Y151.25409
G01 X-3.84252 Y151.23788
G01 X-3.90899 Y151.20466
G01 X-3.93942 Y151.19363
G01 X-3.97161 Y151.18988
G01 X-5.21504 Y151.18988
G01 X-5.22372 Y151.18901
G01 X-5.22548 Y151.18850
G01 X-5.22708 Y151.18764
G01 X-5.22850 Y151.18647
G01 X-5.22967 Y151.18505
G01 X-5.23053 Y151.18345
G01 X-5.23104 Y151.18170
G01 X-5.23124 Y151.17987
G01 X-5.23104 Y151.17806
G01 X-5.23053 Y151.17631
G01 X-5.22967 Y151.17471
G01 X-5.22850 Y151.17329
G01 X-5.22708 Y151.17212
G01 X-5.22548 Y151.17126
G01 X-5.22372 Y151.17075
G01 X-5.21504 Y151.16989
G01 X-3.94430 Y151.16989
G01 X-3.93411 Y151.17108
G01 X-3.92444 Y151.17456
G01 X-3.79558 Y151.23900
G01 X-3.78756 Y151.24416
G01 X-3.78619 Y151.24555
G01 X-3.78103 Y151.25355
G01 X-3.71603 Y151.38355
G01 X-3.71291 Y151.39173
G01 X-3.71260 Y151.39353
G04 P0 ( dwell for no time -- G64 should not smooth over this point )
G00 Z2.00000 ( retract )

G00 X-3.71260 Y152.17921 ( rapid move to begin. )
G01 F250.00000
( Mill infeed pass 1/1 )
G01 Z-0.20000
G04 P0 ( dwell for no time -- G64 should not smooth over this point )
G01 F500.00000
G01 X-3.71260 Y152.17921
G01 X-3.71265 Y152.18103
G01 X-3.71306 Y152.18284
G01 X-3.71382 Y152.18449
G01 X-3.71486 Y152.18599
G01 X-3.71618 Y152.18723
G01 X-3.71773 Y152.18822
G01 X-3.71946 Y152.18886
G01 X-3.72124 Y152.18919
G01 X-3.72307 Y152.18914
G01 X-3.72487 Y152.18873
G01 X-3.72652 Y152.18797
G01 X-3.72802 Y152.18693
G01 X-3.72926 Y152.18561
G01 X-3.73394 Y152.17819
G01 X-3.77991 Y152.08622
G01 X-3.79612 Y152.06099
G01 X-3.81730 Y152.03981
G01 X-3.84252 Y152.02361
G01 X-3.90899 Y151.99038
G01 X-3.93942 Y151.97936
G01 X-3.97161 Y151.97560
G01 X-5.21504 Y151.97560
G01 X-5.22372 Y151.97474
G01 X-5.22548 Y151.97423
G01 X-5.22708 Y151.97336
G01 X-5.22850 Y151.97220
G01 X-5.22967 Y151.97077
G01 X-5.23053 Y151.96917
G01 X-5.23104 Y151.96742
G01 X-5.23124 Y151.96559
G01 X-5.23104 Y151.96379
G01 X-5.23053 Y151.96204
G01 X-5.22967 Y151.96044
G01 X-5.22850 Y151.95901
G01 X-5.22708 Y151.95784
G01 X-5.22548 Y151.95698
G01 X-5.22372 Y151.95647
G01 X-5.21504 Y151.95561
G01 X-3.94430 Y151.95561
G01 X-3.93411 Y151.95680
G01 X-3.92444 Y151.96028
G01 X-3.79558 Y152.02472
G01 X-3.78756 Y152.02988
G01 X-3.78619 Y152.03125
G01 X-3.78103 Y152.03928
G01 X-3.71603 Y152.16925
G01 X-3.71293 Y152.17743
G01 X-3.71260 Y152.17921
G04 P0 ( dwell for no time -- G64 should not smooth over this point )
G00 Z2.00000 ( retract )

G00 X-3.71192 Y152.97372 ( rapid move to begin. )
G01 F250.00000
( Mill infeed pass 1/1 )
G01 Z-0.20000
G04 P0 ( dwell for no time -- G64 should not smooth over this point )
G01 F500.00000
G01 X-3.71192 Y152.97372
G01 X-3.71192 Y153.24319
G01 X-3.71311 Y153.25337
G01 X-3.71931 Y153.27069
G01 X-3.72520 Y153.28591
G01 X-3.72990 Y153.31217
G01 X-3.72952 Y153.33887
G01 X-3.72411 Y153.36498
G01 X-3.71382 Y153.38962
G01 X-3.71329 Y153.39061
G01 X-3.71278 Y153.39236
G01 X-3.71258 Y153.39416
G01 X-3.71278 Y153.39599
G01 X-3.71329 Y153.39774
G01 X-3.71415 Y153.39935
G01 X-3.71532 Y153.40077
G01 X-3.71674 Y153.40194
G01 X-3.71834 Y153.40280
G01 X-3.72009 Y153.40331
G01 X-3.72878 Y153.40417
G01 X-5.21504 Y153.40417
G01 X-5.22372 Y153.40331
G01 X-5.22548 Y153.40280
G01 X-5.22708 Y153.40194
G01 X-5.22850 Y153.40077
G01 X-5.22967 Y153.39935
G01 X-5.23053 Y153.39774
G01 X-5.23104 Y153.39599
G01 X-5.23124 Y153.39416
G01 X-5.23104 Y153.39236
G01 X-5.23053 Y153.39061
G01 X-5.22967 Y153.38901
G01 X-5.22850 Y153.38759
G01 X-5.22708 Y153.38642
G01 X-5.22548 Y153.38555
G01 X-5.22372 Y153.38504
G01 X-5.21504 Y153.38418
G01 X-4.87191 Y153.38418
G01 X-4.84460 Y153.38149
G01 X-4.81834 Y153.37351
G01 X-4.79413 Y153.36058
G01 X-4.77292 Y153.34316
G01 X-4.75550 Y153.32195
G01 X-4.74257 Y153.29775
G01 X-4.73460 Y153.27148
G01 X-4.73190 Y153.24418
G01 X-4.73190 Y152.97372
G01 X-4.73071 Y152.96353
G01 X-4.72723 Y152.95385
G01 X-4.66195 Y152.82332
G01 X-4.65822 Y152.81718
G01 X-4.65357 Y152.81169
G01 X-4.59010 Y152.74822
G01 X-4.58461 Y152.74357
G01 X-4.57846 Y152.73983
G01 X-4.44793 Y152.67456
G01 X-4.43825 Y152.67108
G01 X-4.42807 Y152.66988
G01 X-4.01572 Y152.66988
G01 X-4.00554 Y152.67108
G01 X-3.99586 Y152.67456
G01 X-3.86533 Y152.73983
G01 X-3.85918 Y152.74357
G01 X-3.85370 Y152.74822
G01 X-3.79025 Y152.81169
G01 X-3.78560 Y152.81718
G01 X-3.78187 Y152.82332
G01 X-3.71659 Y152.95385
G01 X-3.71311 Y152.96353
G01 X-3.71192 Y152.97372
G04 P0 ( dwell for no time -- G64 should not smooth over this point )
G00 Z2.00000 ( retract )

G00 X-3.73191 Y153.00102 ( rapid move to begin. )
G01 F250.00000
( Mill infeed pass 1/1 )
G01 Z-0.20000
G04 P0 ( dwell for no time -- G64 should not smooth over this point )
G01 F500.00000
G01 X-3.73191 Y153.00102
G01 X-3.73191 Y153.21591
G01 X-3.73566 Y153.24806
G01 X-3.74669 Y153.27849
G01 X-3.76084 Y153.30679
G01 X-3.77442 Y153.32868
G01 X-3.79185 Y153.34773
G01 X-3.81245 Y153.36328
G01 X-3.83554 Y153.37476
G01 X-3.86035 Y153.38179
G01 X-3.88606 Y153.38418
G01 X-4.55776 Y153.38418
G01 X-4.58347 Y153.38179
G01 X-4.60828 Y153.37476
G01 X-4.63137 Y153.36328
G01 X-4.65197 Y153.34773
G01 X-4.66939 Y153.32868
G01 X-4.68298 Y153.30679
G01 X-4.69713 Y153.27849
G01 X-4.70815 Y153.24806
G01 X-4.71191 Y153.21591
G01 X-4.71191 Y153.00102
G01 X-4.70815 Y152.96884
G01 X-4.69713 Y152.93841
G01 X-4.65243 Y152.84900
G01 X-4.64077 Y152.82975
G01 X-4.62619 Y152.81261
G01 X-4.58918 Y152.77560
G01 X-4.57204 Y152.76102
G01 X-4.55278 Y152.74936
G01 X-4.46337 Y152.70466
G01 X-4.43295 Y152.69363
G01 X-4.40076 Y152.68987
G01 X-4.04303 Y152.68987
G01 X-4.01085 Y152.69363
G01 X-3.98042 Y152.70466
G01 X-3.89101 Y152.74936
G01 X-3.87176 Y152.76102
G01 X-3.85461 Y152.77560
G01 X-3.81760 Y152.81261
G01 X-3.80305 Y152.82975
G01 X-3.79139 Y152.84898
G01 X-3.74669 Y152.93841
G01 X-3.73566 Y152.96884
G01 X-3.73191 Y153.00102
G04 P0 ( dwell for no time -- G64 should not smooth over this point )
G00 Z2.00000 ( retract )

G00 X-3.71192 Y154.33086 ( rapid move to begin. )
G01 F250.00000
( Mill infeed pass 1/1 )
G01 Z-0.20000
G04 P0 ( dwell for no time -- G64 should not smooth over this point )
G01 F500.00000
G01 X-3.71192 Y154.33086
G01 X-3.71192 Y154.52891
G01 X-3.71311 Y154.53909
G01 X-3.71659 Y154.54877
G01 X-3.78187 Y154.67930
G01 X-3.78560 Y154.68545
G01 X-3.79025 Y154.69094
G01 X-3.85370 Y154.75441
G01 X-3.85918 Y154.75906
G01 X-3.86533 Y154.76279
G01 X-3.99586 Y154.82807
G01 X-4.00554 Y154.83155
G01 X-4.01572 Y154.83274
G01 X-4.42807 Y154.83274
G01 X-4.43825 Y154.83155
G01 X-4.44793 Y154.82807
G01 X-4.57846 Y154.76279
G01 X-4.58461 Y154.75906
G01 X-4.59010 Y154.75441
G01 X-4.65357 Y154.69094
G01 X-4.65822 Y154.68545
G01 X-4.66195 Y154.67930
G01 X-4.72723 Y154.54877
G01 X-4.73071 Y154.53909
G01 X-4.73190 Y154.52891
G01 X-4.73190 Y154.33086
G01 X-4.73071 Y154.32068
G01 X-4.72723 Y154.31100
G01 X-4.66195 Y154.18045
G01 X-4.65822 Y154.17430
G01 X-4.65357 Y154.16881
G01 X-4.59010 Y154.10536
G01 X-4.58461 Y154.10072
G01 X-4.57846 Y154.09698
G01 X-4.44793 Y154.03170
G01 X-4.43825 Y154.02822
G01 X-4.42807 Y154.02703
G01 X-4.01572 Y154.02703
G01 X-4.00554 Y154.02822
G01 X-3.99586 Y154.03170
G01 X-3.86533 Y154.09698
G01 X-3.85918 Y154.10072
G01 X-3.85370 Y154.10536
G01 X-3.79025 Y154.16881
G01 X-3.78560 Y154.17430
G01 X-3.78187 Y154.18045
G01 X-3.71659 Y154.31100
G01 X-3.71311 Y154.32068
G01 X-3.71192 Y154.33086
G04 P0 ( dwell for no time -- G64 should not smooth over this point )
G00 Z2.00000 ( retract )

G00 X-3.73191 Y154.35814 ( rapid move to begin. )
G01 F250.00000
( Mill infeed pass 1/1 )
G01 Z-0.20000
G04 P0 ( dwell for no time -- G64 should not smooth over this point )
G01 F500.00000
G01 X-3.73191 Y154.35814
G01 X-3.73191 Y154.50160
G01 X-3.73566 Y154.53379
G01 X-3.74669 Y154.56421
G01 X-3.79139 Y154.65365
G01 X-3.80305 Y154.67288
G01 X-3.81760 Y154.69002
G01 X-3.85461 Y154.72703
G01 X-3.87176 Y154.74161
G01 X-3.89101 Y154.75327
G01 X-3.98042 Y154.79797
G01 X-4.01085 Y154.80899
G01 X-4.04303 Y154.81275
G01 X-4.40076 Y154.81275
G01 X-4.43295 Y154.80899
G01 X-4.46337 Y154.79797
G01 X-4.55278 Y154.75327
G01 X-4.57204 Y154.74161
G01 X-4.58918 Y154.72703
G01 X-4.62619 Y154.69002
G01 X-4.64077 Y154.67288
G01 X-4.65243 Y154.65362
G01 X-4.69713 Y154.56421
G01 X-4.70815 Y154.53379
G01 X-4.71191 Y154.50160
G01 X-4.71191 Y154.35814
G01 X-4.70815 Y154.32599
G01 X-4.69713 Y154.29556
G01 X-4.65243 Y154.20613
G01 X-4.64077 Y154.18687
G01 X-4.62619 Y154.16973
G01 X-4.58918 Y154.13272
G01 X-4.57204 Y154.11817
G01 X-4.55281 Y154.10651
G01 X-4.46337 Y154.06180
G01 X-4.43295 Y154.05078
G01 X-4.40076 Y154.04702
G01 X-4.04303 Y154.04702
G01 X-4.01085 Y154.05078
G01 X-3.98042 Y154.06180
G01 X-3.89101 Y154.10651
G01 X-3.87176 Y154.11817
G01 X-3.85461 Y154.13274
G01 X-3.81763 Y154.16973
G01 X-3.80305 Y154.18687
G01 X-3.79139 Y154.20613
G01 X-3.74669 Y154.29556
G01 X-3.73566 Y154.32599
G01 X-3.73191 Y154.35814
G04 P0 ( dwell for no time -- G64 should not smooth over this point )
G00 Z2.00000 ( retract )

G00 X-3.71255 Y155.60887 ( rapid move to begin. )
G01 F250.00000
( Mill infeed pass 1/1 )
G01 Z-0.20000
G04 P0 ( dwell for no time -- G64 should not smooth over this point )
G01 F500.00000
G01 X-3.71255 Y155.60887
G01 X-3.71265 Y155.60709
G01 X-3.71308 Y155.60534
G01 X-3.71382 Y155.60374
G01 X-3.71486 Y155.60229
G01 X-3.71618 Y155.60104
G01 X-3.71768 Y155.60010
G01 X-3.72561 Y155.59700
G01 X-4.71255 Y155.31501
G01 X-4.72113 Y155.31346
G01 X-4.72296 Y155.31349
G01 X-4.72477 Y155.31387
G01 X-4.72644 Y155.31461
G01 X-4.72794 Y155.31565
G01 X-4.72921 Y155.31694
G01 X-4.73020 Y155.31849
G01 X-4.73086 Y155.32019
G01 X-4.73119 Y155.32197
G01 X-4.73117 Y155.32380
G01 X-4.73079 Y155.32561
G01 X-4.73005 Y155.32728
G01 X-4.72901 Y155.32878
G01 X-4.72771 Y155.33005
G01 X-4.72616 Y155.33104
G01 X-4.71803 Y155.33424
G01 X-4.14656 Y155.49754
G01 X-4.12169 Y155.50727
G01 X-4.09914 Y155.52157
G01 X-4.07971 Y155.53988
G01 X-4.06411 Y155.56155
G01 X-4.05291 Y155.58578
G01 X-4.04651 Y155.61169
G01 X-4.04514 Y155.63836
G01 X-4.04887 Y155.66480
G01 X-4.05753 Y155.69004
G01 X-4.07084 Y155.71318
G01 X-4.08832 Y155.73338
G01 X-4.10927 Y155.74989
G01 X-4.13302 Y155.76213
G01 X-4.43345 Y155.88230
G01 X-4.44128 Y155.88639
G01 X-4.44272 Y155.88753
G01 X-4.44389 Y155.88895
G01 X-4.44478 Y155.89058
G01 X-4.44532 Y155.89233
G01 X-4.44549 Y155.89416
G01 X-4.44532 Y155.89601
G01 X-4.44478 Y155.89777
G01 X-4.44389 Y155.89939
G01 X-4.44272 Y155.90081
G01 X-4.44128 Y155.90196
G01 X-4.43345 Y155.90605
G01 X-4.13302 Y156.02621
G01 X-4.10927 Y156.03846
G01 X-4.08832 Y156.05497
G01 X-4.07084 Y156.07516
G01 X-4.05753 Y156.09830
G01 X-4.04887 Y156.12355
G01 X-4.04514 Y156.14999
G01 X-4.04651 Y156.17666
G01 X-4.05291 Y156.20257
G01 X-4.06411 Y156.22680
G01 X-4.07971 Y156.24846
G01 X-4.09914 Y156.26678
G01 X-4.12169 Y156.28108
G01 X-4.14656 Y156.29081
G01 X-4.71803 Y156.45410
G01 X-4.72616 Y156.45730
G01 X-4.72771 Y156.45829
G01 X-4.72901 Y156.45956
G01 X-4.73005 Y156.46106
G01 X-4.73079 Y156.46274
G01 X-4.73117 Y156.46454
G01 X-4.73119 Y156.46637
G01 X-4.73086 Y156.46815
G01 X-4.73020 Y156.46985
G01 X-4.72921 Y156.47140
G01 X-4.72794 Y156.47269
G01 X-4.72644 Y156.47374
G01 X-4.72477 Y156.47447
G01 X-4.72296 Y156.47485
G01 X-4.72113 Y156.47488
G01 X-4.71255 Y156.47333
G01 X-3.72561 Y156.19134
G01 X-3.71768 Y156.18824
G01 X-3.71618 Y156.18730
G01 X-3.71486 Y156.18606
G01 X-3.71382 Y156.18461
G01 X-3.71308 Y156.18301
G01 X-3.71265 Y156.18125
G01 X-3.71255 Y156.17948
G01 X-3.71280 Y156.17772
G01 X-3.71339 Y156.17602
G01 X-3.71428 Y156.17447
G01 X-3.71545 Y156.17313
G01 X-3.71684 Y156.17203
G01 X-3.72441 Y156.16812
G01 X-4.08430 Y156.02416
G01 X-4.10892 Y156.01135
G01 X-4.13051 Y155.99396
G01 X-4.14824 Y155.97267
G01 X-4.16144 Y155.94826
G01 X-4.16957 Y155.92177
G01 X-4.17232 Y155.89416
G01 X-4.16957 Y155.86657
G01 X-4.16144 Y155.84008
G01 X-4.14824 Y155.81567
G01 X-4.13051 Y155.79439
G01 X-4.10892 Y155.77699
G01 X-4.08430 Y155.76419
G01 X-3.72441 Y155.62022
G01 X-3.71684 Y155.61631
G01 X-3.71545 Y155.61522
G01 X-3.71428 Y155.61387
G01 X-3.71339 Y155.61232
G01 X-3.71280 Y155.61062
G01 X-3.71255 Y155.60887
G04 P0 ( dwell for no time -- G64 should not smooth over this point )
G00 Z2.00000 ( retract )

G00 X-3.71258 Y157.03701 ( rapid move to begin. )
G01 F250.00000
( Mill infeed pass 1/1 )
G01 Z-0.20000
G04 P0 ( dwell for no time -- G64 should not smooth over this point )
G01 F500.00000
G01 X-3.71258 Y157.03701
G01 X-3.71278 Y157.03520
G01 X-3.71329 Y157.03345
G01 X-3.71415 Y157.03185
G01 X-3.71532 Y157.03043
G01 X-3.71674 Y157.02926
G01 X-3.71834 Y157.02840
G01 X-3.72009 Y157.02789
G01 X-3.72878 Y157.02702
G01 X-4.71504 Y157.02702
G01 X-4.72372 Y157.02789
G01 X-4.72548 Y157.02840
G01 X-4.72708 Y157.02926
G01 X-4.72850 Y157.03043
G01 X-4.72967 Y157.03185
G01 X-4.73053 Y157.03345
G01 X-4.73104 Y157.03520
G01 X-4.73124 Y157.03701
G01 X-4.73104 Y157.03884
G01 X-4.73053 Y157.04059
G01 X-4.72967 Y157.04219
G01 X-4.72444 Y157.04856
G01 X-4.70947 Y157.07084
G01 X-4.69906 Y157.09553
G01 X-4.69352 Y157.12177
G01 X-4.69309 Y157.14856
G01 X-4.69779 Y157.17498
G01 X-4.70742 Y157.20000
G01 X-4.72723 Y157.23957
G01 X-4.73071 Y157.24925
G01 X-4.73190 Y157.25943
G01 X-4.73190 Y157.45748
G01 X-4.73071 Y157.46766
G01 X-4.72723 Y157.47734
G01 X-4.66279 Y157.60619
G01 X-4.65763 Y157.61422
G01 X-4.65626 Y157.61559
G01 X-4.64824 Y157.62075
G01 X-4.51936 Y157.68521
G01 X-4.50968 Y157.68869
G01 X-4.49949 Y157.68989
G01 X-3.72878 Y157.68989
G01 X-3.72009 Y157.68902
G01 X-3.71834 Y157.68852
G01 X-3.71674 Y157.68765
G01 X-3.71532 Y157.68648
G01 X-3.71415 Y157.68506
G01 X-3.71329 Y157.68346
G01 X-3.71278 Y157.68171
G01 X-3.71258 Y157.67988
G01 X-3.71278 Y157.67808
G01 X-3.71329 Y157.67632
G01 X-3.71415 Y157.67472
G01 X-3.71532 Y157.67330
G01 X-3.71674 Y157.67213
G01 X-3.71834 Y157.67127
G01 X-3.72009 Y157.67076
G01 X-3.72878 Y157.66990
G01 X-4.47219 Y157.66990
G01 X-4.50437 Y157.66614
G01 X-4.53480 Y157.65512
G01 X-4.60130 Y157.62187
G01 X-4.62652 Y157.60566
G01 X-4.64770 Y157.58448
G01 X-4.66391 Y157.55926
G01 X-4.69713 Y157.49278
G01 X-4.70815 Y157.46235
G01 X-4.71191 Y157.43017
G01 X-4.71191 Y157.28671
G01 X-4.70815 Y157.25456
G01 X-4.69713 Y157.22413
G01 X-4.65243 Y157.13469
G01 X-4.64077 Y157.11544
G01 X-4.62619 Y157.09830
G01 X-4.61590 Y157.08801
G01 X-4.59469 Y157.07061
G01 X-4.57049 Y157.05768
G01 X-4.54422 Y157.04971
G01 X-4.51692 Y157.04701
G01 X-3.72878 Y157.04701
G01 X-3.72009 Y157.04615
G01 X-3.71834 Y157.04564
G01 X-3.71674 Y157.04478
G01 X-3.71532 Y157.04361
G01 X-3.71415 Y157.04219
G01 X-3.71329 Y157.04059
G01 X-3.71278 Y157.03884
G01 X-3.71258 Y157.03701
G04 P0 ( dwell for no time -- G64 should not smooth over this point )
G00 Z2.00000 ( retract )

G00 X-6.12756 Y154.96559 ( rapid move to begin. )
G01 F250.00000
( Mill infeed pass 1/1 )
G01 Z-0.20000
G04 P0 ( dwell for no time -- G64 should not smooth over this point )
G01 F500.00000
G01 X-6.12756 Y154.96559
G01 X-6.12776 Y154.96378
G01 X-6.12827 Y154.96203
G01 X-6.12913 Y154.96043
G01 X-6.13030 Y154.95901
G01 X-6.13172 Y154.95784
G01 X-6.13332 Y154.95697
G01 X-6.13508 Y154.95647
G01 X-6.14376 Y154.95560
G01 X-7.63004 Y154.95560
G01 X-7.63873 Y154.95647
G01 X-7.64048 Y154.95697
G01 X-7.64208 Y154.95784
G01 X-7.64351 Y154.95901
G01 X-7.64467 Y154.96043
G01 X-7.64554 Y154.96203
G01 X-7.64605 Y154.96378
G01 X-7.64625 Y154.96559
G01 X-7.64605 Y154.96741
G01 X-7.64554 Y154.96917
G01 X-7.64467 Y154.97077
G01 X-7.64351 Y154.97219
G01 X-7.64208 Y154.97336
G01 X-7.64048 Y154.97422
G01 X-7.63873 Y154.97473
G01 X-7.63004 Y154.97559
G01 X-6.14376 Y154.97559
G01 X-6.13508 Y154.97473
G01 X-6.13332 Y154.97422
G01 X-6.13172 Y154.97336
G01 X-6.13030 Y154.97219
G01 X-6.12913 Y154.97077
G01 X-6.12827 Y154.96917
G01 X-6.12776 Y154.96741
G01 X-6.12756 Y154.96559
G04 P0 ( dwell for no time -- G64 should not smooth over this point )
G00 Z2.00000 ( retract )

G00 X-6.12756 Y155.67986 ( rapid move to begin. )
G01 F250.00000
( Mill infeed pass 1/1 )
G01 Z-0.20000
G04 P0 ( dwell for no time -- G64 should not smooth over this point )
G01 F500.00000
G01 X-6.12756 Y155.67986
G01 X-6.12776 Y155.67806
G01 X-6.12827 Y155.67630
G01 X-6.12913 Y155.67470
G01 X-6.13030 Y155.67328
G01 X-6.13172 Y155.67211
G01 X-6.13332 Y155.67125
G01 X-6.13508 Y155.67074
G01 X-6.14376 Y155.66988
G01 X-7.62984 Y155.66988
G01 X-7.63878 Y155.67077
G01 X-7.64056 Y155.67132
G01 X-7.64218 Y155.67224
G01 X-7.64361 Y155.67346
G01 X-7.64478 Y155.67493
G01 X-7.64561 Y155.67661
G01 X-7.64607 Y155.67841
G01 X-7.64620 Y155.68027
G01 X-7.64592 Y155.68212
G01 X-7.64528 Y155.68387
G01 X-7.64432 Y155.68547
G01 X-7.64305 Y155.68684
G01 X-7.63573 Y155.69205
G01 X-6.63228 Y156.26546
G01 X-6.60932 Y156.28184
G01 X-6.59012 Y156.30249
G01 X-6.57546 Y156.32657
G01 X-6.56591 Y156.35309
G01 X-6.56187 Y156.38100
G01 X-6.56350 Y156.40914
G01 X-6.57074 Y156.43640
G01 X-6.58328 Y156.46165
G01 X-6.60063 Y156.48387
G01 X-6.62209 Y156.50216
G01 X-6.64676 Y156.51577
G01 X-6.67368 Y156.52418
G01 X-6.70172 Y156.52703
G01 X-7.63004 Y156.52703
G01 X-7.63873 Y156.52789
G01 X-7.64048 Y156.52840
G01 X-7.64208 Y156.52926
G01 X-7.64351 Y156.53043
G01 X-7.64467 Y156.53185
G01 X-7.64554 Y156.53345
G01 X-7.64605 Y156.53520
G01 X-7.64625 Y156.53701
G01 X-7.64605 Y156.53884
G01 X-7.64554 Y156.54059
G01 X-7.64467 Y156.54219
G01 X-7.64351 Y156.54361
G01 X-7.64208 Y156.54478
G01 X-7.64048 Y156.54564
G01 X-7.63873 Y156.54615
G01 X-7.63004 Y156.54701
G01 X-6.14397 Y156.54701
G01 X-6.13502 Y156.54613
G01 X-6.13325 Y156.54557
G01 X-6.13162 Y156.54465
G01 X-6.13020 Y156.54343
G01 X-6.12903 Y156.54196
G01 X-6.12819 Y156.54028
G01 X-6.12773 Y156.53848
G01 X-6.12761 Y156.53663
G01 X-6.12789 Y156.53477
G01 X-6.12852 Y156.53302
G01 X-6.12949 Y156.53142
G01 X-6.13076 Y156.53005
G01 X-6.13807 Y156.52484
G01 X-7.14153 Y155.95144
G01 X-7.16449 Y155.93505
G01 X-7.18369 Y155.91440
G01 X-7.19834 Y155.89032
G01 X-7.20790 Y155.86381
G01 X-7.21193 Y155.83589
G01 X-7.21031 Y155.80775
G01 X-7.20307 Y155.78049
G01 X-7.19052 Y155.75525
G01 X-7.17317 Y155.73302
G01 X-7.15171 Y155.71473
G01 X-7.12705 Y155.70112
G01 X-7.10012 Y155.69271
G01 X-7.07208 Y155.68987
G01 X-6.14376 Y155.68987
G01 X-6.13508 Y155.68900
G01 X-6.13332 Y155.68849
G01 X-6.13172 Y155.68763
G01 X-6.13030 Y155.68646
G01 X-6.12913 Y155.68504
G01 X-6.12827 Y155.68344
G01 X-6.12776 Y155.68169
G01 X-6.12756 Y155.67986
G04 P0 ( dwell for no time -- G64 should not smooth over this point )
G00 Z2.00000 ( retract )

G00 X-16.26719 Y156.10856 ( rapid move to begin. )
G01 F250.00000
( Mill infeed pass 1/1 )
G01 Z-0.20000
G04 P0 ( dwell for no time -- G64 should not smooth over this point )
G01 F500.00000
G01 X-16.26719 Y156.10856
G01 X-16.26719 Y157.29482
G01 X-16.26805 Y157.30350
G01 X-16.26856 Y157.30526
G01 X-16.26942 Y157.30686
G01 X-16.27059 Y157.30828
G01 X-16.27201 Y157.30945
G01 X-16.27361 Y157.31031
G01 X-16.27537 Y157.31082
G01 X-16.27719 Y157.31102
G01 X-16.27900 Y157.31082
G01 X-16.28075 Y157.31031
G01 X-16.28235 Y157.30945
G01 X-16.28377 Y157.30828
G01 X-16.28494 Y157.30686
G01 X-16.28580 Y157.30526
G01 X-16.28631 Y157.30350
G01 X-16.28718 Y157.29482
G01 X-16.28718 Y156.88026
G01 X-16.28987 Y156.85296
G01 X-16.29784 Y156.82669
G01 X-16.31077 Y156.80249
G01 X-16.32820 Y156.78128
G01 X-16.34941 Y156.76385
G01 X-16.37361 Y156.75093
G01 X-16.39988 Y156.74295
G01 X-16.42718 Y156.74026
G01 X-16.72619 Y156.74026
G01 X-16.73637 Y156.73906
G01 X-16.74605 Y156.73558
G01 X-16.84803 Y156.68458
G01 X-16.85418 Y156.68085
G01 X-16.85967 Y156.67620
G01 X-16.90884 Y156.62702
G01 X-16.91349 Y156.62154
G01 X-16.91722 Y156.61539
G01 X-16.96820 Y156.51344
G01 X-16.97168 Y156.50376
G01 X-16.97287 Y156.49357
G01 X-16.97287 Y156.33838
G01 X-16.97168 Y156.32819
G01 X-16.96820 Y156.31854
G01 X-16.91722 Y156.21654
G01 X-16.91349 Y156.21039
G01 X-16.90884 Y156.20490
G01 X-16.85967 Y156.15573
G01 X-16.85418 Y156.15108
G01 X-16.84803 Y156.14735
G01 X-16.74603 Y156.09637
G01 X-16.73637 Y156.09289
G01 X-16.72619 Y156.09169
G01 X-16.28405 Y156.09169
G01 X-16.27537 Y156.09256
G01 X-16.27361 Y156.09307
G01 X-16.27201 Y156.09393
G01 X-16.27059 Y156.09510
G01 X-16.26942 Y156.09652
G01 X-16.26856 Y156.09812
G01 X-16.26805 Y156.09987
G01 X-16.26719 Y156.10856
G04 P0 ( dwell for no time -- G64 should not smooth over this point )
G00 Z2.00000 ( retract )

G00 X-16.28718 Y156.25169 ( rapid move to begin. )
G01 F250.00000
( Mill infeed pass 1/1 )
G01 Z-0.20000
G04 P0 ( dwell for no time -- G64 should not smooth over this point )
G01 F500.00000
G01 X-16.28718 Y156.25169
G01 X-16.28718 Y156.58026
G01 X-16.28987 Y156.60757
G01 X-16.29784 Y156.63383
G01 X-16.31077 Y156.65804
G01 X-16.32820 Y156.67925
G01 X-16.34941 Y156.69667
G01 X-16.37361 Y156.70960
G01 X-16.39988 Y156.71758
G01 X-16.42718 Y156.72027
G01 X-16.69888 Y156.72027
G01 X-16.73107 Y156.71651
G01 X-16.76150 Y156.70549
G01 X-16.82235 Y156.67506
G01 X-16.84161 Y156.66340
G01 X-16.85875 Y156.64882
G01 X-16.88146 Y156.62611
G01 X-16.89604 Y156.60897
G01 X-16.90770 Y156.58971
G01 X-16.93810 Y156.52888
G01 X-16.94913 Y156.49845
G01 X-16.95288 Y156.46629
G01 X-16.95288 Y156.36566
G01 X-16.94913 Y156.33350
G01 X-16.93810 Y156.30307
G01 X-16.90770 Y156.24221
G01 X-16.89604 Y156.22296
G01 X-16.88146 Y156.20582
G01 X-16.85875 Y156.18311
G01 X-16.84161 Y156.16853
G01 X-16.82235 Y156.15687
G01 X-16.76150 Y156.12647
G01 X-16.73107 Y156.11544
G01 X-16.69891 Y156.11168
G01 X-16.42718 Y156.11168
G01 X-16.39988 Y156.11438
G01 X-16.37361 Y156.12235
G01 X-16.34941 Y156.13528
G01 X-16.32820 Y156.15271
G01 X-16.31077 Y156.17391
G01 X-16.29784 Y156.19812
G01 X-16.28987 Y156.22438
G01 X-16.28718 Y156.25169
G04 P0 ( dwell for no time -- G64 should not smooth over this point )
G00 Z2.00000 ( retract )

G00 X-17.46718 Y156.10856 ( rapid move to begin. )
G01 F250.00000
( Mill infeed pass 1/1 )
G01 Z-0.20000
G04 P0 ( dwell for no time -- G64 should not smooth over this point )
G01 F500.00000
G01 X-17.46718 Y156.10856
G01 X-17.46718 Y157.29482
G01 X-17.46805 Y157.30350
G01 X-17.46856 Y157.30526
G01 X-17.46942 Y157.30686
G01 X-17.47059 Y157.30828
G01 X-17.47201 Y157.30945
G01 X-17.47361 Y157.31031
G01 X-17.47536 Y157.31082
G01 X-17.48405 Y157.31168
G01 X-17.92621 Y157.31168
G01 X-17.93640 Y157.31049
G01 X-17.94608 Y157.30701
G01 X-18.04803 Y157.25601
G01 X-18.05418 Y157.25227
G01 X-18.05966 Y157.24762
G01 X-18.10884 Y157.19845
G01 X-18.11349 Y157.19296
G01 X-18.11722 Y157.18682
G01 X-18.16820 Y157.08486
G01 X-18.17168 Y157.07518
G01 X-18.17287 Y157.06500
G01 X-18.17287 Y156.90980
G01 X-18.17168 Y156.89962
G01 X-18.16820 Y156.88997
G01 X-18.11722 Y156.78796
G01 X-18.11349 Y156.78181
G01 X-18.10884 Y156.77633
G01 X-18.07384 Y156.74135
G01 X-18.05692 Y156.72088
G01 X-18.04417 Y156.69759
G01 X-18.03607 Y156.67231
G01 X-18.03287 Y156.64595
G01 X-18.03470 Y156.61946
G01 X-18.04150 Y156.59378
G01 X-18.05303 Y156.56985
G01 X-18.06007 Y156.55824
G01 X-18.11107 Y156.45629
G01 X-18.11455 Y156.44661
G01 X-18.11575 Y156.43642
G01 X-18.11575 Y156.33838
G01 X-18.11455 Y156.32819
G01 X-18.11107 Y156.31852
G01 X-18.06007 Y156.21654
G01 X-18.05634 Y156.21039
G01 X-18.05169 Y156.20490
G01 X-18.00251 Y156.15573
G01 X-17.99703 Y156.15108
G01 X-17.99088 Y156.14735
G01 X-17.88893 Y156.09637
G01 X-17.87925 Y156.09289
G01 X-17.86906 Y156.09169
G01 X-17.48405 Y156.09169
G01 X-17.47536 Y156.09256
G01 X-17.47361 Y156.09307
G01 X-17.47201 Y156.09393
G01 X-17.47059 Y156.09510
G01 X-17.46942 Y156.09652
G01 X-17.46856 Y156.09812
G01 X-17.46805 Y156.09987
G01 X-17.46718 Y156.10856
G04 P0 ( dwell for no time -- G64 should not smooth over this point )
G00 Z2.00000 ( retract )

G00 X-17.48717 Y156.25169 ( rapid move to begin. )
G01 F250.00000
( Mill infeed pass 1/1 )
G01 Z-0.20000
G04 P0 ( dwell for no time -- G64 should not smooth over this point )
G01 F500.00000
G01 X-17.48717 Y156.25169
G01 X-17.48717 Y156.52311
G01 X-17.48987 Y156.55042
G01 X-17.49784 Y156.57668
G01 X-17.51077 Y156.60089
G01 X-17.52819 Y156.62210
G01 X-17.54940 Y156.63952
G01 X-17.57361 Y156.65245
G01 X-17.59987 Y156.66043
G01 X-17.62718 Y156.66312
G01 X-17.84176 Y156.66312
G01 X-17.87394 Y156.65936
G01 X-17.90439 Y156.64834
G01 X-17.96523 Y156.61791
G01 X-17.98445 Y156.60625
G01 X-18.00160 Y156.59169
G01 X-18.02433 Y156.56896
G01 X-18.03889 Y156.55182
G01 X-18.05055 Y156.53259
G01 X-18.08097 Y156.47175
G01 X-18.09200 Y156.44130
G01 X-18.09576 Y156.40912
G01 X-18.09576 Y156.36568
G01 X-18.09200 Y156.33350
G01 X-18.08097 Y156.30307
G01 X-18.05055 Y156.24221
G01 X-18.03889 Y156.22296
G01 X-18.02431 Y156.20582
G01 X-18.00160 Y156.18311
G01 X-17.98445 Y156.16853
G01 X-17.96520 Y156.15687
G01 X-17.90437 Y156.12647
G01 X-17.87394 Y156.11544
G01 X-17.84178 Y156.11168
G01 X-17.62718 Y156.11168
G01 X-17.59987 Y156.11438
G01 X-17.57361 Y156.12235
G01 X-17.54940 Y156.13528
G01 X-17.52819 Y156.15271
G01 X-17.51077 Y156.17391
G01 X-17.49784 Y156.19812
G01 X-17.48987 Y156.22438
G01 X-17.48717 Y156.25169
G04 P0 ( dwell for no time -- G64 should not smooth over this point )
G00 Z2.00000 ( retract )

G00 X-17.48717 Y156.82311 ( rapid move to begin. )
G01 F250.00000
( Mill infeed pass 1/1 )
G01 Z-0.20000
G04 P0 ( dwell for no time -- G64 should not smooth over this point )
G01 F500.00000
G01 X-17.48717 Y156.82311
G01 X-17.48717 Y157.15169
G01 X-17.48987 Y157.17899
G01 X-17.49784 Y157.20526
G01 X-17.51077 Y157.22946
G01 X-17.52819 Y157.25067
G01 X-17.54940 Y157.26810
G01 X-17.57361 Y157.28102
G01 X-17.59987 Y157.28900
G01 X-17.62718 Y157.29169
G01 X-17.89891 Y157.29169
G01 X-17.93109 Y157.28793
G01 X-17.96154 Y157.27691
G01 X-18.02238 Y157.24648
G01 X-18.04160 Y157.23482
G01 X-18.05875 Y157.22027
G01 X-18.08146 Y157.19753
G01 X-18.09604 Y157.18039
G01 X-18.10770 Y157.16114
G01 X-18.13810 Y157.10030
G01 X-18.14912 Y157.06987
G01 X-18.15288 Y157.03772
G01 X-18.15288 Y156.93708
G01 X-18.14912 Y156.90493
G01 X-18.13810 Y156.87450
G01 X-18.10770 Y156.81366
G01 X-18.09604 Y156.79439
G01 X-18.08146 Y156.77724
G01 X-18.06657 Y156.76236
G01 X-18.04117 Y156.74226
G01 X-18.01186 Y156.72855
G01 X-17.89710 Y156.69030
G01 X-17.87526 Y156.68491
G01 X-17.85283 Y156.68311
G01 X-17.62718 Y156.68311
G01 X-17.59987 Y156.68580
G01 X-17.57361 Y156.69378
G01 X-17.54940 Y156.70670
G01 X-17.52819 Y156.72413
G01 X-17.51077 Y156.74534
G01 X-17.49784 Y156.76954
G01 X-17.48987 Y156.79581
G01 X-17.48717 Y156.82311
G04 P0 ( dwell for no time -- G64 should not smooth over this point )
G00 Z2.00000 ( retract )

G00 X-18.61003 Y156.56741 ( rapid move to begin. )
G01 F250.00000
( Mill infeed pass 1/1 )
G01 Z-0.20000
G04 P0 ( dwell for no time -- G64 should not smooth over this point )
G01 F500.00000
G01 X-18.61003 Y156.56741
G01 X-18.61003 Y156.83594
G01 X-18.61242 Y156.85529
G01 X-18.66561 Y157.06810
G01 X-18.67165 Y157.08443
G01 X-18.72286 Y157.18682
G01 X-18.72659 Y157.19296
G01 X-18.73124 Y157.19845
G01 X-18.78039 Y157.24762
G01 X-18.78588 Y157.25227
G01 X-18.79202 Y157.25601
G01 X-18.89400 Y157.30701
G01 X-18.90368 Y157.31049
G01 X-18.91387 Y157.31168
G01 X-19.01191 Y157.31168
G01 X-19.02210 Y157.31049
G01 X-19.03177 Y157.30701
G01 X-19.13375 Y157.25601
G01 X-19.13990 Y157.25227
G01 X-19.14539 Y157.24762
G01 X-19.19454 Y157.19845
G01 X-19.19918 Y157.19296
G01 X-19.20292 Y157.18682
G01 X-19.25412 Y157.08443
G01 X-19.26017 Y157.06810
G01 X-19.31336 Y156.85529
G01 X-19.31574 Y156.83594
G01 X-19.31574 Y156.56741
G01 X-19.31336 Y156.54806
G01 X-19.26017 Y156.33528
G01 X-19.25412 Y156.31895
G01 X-19.20292 Y156.21654
G01 X-19.19918 Y156.21039
G01 X-19.19454 Y156.20490
G01 X-19.14539 Y156.15573
G01 X-19.13990 Y156.15108
G01 X-19.13375 Y156.14735
G01 X-19.03175 Y156.09637
G01 X-19.02210 Y156.09289
G01 X-19.01191 Y156.09169
G01 X-18.91387 Y156.09169
G01 X-18.90368 Y156.09289
G01 X-18.89403 Y156.09637
G01 X-18.79202 Y156.14735
G01 X-18.78588 Y156.15108
G01 X-18.78039 Y156.15573
G01 X-18.73124 Y156.20490
G01 X-18.72659 Y156.21039
G01 X-18.72286 Y156.21654
G01 X-18.67165 Y156.31895
G01 X-18.66561 Y156.33528
G01 X-18.61242 Y156.54806
G01 X-18.61003 Y156.56741
G04 P0 ( dwell for no time -- G64 should not smooth over this point )
G00 Z2.00000 ( retract )

G00 X-18.63002 Y156.57729 ( rapid move to begin. )
G01 F250.00000
( Mill infeed pass 1/1 )
G01 Z-0.20000
G04 P0 ( dwell for no time -- G64 should not smooth over this point )
G01 F500.00000
G01 X-18.63002 Y156.57729
G01 X-18.63002 Y156.82606
G01 X-18.63421 Y156.86002
G01 X-18.68288 Y157.05471
G01 X-18.69350 Y157.08336
G01 X-18.73238 Y157.16116
G01 X-18.74402 Y157.18039
G01 X-18.75860 Y157.19751
G01 X-18.78130 Y157.22024
G01 X-18.79845 Y157.23482
G01 X-18.81770 Y157.24648
G01 X-18.87856 Y157.27691
G01 X-18.90899 Y157.28793
G01 X-18.94117 Y157.29169
G01 X-18.98461 Y157.29169
G01 X-19.01679 Y157.28793
G01 X-19.04722 Y157.27691
G01 X-19.10807 Y157.24648
G01 X-19.12733 Y157.23482
G01 X-19.14447 Y157.22024
G01 X-19.16718 Y157.19751
G01 X-19.18176 Y157.18039
G01 X-19.19339 Y157.16116
G01 X-19.23228 Y157.08336
G01 X-19.24290 Y157.05471
G01 X-19.29156 Y156.86002
G01 X-19.29576 Y156.82606
G01 X-19.29576 Y156.57729
G01 X-19.29156 Y156.54333
G01 X-19.24290 Y156.34867
G01 X-19.23231 Y156.32002
G01 X-19.19339 Y156.24219
G01 X-19.18173 Y156.22296
G01 X-19.16718 Y156.20584
G01 X-19.14447 Y156.18311
G01 X-19.12733 Y156.16853
G01 X-19.10805 Y156.15687
G01 X-19.04722 Y156.12647
G01 X-19.01679 Y156.11544
G01 X-18.98463 Y156.11168
G01 X-18.94115 Y156.11168
G01 X-18.90899 Y156.11544
G01 X-18.87856 Y156.12647
G01 X-18.81773 Y156.15687
G01 X-18.79845 Y156.16853
G01 X-18.78130 Y156.18311
G01 X-18.75860 Y156.20584
G01 X-18.74404 Y156.22296
G01 X-18.73238 Y156.24219
G01 X-18.69347 Y156.32002
G01 X-18.68288 Y156.34867
G01 X-18.63421 Y156.54333
G01 X-18.63002 Y156.57729
G04 P0 ( dwell for no time -- G64 should not smooth over this point )
G00 Z2.00000 ( retract )

G00 X-21.63860 Y156.10856 ( rapid move to begin. )
G01 F250.00000
( Mill infeed pass 1/1 )
G01 Z-0.20000
G04 P0 ( dwell for no time -- G64 should not smooth over this point )
G01 F500.00000
G01 X-21.63860 Y156.10856
G01 X-21.63860 Y157.29482
G01 X-21.63946 Y157.30350
G01 X-21.63997 Y157.30526
G01 X-21.64084 Y157.30686
G01 X-21.64200 Y157.30828
G01 X-21.64343 Y157.30945
G01 X-21.64503 Y157.31031
G01 X-21.64678 Y157.31082
G01 X-21.64861 Y157.31102
G01 X-21.65041 Y157.31082
G01 X-21.65216 Y157.31031
G01 X-21.65376 Y157.30945
G01 X-21.65519 Y157.30828
G01 X-21.65636 Y157.30686
G01 X-21.65722 Y157.30526
G01 X-21.65773 Y157.30350
G01 X-21.65859 Y157.29482
G01 X-21.65859 Y156.88026
G01 X-21.66128 Y156.85296
G01 X-21.66926 Y156.82669
G01 X-21.68219 Y156.80249
G01 X-21.69961 Y156.78128
G01 X-21.72082 Y156.76385
G01 X-21.74503 Y156.75093
G01 X-21.77129 Y156.74295
G01 X-21.79859 Y156.74026
G01 X-22.09763 Y156.74026
G01 X-22.10781 Y156.73906
G01 X-22.11749 Y156.73558
G01 X-22.21945 Y156.68458
G01 X-22.22559 Y156.68085
G01 X-22.23108 Y156.67620
G01 X-22.28026 Y156.62702
G01 X-22.28490 Y156.62154
G01 X-22.28864 Y156.61539
G01 X-22.33964 Y156.51344
G01 X-22.34312 Y156.50376
G01 X-22.34431 Y156.49357
G01 X-22.34431 Y156.33838
G01 X-22.34312 Y156.32819
G01 X-22.33964 Y156.31852
G01 X-22.28864 Y156.21654
G01 X-22.28490 Y156.21039
G01 X-22.28026 Y156.20490
G01 X-22.23108 Y156.15573
G01 X-22.22559 Y156.15108
G01 X-22.21945 Y156.14735
G01 X-22.11749 Y156.09637
G01 X-22.10781 Y156.09289
G01 X-22.09763 Y156.09169
G01 X-21.65547 Y156.09169
G01 X-21.64678 Y156.09256
G01 X-21.64503 Y156.09307
G01 X-21.64343 Y156.09393
G01 X-21.64200 Y156.09510
G01 X-21.64084 Y156.09652
G01 X-21.63997 Y156.09812
G01 X-21.63946 Y156.09987
G01 X-21.63860 Y156.10856
G04 P0 ( dwell for no time -- G64 should not smooth over this point )
G00 Z2.00000 ( retract )

G00 X-21.65859 Y156.25169 ( rapid move to begin. )
G01 F250.00000
( Mill infeed pass 1/1 )
G01 Z-0.20000
G04 P0 ( dwell for no time -- G64 should not smooth over this point )
G01 F500.00000
G01 X-21.65859 Y156.25169
G01 X-21.65859 Y156.58026
G01 X-21.66128 Y156.60757
G01 X-21.66926 Y156.63383
G01 X-21.68219 Y156.65804
G01 X-21.69961 Y156.67925
G01 X-21.72082 Y156.69667
G01 X-21.74503 Y156.70960
G01 X-21.77129 Y156.71758
G01 X-21.79859 Y156.72027
G01 X-22.07032 Y156.72027
G01 X-22.10251 Y156.71651
G01 X-22.13296 Y156.70549
G01 X-22.19379 Y156.67506
G01 X-22.21302 Y156.66340
G01 X-22.23017 Y156.64884
G01 X-22.25290 Y156.62611
G01 X-22.26745 Y156.60897
G01 X-22.27911 Y156.58974
G01 X-22.30954 Y156.52890
G01 X-22.32057 Y156.49845
G01 X-22.32432 Y156.46627
G01 X-22.32432 Y156.36568
G01 X-22.32057 Y156.33350
G01 X-22.30954 Y156.30307
G01 X-22.27911 Y156.24221
G01 X-22.26745 Y156.22296
G01 X-22.25287 Y156.20582
G01 X-22.23017 Y156.18311
G01 X-22.21302 Y156.16853
G01 X-22.19377 Y156.15687
G01 X-22.13294 Y156.12647
G01 X-22.10251 Y156.11544
G01 X-22.07035 Y156.11168
G01 X-21.79859 Y156.11168
G01 X-21.77129 Y156.11438
G01 X-21.74503 Y156.12235
G01 X-21.72082 Y156.13528
G01 X-21.69961 Y156.15271
G01 X-21.68219 Y156.17391
G01 X-21.66926 Y156.19812
G01 X-21.66128 Y156.22438
G01 X-21.65859 Y156.25169
G04 P0 ( dwell for no time -- G64 should not smooth over this point )
G00 Z2.00000 ( retract )

G00 X-22.83860 Y156.10856 ( rapid move to begin. )
G01 F250.00000
( Mill infeed pass 1/1 )
G01 Z-0.20000
G04 P0 ( dwell for no time -- G64 should not smooth over this point )
G01 F500.00000
G01 X-22.83860 Y156.10856
G01 X-22.83860 Y157.29482
G01 X-22.83946 Y157.30350
G01 X-22.83997 Y157.30526
G01 X-22.84083 Y157.30686
G01 X-22.84200 Y157.30828
G01 X-22.84342 Y157.30945
G01 X-22.84502 Y157.31031
G01 X-22.84678 Y157.31082
G01 X-22.85546 Y157.31168
G01 X-23.29763 Y157.31168
G01 X-23.30781 Y157.31049
G01 X-23.31749 Y157.30701
G01 X-23.41947 Y157.25601
G01 X-23.42562 Y157.25227
G01 X-23.43110 Y157.24762
G01 X-23.48025 Y157.19845
G01 X-23.48490 Y157.19296
G01 X-23.48863 Y157.18682
G01 X-23.53964 Y157.08486
G01 X-23.54312 Y157.07518
G01 X-23.54431 Y157.06500
G01 X-23.54431 Y156.90980
G01 X-23.54312 Y156.89962
G01 X-23.53964 Y156.88994
G01 X-23.48863 Y156.78796
G01 X-23.48490 Y156.78181
G01 X-23.48025 Y156.77633
G01 X-23.44525 Y156.74135
G01 X-23.42836 Y156.72088
G01 X-23.41561 Y156.69759
G01 X-23.40751 Y156.67231
G01 X-23.40431 Y156.64595
G01 X-23.40614 Y156.61946
G01 X-23.41294 Y156.59380
G01 X-23.42447 Y156.56987
G01 X-23.43151 Y156.55824
G01 X-23.48249 Y156.45629
G01 X-23.48597 Y156.44661
G01 X-23.48716 Y156.43642
G01 X-23.48716 Y156.33838
G01 X-23.48597 Y156.32819
G01 X-23.48249 Y156.31854
G01 X-23.43151 Y156.21654
G01 X-23.42778 Y156.21039
G01 X-23.42313 Y156.20490
G01 X-23.37395 Y156.15573
G01 X-23.36847 Y156.15108
G01 X-23.36232 Y156.14735
G01 X-23.26031 Y156.09637
G01 X-23.25066 Y156.09289
G01 X-23.24048 Y156.09169
G01 X-22.85546 Y156.09169
G01 X-22.84678 Y156.09256
G01 X-22.84502 Y156.09307
G01 X-22.84342 Y156.09393
G01 X-22.84200 Y156.09510
G01 X-22.84083 Y156.09652
G01 X-22.83997 Y156.09812
G01 X-22.83946 Y156.09987
G01 X-22.83860 Y156.10856
G04 P0 ( dwell for no time -- G64 should not smooth over this point )
G00 Z2.00000 ( retract )

G00 X-22.85859 Y156.25169 ( rapid move to begin. )
G01 F250.00000
( Mill infeed pass 1/1 )
G01 Z-0.20000
G04 P0 ( dwell for no time -- G64 should not smooth over this point )
G01 F500.00000
G01 X-22.85859 Y156.25169
G01 X-22.85859 Y156.52311
G01 X-22.86128 Y156.55042
G01 X-22.86926 Y156.57668
G01 X-22.88218 Y156.60089
G01 X-22.89961 Y156.62210
G01 X-22.92082 Y156.63952
G01 X-22.94502 Y156.65245
G01 X-22.97129 Y156.66043
G01 X-22.99859 Y156.66312
G01 X-23.21317 Y156.66312
G01 X-23.24535 Y156.65936
G01 X-23.27578 Y156.64834
G01 X-23.33664 Y156.61791
G01 X-23.35589 Y156.60625
G01 X-23.37304 Y156.59167
G01 X-23.39575 Y156.56896
G01 X-23.41033 Y156.55182
G01 X-23.42199 Y156.53256
G01 X-23.45239 Y156.47173
G01 X-23.46341 Y156.44130
G01 X-23.46717 Y156.40914
G01 X-23.46717 Y156.36566
G01 X-23.46341 Y156.33350
G01 X-23.45239 Y156.30307
G01 X-23.42199 Y156.24221
G01 X-23.41033 Y156.22296
G01 X-23.39575 Y156.20582
G01 X-23.37304 Y156.18311
G01 X-23.35589 Y156.16853
G01 X-23.33664 Y156.15687
G01 X-23.27578 Y156.12647
G01 X-23.24535 Y156.11544
G01 X-23.21320 Y156.11168
G01 X-22.99859 Y156.11168
G01 X-22.97129 Y156.11438
G01 X-22.94502 Y156.12235
G01 X-22.92082 Y156.13528
G01 X-22.89961 Y156.15271
G01 X-22.88218 Y156.17391
G01 X-22.86926 Y156.19812
G01 X-22.86128 Y156.22438
G01 X-22.85859 Y156.25169
G04 P0 ( dwell for no time -- G64 should not smooth over this point )
G00 Z2.00000 ( retract )

G00 X-22.85859 Y156.82311 ( rapid move to begin. )
G01 F250.00000
( Mill infeed pass 1/1 )
G01 Z-0.20000
G04 P0 ( dwell for no time -- G64 should not smooth over this point )
G01 F500.00000
G01 X-22.85859 Y156.82311
G01 X-22.85859 Y157.15169
G01 X-22.86128 Y157.17899
G01 X-22.86926 Y157.20526
G01 X-22.88218 Y157.22946
G01 X-22.89961 Y157.25067
G01 X-22.92082 Y157.26810
G01 X-22.94502 Y157.28102
G01 X-22.97129 Y157.28900
G01 X-22.99859 Y157.29169
G01 X-23.27032 Y157.29169
G01 X-23.30250 Y157.28793
G01 X-23.33293 Y157.27691
G01 X-23.39379 Y157.24648
G01 X-23.41304 Y157.23482
G01 X-23.43019 Y157.22024
G01 X-23.45290 Y157.19751
G01 X-23.46748 Y157.18039
G01 X-23.47911 Y157.16116
G01 X-23.50954 Y157.10033
G01 X-23.52056 Y157.06987
G01 X-23.52432 Y157.03769
G01 X-23.52432 Y156.93711
G01 X-23.52056 Y156.90493
G01 X-23.50954 Y156.87450
G01 X-23.47911 Y156.81364
G01 X-23.46745 Y156.79439
G01 X-23.45287 Y156.77724
G01 X-23.43801 Y156.76238
G01 X-23.41261 Y156.74226
G01 X-23.38328 Y156.72855
G01 X-23.26852 Y156.69030
G01 X-23.24667 Y156.68491
G01 X-23.22425 Y156.68311
G01 X-22.99859 Y156.68311
G01 X-22.97129 Y156.68580
G01 X-22.94502 Y156.69378
G01 X-22.92082 Y156.70670
G01 X-22.89961 Y156.72413
G01 X-22.88218 Y156.74534
G01 X-22.86926 Y156.76954
G01 X-22.86128 Y156.79581
G01 X-22.85859 Y156.82311
G04 P0 ( dwell for no time -- G64 should not smooth over this point )
G00 Z2.00000 ( retract )

G00 X-23.98213 Y157.30167 ( rapid move to begin. )
G01 F250.00000
( Mill infeed pass 1/1 )
G01 Z-0.20000
G04 P0 ( dwell for no time -- G64 should not smooth over this point )
G01 F500.00000
G01 X-23.98213 Y157.30167
G01 X-23.98233 Y157.29987
G01 X-23.98284 Y157.29812
G01 X-23.98371 Y157.29652
G01 X-23.98487 Y157.29510
G01 X-23.98630 Y157.29393
G01 X-23.98790 Y157.29306
G01 X-23.98965 Y157.29256
G01 X-23.99834 Y157.29169
G01 X-24.18432 Y157.29169
G01 X-24.21162 Y157.28900
G01 X-24.23788 Y157.28102
G01 X-24.26209 Y157.26810
G01 X-24.28330 Y157.25067
G01 X-24.30072 Y157.22946
G01 X-24.31365 Y157.20526
G01 X-24.32163 Y157.17899
G01 X-24.32432 Y157.15169
G01 X-24.32432 Y156.51460
G01 X-24.32173 Y156.48786
G01 X-24.31408 Y156.46208
G01 X-24.30166 Y156.43825
G01 X-24.28492 Y156.41725
G01 X-24.26445 Y156.39980
G01 X-24.24103 Y156.38661
G01 X-24.21553 Y156.37813
G01 X-24.18889 Y156.37468
G01 X-24.16206 Y156.37638
G01 X-24.13606 Y156.38318
G01 X-24.11185 Y156.39482
G01 X-24.10517 Y156.39886
G01 X-24.00210 Y156.45042
G01 X-23.99392 Y156.45352
G01 X-23.99214 Y156.45385
G01 X-23.99031 Y156.45380
G01 X-23.98851 Y156.45339
G01 X-23.98686 Y156.45263
G01 X-23.98536 Y156.45159
G01 X-23.98411 Y156.45027
G01 X-23.98312 Y156.44872
G01 X-23.98249 Y156.44699
G01 X-23.98216 Y156.44521
G01 X-23.98221 Y156.44338
G01 X-23.98261 Y156.44158
G01 X-23.98338 Y156.43993
G01 X-23.98442 Y156.43843
G01 X-23.98574 Y156.43719
G01 X-23.99316 Y156.43251
G01 X-24.07951 Y156.38933
G01 X-24.09874 Y156.37770
G01 X-24.11586 Y156.36312
G01 X-24.20245 Y156.27656
G01 X-24.21998 Y156.25519
G01 X-24.32219 Y156.10188
G01 X-24.32772 Y156.09510
G01 X-24.32912 Y156.09395
G01 X-24.33075 Y156.09309
G01 X-24.33250 Y156.09256
G01 X-24.33430 Y156.09235
G01 X-24.33613 Y156.09256
G01 X-24.33788 Y156.09307
G01 X-24.33948 Y156.09393
G01 X-24.34091 Y156.09510
G01 X-24.34207 Y156.09652
G01 X-24.34294 Y156.09812
G01 X-24.34345 Y156.09987
G01 X-24.34431 Y156.10856
G01 X-24.34431 Y157.15169
G01 X-24.34700 Y157.17899
G01 X-24.35498 Y157.20526
G01 X-24.36791 Y157.22946
G01 X-24.38533 Y157.25067
G01 X-24.40654 Y157.26810
G01 X-24.43075 Y157.28102
G01 X-24.45701 Y157.28900
G01 X-24.48431 Y157.29169
G01 X-24.67029 Y157.29169
G01 X-24.67898 Y157.29256
G01 X-24.68073 Y157.29306
G01 X-24.68233 Y157.29393
G01 X-24.68376 Y157.29510
G01 X-24.68492 Y157.29652
G01 X-24.68579 Y157.29812
G01 X-24.68630 Y157.29987
G01 X-24.68650 Y157.30167
G01 X-24.68630 Y157.30350
G01 X-24.68579 Y157.30526
G01 X-24.68492 Y157.30686
G01 X-24.68376 Y157.30828
G01 X-24.68233 Y157.30945
G01 X-24.68073 Y157.31031
G01 X-24.67898 Y157.31082
G01 X-24.67029 Y157.31168
G01 X-23.99834 Y157.31168
G01 X-23.98965 Y157.31082
G01 X-23.98790 Y157.31031
G01 X-23.98630 Y157.30945
G01 X-23.98487 Y157.30828
G01 X-23.98371 Y157.30686
G01 X-23.98284 Y157.30526
G01 X-23.98233 Y157.30350
G01 X-23.98213 Y157.30167
G04 P0 ( dwell for no time -- G64 should not smooth over this point )
G00 Z2.00000 ( retract )

G00 X-27.01004 Y156.10856 ( rapid move to begin. )
G01 F250.00000
( Mill infeed pass 1/1 )
G01 Z-0.20000
G04 P0 ( dwell for no time -- G64 should not smooth over this point )
G01 F500.00000
G01 X-27.01004 Y156.10856
G01 X-27.01004 Y157.29482
G01 X-27.01090 Y157.30350
G01 X-27.01141 Y157.30526
G01 X-27.01228 Y157.30686
G01 X-27.01344 Y157.30828
G01 X-27.01487 Y157.30945
G01 X-27.01647 Y157.31031
G01 X-27.01822 Y157.31082
G01 X-27.02005 Y157.31102
G01 X-27.02185 Y157.31082
G01 X-27.02360 Y157.31031
G01 X-27.02520 Y157.30945
G01 X-27.02663 Y157.30828
G01 X-27.02779 Y157.30686
G01 X-27.02866 Y157.30526
G01 X-27.02917 Y157.30350
G01 X-27.03003 Y157.29482
G01 X-27.03003 Y156.88026
G01 X-27.03272 Y156.85296
G01 X-27.04070 Y156.82669
G01 X-27.05363 Y156.80249
G01 X-27.07105 Y156.78128
G01 X-27.09226 Y156.76385
G01 X-27.11647 Y156.75093
G01 X-27.14273 Y156.74295
G01 X-27.17003 Y156.74026
G01 X-27.46907 Y156.74026
G01 X-27.47925 Y156.73906
G01 X-27.48893 Y156.73558
G01 X-27.59089 Y156.68458
G01 X-27.59703 Y156.68085
G01 X-27.60252 Y156.67620
G01 X-27.65169 Y156.62702
G01 X-27.65634 Y156.62154
G01 X-27.66008 Y156.61539
G01 X-27.71105 Y156.51344
G01 X-27.71453 Y156.50376
G01 X-27.71573 Y156.49357
G01 X-27.71573 Y156.33838
G01 X-27.71453 Y156.32819
G01 X-27.71105 Y156.31854
G01 X-27.66008 Y156.21654
G01 X-27.65634 Y156.21039
G01 X-27.65169 Y156.20490
G01 X-27.60252 Y156.15573
G01 X-27.59703 Y156.15108
G01 X-27.59089 Y156.14735
G01 X-27.48893 Y156.09637
G01 X-27.47925 Y156.09289
G01 X-27.46907 Y156.09169
G01 X-27.02691 Y156.09169
G01 X-27.01822 Y156.09256
G01 X-27.01647 Y156.09307
G01 X-27.01487 Y156.09393
G01 X-27.01344 Y156.09510
G01 X-27.01228 Y156.09652
G01 X-27.01141 Y156.09812
G01 X-27.01090 Y156.09987
G01 X-27.01004 Y156.10856
G04 P0 ( dwell for no time -- G64 should not smooth over this point )
G00 Z2.00000 ( retract )

G00 X-27.03003 Y156.25169 ( rapid move to begin. )
G01 F250.00000
( Mill infeed pass 1/1 )
G01 Z-0.20000
G04 P0 ( dwell for no time -- G64 should not smooth over this point )
G01 F500.00000
G01 X-27.03003 Y156.25169
G01 X-27.03003 Y156.58026
G01 X-27.03272 Y156.60757
G01 X-27.04070 Y156.63383
G01 X-27.05363 Y156.65804
G01 X-27.07105 Y156.67925
G01 X-27.09226 Y156.69667
G01 X-27.11647 Y156.70960
G01 X-27.14273 Y156.71758
G01 X-27.17003 Y156.72027
G01 X-27.44176 Y156.72027
G01 X-27.47395 Y156.71651
G01 X-27.50440 Y156.70549
G01 X-27.56523 Y156.67506
G01 X-27.58446 Y156.66340
G01 X-27.60161 Y156.64884
G01 X-27.62431 Y156.62611
G01 X-27.63889 Y156.60897
G01 X-27.65055 Y156.58971
G01 X-27.68096 Y156.52888
G01 X-27.69198 Y156.49845
G01 X-27.69574 Y156.46629
G01 X-27.69574 Y156.36566
G01 X-27.69198 Y156.33350
G01 X-27.68096 Y156.30307
G01 X-27.65055 Y156.24221
G01 X-27.63889 Y156.22296
G01 X-27.62431 Y156.20582
G01 X-27.60161 Y156.18311
G01 X-27.58446 Y156.16853
G01 X-27.56521 Y156.15687
G01 X-27.50437 Y156.12647
G01 X-27.47395 Y156.11544
G01 X-27.44179 Y156.11168
G01 X-27.17003 Y156.11168
G01 X-27.14273 Y156.11438
G01 X-27.11647 Y156.12235
G01 X-27.09226 Y156.13528
G01 X-27.07105 Y156.15271
G01 X-27.05363 Y156.17391
G01 X-27.04070 Y156.19812
G01 X-27.03272 Y156.22438
G01 X-27.03003 Y156.25169
G04 P0 ( dwell for no time -- G64 should not smooth over this point )
G00 Z2.00000 ( retract )

G00 X-28.21004 Y156.10856 ( rapid move to begin. )
G01 F250.00000
( Mill infeed pass 1/1 )
G01 Z-0.20000
G04 P0 ( dwell for no time -- G64 should not smooth over this point )
G01 F500.00000
G01 X-28.21004 Y156.10856
G01 X-28.21004 Y157.29482
G01 X-28.21090 Y157.30350
G01 X-28.21141 Y157.30526
G01 X-28.21227 Y157.30686
G01 X-28.21344 Y157.30828
G01 X-28.21486 Y157.30945
G01 X-28.21646 Y157.31031
G01 X-28.21822 Y157.31082
G01 X-28.22690 Y157.31168
G01 X-28.66907 Y157.31168
G01 X-28.67925 Y157.31049
G01 X-28.68893 Y157.30701
G01 X-28.79088 Y157.25601
G01 X-28.79703 Y157.25227
G01 X-28.80252 Y157.24762
G01 X-28.85169 Y157.19845
G01 X-28.85634 Y157.19296
G01 X-28.86007 Y157.18682
G01 X-28.91108 Y157.08486
G01 X-28.91456 Y157.07518
G01 X-28.91575 Y157.06500
G01 X-28.91575 Y156.90980
G01 X-28.91456 Y156.89962
G01 X-28.91108 Y156.88994
G01 X-28.86007 Y156.78796
G01 X-28.85634 Y156.78181
G01 X-28.85169 Y156.77633
G01 X-28.81669 Y156.74135
G01 X-28.79977 Y156.72088
G01 X-28.78702 Y156.69759
G01 X-28.77892 Y156.67231
G01 X-28.77572 Y156.64595
G01 X-28.77755 Y156.61946
G01 X-28.78436 Y156.59378
G01 X-28.79589 Y156.56985
G01 X-28.80292 Y156.55824
G01 X-28.85393 Y156.45629
G01 X-28.85741 Y156.44661
G01 X-28.85860 Y156.43642
G01 X-28.85860 Y156.33838
G01 X-28.85741 Y156.32819
G01 X-28.85393 Y156.31852
G01 X-28.80292 Y156.21654
G01 X-28.79919 Y156.21039
G01 X-28.79454 Y156.20490
G01 X-28.74537 Y156.15573
G01 X-28.73988 Y156.15108
G01 X-28.73373 Y156.14735
G01 X-28.63178 Y156.09637
G01 X-28.62210 Y156.09289
G01 X-28.61192 Y156.09169
G01 X-28.22690 Y156.09169
G01 X-28.21822 Y156.09256
G01 X-28.21646 Y156.09307
G01 X-28.21486 Y156.09393
G01 X-28.21344 Y156.09510
G01 X-28.21227 Y156.09652
G01 X-28.21141 Y156.09812
G01 X-28.21090 Y156.09987
G01 X-28.21004 Y156.10856
G04 P0 ( dwell for no time -- G64 should not smooth over this point )
G00 Z2.00000 ( retract )

G00 X-28.23003 Y156.25169 ( rapid move to begin. )
G01 F250.00000
( Mill infeed pass 1/1 )
G01 Z-0.20000
G04 P0 ( dwell for no time -- G64 should not smooth over this point )
G01 F500.00000
G01 X-28.23003 Y156.25169
G01 X-28.23003 Y156.52311
G01 X-28.23272 Y156.55042
G01 X-28.24070 Y156.57668
G01 X-28.25362 Y156.60089
G01 X-28.27105 Y156.62210
G01 X-28.29226 Y156.63952
G01 X-28.31646 Y156.65245
G01 X-28.34273 Y156.66043
G01 X-28.37003 Y156.66312
G01 X-28.58461 Y156.66312
G01 X-28.61679 Y156.65936
G01 X-28.64725 Y156.64834
G01 X-28.70808 Y156.61791
G01 X-28.72731 Y156.60625
G01 X-28.74445 Y156.59169
G01 X-28.76719 Y156.56896
G01 X-28.78174 Y156.55182
G01 X-28.79340 Y156.53259
G01 X-28.82383 Y156.47175
G01 X-28.83485 Y156.44130
G01 X-28.83861 Y156.40912
G01 X-28.83861 Y156.36568
G01 X-28.83485 Y156.33350
G01 X-28.82383 Y156.30307
G01 X-28.79340 Y156.24221
G01 X-28.78174 Y156.22296
G01 X-28.76716 Y156.20582
G01 X-28.74445 Y156.18311
G01 X-28.72731 Y156.16853
G01 X-28.70806 Y156.15687
G01 X-28.64722 Y156.12647
G01 X-28.61679 Y156.11544
G01 X-28.58464 Y156.11168
G01 X-28.37003 Y156.11168
G01 X-28.34273 Y156.11438
G01 X-28.31646 Y156.12235
G01 X-28.29226 Y156.13528
G01 X-28.27105 Y156.15271
G01 X-28.25362 Y156.17391
G01 X-28.24070 Y156.19812
G01 X-28.23272 Y156.22438
G01 X-28.23003 Y156.25169
G04 P0 ( dwell for no time -- G64 should not smooth over this point )
G00 Z2.00000 ( retract )

G00 X-28.23003 Y156.82311 ( rapid move to begin. )
G01 F250.00000
( Mill infeed pass 1/1 )
G01 Z-0.20000
G04 P0 ( dwell for no time -- G64 should not smooth over this point )
G01 F500.00000
G01 X-28.23003 Y156.82311
G01 X-28.23003 Y157.15169
G01 X-28.23272 Y157.17899
G01 X-28.24070 Y157.20526
G01 X-28.25362 Y157.22946
G01 X-28.27105 Y157.25067
G01 X-28.29226 Y157.26810
G01 X-28.31646 Y157.28102
G01 X-28.34273 Y157.28900
G01 X-28.37003 Y157.29169
G01 X-28.64176 Y157.29169
G01 X-28.67394 Y157.28793
G01 X-28.70440 Y157.27691
G01 X-28.76523 Y157.24648
G01 X-28.78446 Y157.23482
G01 X-28.80160 Y157.22027
G01 X-28.82434 Y157.19753
G01 X-28.83889 Y157.18039
G01 X-28.85055 Y157.16116
G01 X-28.88098 Y157.10033
G01 X-28.89200 Y157.06987
G01 X-28.89576 Y157.03769
G01 X-28.89576 Y156.93711
G01 X-28.89200 Y156.90493
G01 X-28.88098 Y156.87450
G01 X-28.85055 Y156.81364
G01 X-28.83889 Y156.79439
G01 X-28.82431 Y156.77724
G01 X-28.80943 Y156.76236
G01 X-28.78403 Y156.74226
G01 X-28.75472 Y156.72855
G01 X-28.63996 Y156.69030
G01 X-28.61811 Y156.68491
G01 X-28.59569 Y156.68311
G01 X-28.37003 Y156.68311
G01 X-28.34273 Y156.68580
G01 X-28.31646 Y156.69378
G01 X-28.29226 Y156.70670
G01 X-28.27105 Y156.72413
G01 X-28.25362 Y156.74534
G01 X-28.24070 Y156.76954
G01 X-28.23272 Y156.79581
G01 X-28.23003 Y156.82311
G04 P0 ( dwell for no time -- G64 should not smooth over this point )
G00 Z2.00000 ( retract )

G00 X-29.29642 Y157.30170 ( rapid move to begin. )
G01 F250.00000
( Mill infeed pass 1/1 )
G01 Z-0.20000
G04 P0 ( dwell for no time -- G64 should not smooth over this point )
G01 F500.00000
G01 X-29.29642 Y157.30170
G01 X-29.29662 Y157.29987
G01 X-29.29713 Y157.29812
G01 X-29.29800 Y157.29652
G01 X-29.30356 Y157.28976
G01 X-29.95934 Y156.63393
G01 X-29.97945 Y156.60853
G01 X-29.99317 Y156.57922
G01 X-30.03142 Y156.46446
G01 X-30.03681 Y156.44262
G01 X-30.03861 Y156.42019
G01 X-30.03861 Y156.36568
G01 X-30.03485 Y156.33350
G01 X-30.02383 Y156.30307
G01 X-29.99340 Y156.24219
G01 X-29.98174 Y156.22296
G01 X-29.96718 Y156.20584
G01 X-29.94448 Y156.18311
G01 X-29.92733 Y156.16853
G01 X-29.90805 Y156.15687
G01 X-29.84722 Y156.12647
G01 X-29.81679 Y156.11544
G01 X-29.78463 Y156.11168
G01 X-29.56970 Y156.11168
G01 X-29.53754 Y156.11544
G01 X-29.50711 Y156.12647
G01 X-29.44628 Y156.15687
G01 X-29.42703 Y156.16853
G01 X-29.40988 Y156.18311
G01 X-29.37481 Y156.21816
G01 X-29.36805 Y156.22372
G01 X-29.36645 Y156.22459
G01 X-29.36470 Y156.22510
G01 X-29.36287 Y156.22530
G01 X-29.36106 Y156.22510
G01 X-29.35931 Y156.22459
G01 X-29.35771 Y156.22372
G01 X-29.35629 Y156.22256
G01 X-29.35512 Y156.22113
G01 X-29.35426 Y156.21953
G01 X-29.35375 Y156.21778
G01 X-29.35355 Y156.21595
G01 X-29.35375 Y156.21415
G01 X-29.35426 Y156.21240
G01 X-29.35512 Y156.21079
G01 X-29.36068 Y156.20404
G01 X-29.40897 Y156.15573
G01 X-29.41445 Y156.15108
G01 X-29.42060 Y156.14735
G01 X-29.52256 Y156.09637
G01 X-29.53223 Y156.09289
G01 X-29.54242 Y156.09169
G01 X-29.81191 Y156.09169
G01 X-29.82210 Y156.09289
G01 X-29.83175 Y156.09637
G01 X-29.93376 Y156.14735
G01 X-29.93990 Y156.15108
G01 X-29.94539 Y156.15573
G01 X-29.99454 Y156.20490
G01 X-29.99919 Y156.21039
G01 X-30.00292 Y156.21654
G01 X-30.05393 Y156.31852
G01 X-30.05741 Y156.32819
G01 X-30.05860 Y156.33838
G01 X-30.05860 Y156.43891
G01 X-30.05801 Y156.44608
G01 X-30.05631 Y156.45303
G01 X-30.00351 Y156.61143
G01 X-29.99916 Y156.62073
G01 X-29.99279 Y156.62878
G01 X-29.56889 Y157.05270
G01 X-29.55146 Y157.07391
G01 X-29.53853 Y157.09812
G01 X-29.53056 Y157.12438
G01 X-29.52787 Y157.15169
G01 X-29.53056 Y157.17899
G01 X-29.53853 Y157.20526
G01 X-29.55146 Y157.22946
G01 X-29.56889 Y157.25067
G01 X-29.59010 Y157.26810
G01 X-29.61430 Y157.28102
G01 X-29.64057 Y157.28900
G01 X-29.66787 Y157.29169
G01 X-30.04173 Y157.29169
G01 X-30.05042 Y157.29256
G01 X-30.05217 Y157.29306
G01 X-30.05377 Y157.29393
G01 X-30.05520 Y157.29510
G01 X-30.05636 Y157.29652
G01 X-30.05723 Y157.29812
G01 X-30.05774 Y157.29987
G01 X-30.05794 Y157.30167
G01 X-30.05774 Y157.30350
G01 X-30.05723 Y157.30526
G01 X-30.05636 Y157.30686
G01 X-30.05520 Y157.30828
G01 X-30.05377 Y157.30945
G01 X-30.05217 Y157.31031
G01 X-30.05042 Y157.31082
G01 X-30.04173 Y157.31168
G01 X-29.31263 Y157.31168
G01 X-29.30394 Y157.31082
G01 X-29.30219 Y157.31031
G01 X-29.30059 Y157.30945
G01 X-29.29916 Y157.30828
G01 X-29.29800 Y157.30686
G01 X-29.29713 Y157.30526
G01 X-29.29662 Y157.30350
G01 X-29.29642 Y157.30170
G04 P0 ( dwell for no time -- G64 should not smooth over this point )
G00 Z2.00000 ( retract )

G00 X-32.32433 Y156.62454 ( rapid move to begin. )
G01 F250.00000
( Mill infeed pass 1/1 )
G01 Z-0.20000
G04 P0 ( dwell for no time -- G64 should not smooth over this point )
G01 F500.00000
G01 X-32.32433 Y156.62454
G01 X-32.32433 Y156.77882
G01 X-32.32669 Y156.79814
G01 X-32.37988 Y157.01095
G01 X-32.38592 Y157.02728
G01 X-32.43713 Y157.12969
G01 X-32.44086 Y157.13584
G01 X-32.44551 Y157.14132
G01 X-32.55008 Y157.24587
G01 X-32.55814 Y157.25225
G01 X-32.56743 Y157.25659
G01 X-32.72583 Y157.30940
G01 X-32.73279 Y157.31110
G01 X-32.73995 Y157.31168
G01 X-32.84297 Y157.31168
G01 X-32.85014 Y157.31110
G01 X-32.85709 Y157.30940
G01 X-33.01549 Y157.25659
G01 X-33.02479 Y157.25225
G01 X-33.03284 Y157.24587
G01 X-33.07937 Y157.19931
G01 X-33.08493 Y157.19256
G01 X-33.08580 Y157.19096
G01 X-33.08630 Y157.18920
G01 X-33.08717 Y157.18052
G01 X-33.08717 Y156.79426
G01 X-33.08630 Y156.78557
G01 X-33.08580 Y156.78382
G01 X-33.08493 Y156.78222
G01 X-33.08376 Y156.78080
G01 X-33.08234 Y156.77963
G01 X-33.08074 Y156.77876
G01 X-33.07899 Y156.77826
G01 X-33.07030 Y156.77739
G01 X-32.85547 Y156.77739
G01 X-32.84678 Y156.77826
G01 X-32.84503 Y156.77876
G01 X-32.84343 Y156.77963
G01 X-32.84201 Y156.78080
G01 X-32.84084 Y156.78222
G01 X-32.83997 Y156.78382
G01 X-32.83947 Y156.78557
G01 X-32.83926 Y156.78738
G01 X-32.83947 Y156.78920
G01 X-32.83997 Y156.79096
G01 X-32.84084 Y156.79256
G01 X-32.84201 Y156.79398
G01 X-32.84343 Y156.79515
G01 X-32.84503 Y156.79601
G01 X-32.84678 Y156.79652
G01 X-32.85547 Y156.79738
G01 X-32.92717 Y156.79738
G01 X-32.95448 Y156.80008
G01 X-32.98074 Y156.80805
G01 X-33.00495 Y156.82098
G01 X-33.02616 Y156.83840
G01 X-33.04358 Y156.85961
G01 X-33.05651 Y156.88382
G01 X-33.06449 Y156.91008
G01 X-33.06718 Y156.93739
G01 X-33.06718 Y157.11737
G01 X-33.06416 Y157.14630
G01 X-33.05521 Y157.17399
G01 X-33.04074 Y157.19924
G01 X-33.02138 Y157.22093
G01 X-32.99794 Y157.23817
G01 X-32.97145 Y157.25019
G01 X-32.86852 Y157.28450
G01 X-32.84668 Y157.28989
G01 X-32.82425 Y157.29169
G01 X-32.75867 Y157.29169
G01 X-32.73624 Y157.28989
G01 X-32.71440 Y157.28450
G01 X-32.59964 Y157.24625
G01 X-32.57033 Y157.23254
G01 X-32.54493 Y157.21244
G01 X-32.47289 Y157.14041
G01 X-32.45831 Y157.12326
G01 X-32.44666 Y157.10401
G01 X-32.40777 Y157.02621
G01 X-32.39715 Y156.99756
G01 X-32.34851 Y156.80287
G01 X-32.34432 Y156.76893
G01 X-32.34432 Y156.63442
G01 X-32.34851 Y156.60048
G01 X-32.39715 Y156.40579
G01 X-32.40777 Y156.37711
G01 X-32.44666 Y156.29934
G01 X-32.45831 Y156.28011
G01 X-32.47287 Y156.26297
G01 X-32.54493 Y156.19093
G01 X-32.57033 Y156.17084
G01 X-32.59967 Y156.15710
G01 X-32.71440 Y156.11887
G01 X-32.73624 Y156.11349
G01 X-32.75867 Y156.11168
G01 X-32.87035 Y156.11168
G01 X-32.90251 Y156.11544
G01 X-32.93294 Y156.12647
G01 X-33.00939 Y156.16469
G01 X-33.01757 Y156.16782
G01 X-33.01938 Y156.16812
G01 X-33.02118 Y156.16807
G01 X-33.02298 Y156.16767
G01 X-33.02463 Y156.16690
G01 X-33.02613 Y156.16586
G01 X-33.02738 Y156.16454
G01 X-33.02837 Y156.16299
G01 X-33.02903 Y156.16127
G01 X-33.02933 Y156.15946
G01 X-33.02928 Y156.15766
G01 X-33.02887 Y156.15585
G01 X-33.02811 Y156.15420
G01 X-33.02707 Y156.15271
G01 X-33.02575 Y156.15146
G01 X-33.01833 Y156.14679
G01 X-32.91750 Y156.09637
G01 X-32.90782 Y156.09289
G01 X-32.89763 Y156.09169
G01 X-32.73995 Y156.09169
G01 X-32.73279 Y156.09228
G01 X-32.72583 Y156.09398
G01 X-32.56743 Y156.14676
G01 X-32.55814 Y156.15111
G01 X-32.55008 Y156.15748
G01 X-32.44551 Y156.26205
G01 X-32.44086 Y156.26754
G01 X-32.43713 Y156.27369
G01 X-32.38592 Y156.37605
G01 X-32.37988 Y156.39240
G01 X-32.32669 Y156.60521
G01 X-32.32433 Y156.62454
G04 P0 ( dwell for no time -- G64 should not smooth over this point )
G00 Z2.00000 ( retract )

G00 X-33.58148 Y156.10876 ( rapid move to begin. )
G01 F250.00000
( Mill infeed pass 1/1 )
G01 Z-0.20000
G04 P0 ( dwell for no time -- G64 should not smooth over this point )
G01 F500.00000
G01 X-33.58148 Y156.10876
G01 X-33.58148 Y157.29482
G01 X-33.58234 Y157.30350
G01 X-33.58285 Y157.30526
G01 X-33.58371 Y157.30686
G01 X-33.58488 Y157.30828
G01 X-33.58630 Y157.30945
G01 X-33.58790 Y157.31031
G01 X-33.58966 Y157.31082
G01 X-33.59148 Y157.31102
G01 X-33.59329 Y157.31082
G01 X-33.59504 Y157.31031
G01 X-33.59664 Y157.30945
G01 X-33.59806 Y157.30828
G01 X-33.59923 Y157.30686
G01 X-33.60010 Y157.30526
G01 X-33.60060 Y157.30350
G01 X-33.60147 Y157.29482
G01 X-33.60147 Y156.66652
G01 X-33.60431 Y156.63848
G01 X-33.61272 Y156.61158
G01 X-33.62633 Y156.58689
G01 X-33.64462 Y156.56543
G01 X-33.66685 Y156.54808
G01 X-33.69209 Y156.53553
G01 X-33.71935 Y156.52830
G01 X-33.74749 Y156.52667
G01 X-33.77541 Y156.53071
G01 X-33.80192 Y156.54026
G01 X-33.82600 Y156.55494
G01 X-33.84665 Y156.57414
G01 X-33.86304 Y156.59708
G01 X-34.26499 Y157.30051
G01 X-34.27020 Y157.30782
G01 X-34.27157 Y157.30909
G01 X-34.27317 Y157.31006
G01 X-34.27492 Y157.31069
G01 X-34.27678 Y157.31097
G01 X-34.27863 Y157.31084
G01 X-34.28043 Y157.31039
G01 X-34.28211 Y157.30955
G01 X-34.28358 Y157.30838
G01 X-34.28480 Y157.30696
G01 X-34.28572 Y157.30533
G01 X-34.28628 Y157.30355
G01 X-34.28717 Y157.29461
G01 X-34.28717 Y156.10856
G01 X-34.28630 Y156.09987
G01 X-34.28579 Y156.09812
G01 X-34.28493 Y156.09652
G01 X-34.28376 Y156.09510
G01 X-34.28234 Y156.09393
G01 X-34.28074 Y156.09307
G01 X-34.27899 Y156.09256
G01 X-34.27718 Y156.09235
G01 X-34.27535 Y156.09256
G01 X-34.27360 Y156.09307
G01 X-34.27200 Y156.09393
G01 X-34.27058 Y156.09510
G01 X-34.26941 Y156.09652
G01 X-34.26855 Y156.09812
G01 X-34.26804 Y156.09987
G01 X-34.26718 Y156.10856
G01 X-34.26718 Y156.73685
G01 X-34.26433 Y156.76490
G01 X-34.25592 Y156.79179
G01 X-34.24231 Y156.81648
G01 X-34.22402 Y156.83795
G01 X-34.20180 Y156.85529
G01 X-34.17655 Y156.86784
G01 X-34.14929 Y156.87508
G01 X-34.12115 Y156.87671
G01 X-34.09324 Y156.87267
G01 X-34.06672 Y156.86312
G01 X-34.04264 Y156.84844
G01 X-34.02199 Y156.82923
G01 X-34.00561 Y156.80630
G01 X-33.60365 Y156.10287
G01 X-33.59844 Y156.09556
G01 X-33.59707 Y156.09429
G01 X-33.59547 Y156.09332
G01 X-33.59372 Y156.09269
G01 X-33.59187 Y156.09241
G01 X-33.59001 Y156.09253
G01 X-33.58821 Y156.09299
G01 X-33.58653 Y156.09383
G01 X-33.58506 Y156.09500
G01 X-33.58384 Y156.09642
G01 X-33.58293 Y156.09804
G01 X-33.58237 Y156.09982
G01 X-33.58148 Y156.10876
G04 P0 ( dwell for no time -- G64 should not smooth over this point )
G00 Z2.00000 ( retract )

G00 X-34.85859 Y156.25169 ( rapid move to begin. )
G01 F250.00000
( Mill infeed pass 1/1 )
G01 Z-0.20000
G04 P0 ( dwell for no time -- G64 should not smooth over this point )
G01 F500.00000
G01 X-34.85859 Y156.25169
G01 X-34.86128 Y156.22438
G01 X-34.86926 Y156.19812
G01 X-34.88219 Y156.17391
G01 X-34.89961 Y156.15271
G01 X-34.92082 Y156.13528
G01 X-34.94503 Y156.12235
G01 X-34.97129 Y156.11438
G01 X-34.99859 Y156.11168
G01 X-35.10997 Y156.11168
G01 X-35.13240 Y156.11349
G01 X-35.15425 Y156.11887
G01 X-35.26898 Y156.15710
G01 X-35.29831 Y156.17084
G01 X-35.32371 Y156.19093
G01 X-35.39575 Y156.26297
G01 X-35.41033 Y156.28011
G01 X-35.42199 Y156.29936
G01 X-35.46087 Y156.37714
G01 X-35.47147 Y156.40579
G01 X-35.52013 Y156.60048
G01 X-35.52432 Y156.63444
G01 X-35.52432 Y156.76891
G01 X-35.52013 Y156.80287
G01 X-35.47147 Y156.99759
G01 X-35.46087 Y157.02621
G01 X-35.42199 Y157.10399
G01 X-35.41033 Y157.12326
G01 X-35.39575 Y157.14041
G01 X-35.32371 Y157.21244
G01 X-35.29831 Y157.23254
G01 X-35.26900 Y157.24625
G01 X-35.15425 Y157.28450
G01 X-35.13240 Y157.28989
G01 X-35.10997 Y157.29169
G01 X-34.99859 Y157.29169
G01 X-34.97129 Y157.28900
G01 X-34.94503 Y157.28102
G01 X-34.92082 Y157.26810
G01 X-34.89961 Y157.25067
G01 X-34.88219 Y157.22946
G01 X-34.86926 Y157.20526
G01 X-34.86128 Y157.17899
G01 X-34.85859 Y157.15169
G01 X-34.85859 Y156.25169
G04 P0 ( dwell for no time -- G64 should not smooth over this point )
G00 Z2.00000 ( retract )

G00 X-34.83860 Y156.10856 ( rapid move to begin. )
G01 F250.00000
( Mill infeed pass 1/1 )
G01 Z-0.20000
G04 P0 ( dwell for no time -- G64 should not smooth over this point )
G01 F500.00000
G01 X-34.83860 Y156.10856
G01 X-34.83946 Y156.09987
G01 X-34.83997 Y156.09812
G01 X-34.84083 Y156.09652
G01 X-34.84200 Y156.09510
G01 X-34.84343 Y156.09393
G01 X-34.84503 Y156.09307
G01 X-34.84678 Y156.09256
G01 X-34.85547 Y156.09169
G01 X-35.12869 Y156.09169
G01 X-35.13586 Y156.09228
G01 X-35.14282 Y156.09398
G01 X-35.30121 Y156.14676
G01 X-35.31051 Y156.15111
G01 X-35.31856 Y156.15748
G01 X-35.42313 Y156.26205
G01 X-35.42778 Y156.26754
G01 X-35.43151 Y156.27369
G01 X-35.48269 Y156.37607
G01 X-35.48874 Y156.39238
G01 X-35.54193 Y156.60521
G01 X-35.54431 Y156.62456
G01 X-35.54431 Y156.77879
G01 X-35.54193 Y156.79814
G01 X-35.48874 Y157.01097
G01 X-35.48269 Y157.02728
G01 X-35.43151 Y157.12969
G01 X-35.42778 Y157.13584
G01 X-35.42313 Y157.14132
G01 X-35.31856 Y157.24587
G01 X-35.31051 Y157.25225
G01 X-35.30121 Y157.25659
G01 X-35.14282 Y157.30940
G01 X-35.13586 Y157.31110
G01 X-35.12869 Y157.31168
G01 X-34.85547 Y157.31168
G01 X-34.84678 Y157.31082
G01 X-34.84503 Y157.31031
G01 X-34.84343 Y157.30945
G01 X-34.84200 Y157.30828
G01 X-34.84083 Y157.30686
G01 X-34.83997 Y157.30526
G01 X-34.83946 Y157.30350
G01 X-34.83860 Y157.29482
G01 X-34.83860 Y156.10856
G04 P0 ( dwell for no time -- G64 should not smooth over this point )
G00 Z2.00000 ( retract )

G00 X-7.18105 Y117.49167 ( rapid move to begin. )
G01 F250.00000
( Mill infeed pass 1/1 )
G01 Z-0.20000
G04 P0 ( dwell for no time -- G64 should not smooth over this point )
G01 F500.00000
G01 X-7.18105 Y117.49167
G01 X-7.18105 Y117.63513
G01 X-7.18481 Y117.66731
G01 X-7.19583 Y117.69774
G01 X-7.24053 Y117.78715
G01 X-7.25219 Y117.80640
G01 X-7.26677 Y117.82355
G01 X-7.30378 Y117.86055
G01 X-7.32093 Y117.87511
G01 X-7.34015 Y117.88677
G01 X-7.42959 Y117.93147
G01 X-7.46002 Y117.94249
G01 X-7.49220 Y117.94625
G01 X-7.87820 Y117.94625
G01 X-7.90551 Y117.94356
G01 X-7.93177 Y117.93559
G01 X-7.95598 Y117.92266
G01 X-7.97718 Y117.90523
G01 X-7.99461 Y117.88402
G01 X-8.00754 Y117.85982
G01 X-8.01551 Y117.83355
G01 X-8.01821 Y117.80625
G01 X-8.01821 Y117.32055
G01 X-8.01551 Y117.29325
G01 X-8.00754 Y117.26698
G01 X-7.99461 Y117.24278
G01 X-7.97718 Y117.22157
G01 X-7.95598 Y117.20414
G01 X-7.93177 Y117.19121
G01 X-7.90551 Y117.18324
G01 X-7.87820 Y117.18055
G01 X-7.49220 Y117.18055
G01 X-7.46002 Y117.18430
G01 X-7.42959 Y117.19533
G01 X-7.34015 Y117.24003
G01 X-7.32093 Y117.25169
G01 X-7.30378 Y117.26625
G01 X-7.26677 Y117.30325
G01 X-7.25219 Y117.32040
G01 X-7.24053 Y117.33965
G01 X-7.19583 Y117.42906
G01 X-7.18481 Y117.45949
G01 X-7.18105 Y117.49167
G04 P0 ( dwell for no time -- G64 should not smooth over this point )
G00 Z2.00000 ( retract )

G00 X-7.16106 Y117.46437 ( rapid move to begin. )
G01 F250.00000
( Mill infeed pass 1/1 )
G01 Z-0.20000
G04 P0 ( dwell for no time -- G64 should not smooth over this point )
G01 F500.00000
G01 X-7.16106 Y117.46437
G01 X-7.16106 Y117.66243
G01 X-7.16225 Y117.67262
G01 X-7.16573 Y117.68230
G01 X-7.23101 Y117.81283
G01 X-7.23474 Y117.81897
G01 X-7.23939 Y117.82446
G01 X-7.30287 Y117.88791
G01 X-7.30835 Y117.89256
G01 X-7.31450 Y117.89629
G01 X-7.44503 Y117.96157
G01 X-7.45471 Y117.96505
G01 X-7.46489 Y117.96624
G01 X-8.02133 Y117.96624
G01 X-8.03002 Y117.96538
G01 X-8.03177 Y117.96487
G01 X-8.03337 Y117.96401
G01 X-8.03479 Y117.96284
G01 X-8.03596 Y117.96142
G01 X-8.03682 Y117.95982
G01 X-8.03733 Y117.95806
G01 X-8.03820 Y117.94938
G01 X-8.03820 Y116.46312
G01 X-8.03733 Y116.45444
G01 X-8.03682 Y116.45268
G01 X-8.03596 Y116.45108
G01 X-8.03479 Y116.44966
G01 X-8.03337 Y116.44849
G01 X-8.03177 Y116.44763
G01 X-8.03002 Y116.44712
G01 X-8.02821 Y116.44692
G01 X-8.02638 Y116.44712
G01 X-8.02463 Y116.44763
G01 X-8.02303 Y116.44849
G01 X-8.02161 Y116.44966
G01 X-8.02044 Y116.45108
G01 X-8.01958 Y116.45268
G01 X-8.01907 Y116.45444
G01 X-8.01821 Y116.46312
G01 X-8.01821 Y117.02055
G01 X-8.01551 Y117.04786
G01 X-8.00754 Y117.07412
G01 X-7.99461 Y117.09833
G01 X-7.97718 Y117.11953
G01 X-7.95598 Y117.13696
G01 X-7.93177 Y117.14989
G01 X-7.90551 Y117.15786
G01 X-7.87820 Y117.16056
G01 X-7.46489 Y117.16056
G01 X-7.45471 Y117.16175
G01 X-7.44503 Y117.16523
G01 X-7.31450 Y117.23051
G01 X-7.30835 Y117.23424
G01 X-7.30287 Y117.23889
G01 X-7.23939 Y117.30234
G01 X-7.23474 Y117.30782
G01 X-7.23101 Y117.31397
G01 X-7.16573 Y117.44450
G01 X-7.16225 Y117.45418
G01 X-7.16106 Y117.46437
G04 P0 ( dwell for no time -- G64 should not smooth over this point )
G00 Z2.00000 ( retract )

G00 X-8.66105 Y116.75009 ( rapid move to begin. )
G01 F250.00000
( Mill infeed pass 1/1 )
G01 Z-0.20000
G04 P0 ( dwell for no time -- G64 should not smooth over this point )
G01 F500.00000
G01 X-8.66105 Y116.75009
G01 X-8.66225 Y116.73991
G01 X-8.66573 Y116.73023
G01 X-8.73103 Y116.59967
G01 X-8.73477 Y116.59353
G01 X-8.73941 Y116.58804
G01 X-8.80286 Y116.52459
G01 X-8.80835 Y116.51994
G01 X-8.81450 Y116.51621
G01 X-8.94503 Y116.45093
G01 X-8.95470 Y116.44745
G01 X-8.96489 Y116.44626
G01 X-9.30830 Y116.44626
G01 X-9.31546 Y116.44684
G01 X-9.32242 Y116.44854
G01 X-9.52483 Y116.51601
G01 X-9.53281 Y116.51959
G01 X-9.53431 Y116.52063
G01 X-9.53555 Y116.52195
G01 X-9.53654 Y116.52350
G01 X-9.53718 Y116.52523
G01 X-9.53751 Y116.52700
G01 X-9.53746 Y116.52883
G01 X-9.53705 Y116.53064
G01 X-9.53629 Y116.53229
G01 X-9.53525 Y116.53379
G01 X-9.53393 Y116.53503
G01 X-9.53238 Y116.53602
G01 X-9.53065 Y116.53666
G01 X-9.52887 Y116.53699
G01 X-9.52704 Y116.53693
G01 X-9.51851 Y116.53498
G01 X-9.33385 Y116.47343
G01 X-9.31201 Y116.46805
G01 X-9.28958 Y116.46625
G01 X-8.99219 Y116.46625
G01 X-8.96001 Y116.47001
G01 X-8.92958 Y116.48103
G01 X-8.84018 Y116.52573
G01 X-8.82092 Y116.53739
G01 X-8.80378 Y116.55197
G01 X-8.76677 Y116.58895
G01 X-8.75222 Y116.60610
G01 X-8.74056 Y116.62535
G01 X-8.69583 Y116.71479
G01 X-8.68480 Y116.74521
G01 X-8.68104 Y116.77740
G01 X-8.68104 Y116.84941
G01 X-8.68480 Y116.88159
G01 X-8.69583 Y116.91204
G01 X-8.74056 Y117.00145
G01 X-8.75219 Y117.02068
G01 X-8.76677 Y117.03780
G01 X-8.80380 Y117.07483
G01 X-8.82092 Y117.08941
G01 X-8.84015 Y117.10104
G01 X-8.94650 Y117.15423
G01 X-8.97518 Y117.16485
G01 X-9.23748 Y117.23041
G01 X-9.25381 Y117.23645
G01 X-9.38478 Y117.30193
G01 X-9.39092 Y117.30567
G01 X-9.39641 Y117.31031
G01 X-9.45986 Y117.37376
G01 X-9.46451 Y117.37925
G01 X-9.46824 Y117.38540
G01 X-9.53352 Y117.51593
G01 X-9.53700 Y117.52560
G01 X-9.53819 Y117.53579
G01 X-9.53819 Y117.66243
G01 X-9.53700 Y117.67262
G01 X-9.53352 Y117.68230
G01 X-9.46824 Y117.81283
G01 X-9.46451 Y117.81897
G01 X-9.45986 Y117.82446
G01 X-9.39641 Y117.88791
G01 X-9.39092 Y117.89256
G01 X-9.38478 Y117.89629
G01 X-9.25425 Y117.96157
G01 X-9.24457 Y117.96505
G01 X-9.23438 Y117.96624
G01 X-8.89098 Y117.96624
G01 X-8.88381 Y117.96566
G01 X-8.87685 Y117.96396
G01 X-8.67442 Y117.89650
G01 X-8.66644 Y117.89291
G01 X-8.66494 Y117.89187
G01 X-8.66370 Y117.89055
G01 X-8.66271 Y117.88900
G01 X-8.66207 Y117.88728
G01 X-8.66174 Y117.88550
G01 X-8.66179 Y117.88367
G01 X-8.66220 Y117.88186
G01 X-8.66296 Y117.88021
G01 X-8.66400 Y117.87872
G01 X-8.66532 Y117.87747
G01 X-8.66687 Y117.87648
G01 X-8.66860 Y117.87585
G01 X-8.67038 Y117.87551
G01 X-8.67221 Y117.87557
G01 X-8.68074 Y117.87752
G01 X-8.86542 Y117.93907
G01 X-8.88727 Y117.94445
G01 X-8.90970 Y117.94625
G01 X-9.20708 Y117.94625
G01 X-9.23926 Y117.94249
G01 X-9.26969 Y117.93147
G01 X-9.35910 Y117.88677
G01 X-9.37835 Y117.87511
G01 X-9.39550 Y117.86053
G01 X-9.43248 Y117.82355
G01 X-9.44706 Y117.80640
G01 X-9.45872 Y117.78715
G01 X-9.50342 Y117.69774
G01 X-9.51444 Y117.66731
G01 X-9.51820 Y117.63513
G01 X-9.51820 Y117.56309
G01 X-9.51444 Y117.53091
G01 X-9.50342 Y117.50048
G01 X-9.45872 Y117.41108
G01 X-9.44706 Y117.39182
G01 X-9.43248 Y117.37468
G01 X-9.39550 Y117.33770
G01 X-9.37835 Y117.32312
G01 X-9.35910 Y117.31146
G01 X-9.25275 Y117.25829
G01 X-9.22410 Y117.24768
G01 X-8.96179 Y117.18212
G01 X-8.94543 Y117.17607
G01 X-8.81450 Y117.11057
G01 X-8.80835 Y117.10683
G01 X-8.80286 Y117.10219
G01 X-8.73941 Y117.03874
G01 X-8.73477 Y117.03325
G01 X-8.73103 Y117.02710
G01 X-8.66573 Y116.89657
G01 X-8.66225 Y116.88690
G01 X-8.66105 Y116.87671
G01 X-8.66105 Y116.75009
G04 P0 ( dwell for no time -- G64 should not smooth over this point )
G00 Z2.00000 ( retract )

G00 X-10.16108 Y116.46312 ( rapid move to begin. )
G01 F250.00000
( Mill infeed pass 1/1 )
G01 Z-0.20000
G04 P0 ( dwell for no time -- G64 should not smooth over this point )
G01 F500.00000
G01 X-10.16108 Y116.46312
G01 X-10.16194 Y116.45444
G01 X-10.16245 Y116.45268
G01 X-10.16331 Y116.45108
G01 X-10.16448 Y116.44966
G01 X-10.16590 Y116.44849
G01 X-10.16750 Y116.44763
G01 X-10.16926 Y116.44712
G01 X-10.17108 Y116.44692
G01 X-10.17289 Y116.44712
G01 X-10.17464 Y116.44763
G01 X-10.17624 Y116.44849
G01 X-10.17766 Y116.44966
G01 X-10.17883 Y116.45108
G01 X-10.17970 Y116.45268
G01 X-10.18020 Y116.45444
G01 X-10.18107 Y116.46312
G01 X-10.18107 Y117.94938
G01 X-10.18020 Y117.95806
G01 X-10.17970 Y117.95982
G01 X-10.17883 Y117.96142
G01 X-10.17766 Y117.96284
G01 X-10.17624 Y117.96401
G01 X-10.17464 Y117.96487
G01 X-10.17289 Y117.96538
G01 X-10.17108 Y117.96558
G01 X-10.16926 Y117.96538
G01 X-10.16750 Y117.96487
G01 X-10.16590 Y117.96401
G01 X-10.16448 Y117.96284
G01 X-10.16331 Y117.96142
G01 X-10.16245 Y117.95982
G01 X-10.16194 Y117.95806
G01 X-10.16108 Y117.94938
G01 X-10.16108 Y116.46312
G04 P0 ( dwell for no time -- G64 should not smooth over this point )
G00 Z2.00000 ( retract )

G00 X-25.18866 Y112.31736 ( rapid move to begin. )
G01 F250.00000
( Mill infeed pass 1/1 )
G01 Z-0.20000
G04 P0 ( dwell for no time -- G64 should not smooth over this point )
G01 F500.00000
G01 X-25.18866 Y112.31736
G01 X-25.18886 Y112.31553
G01 X-25.19150 Y112.30715
G01 X-25.82894 Y110.81983
G01 X-25.83316 Y110.81218
G01 X-25.83432 Y110.81078
G01 X-25.83575 Y110.80964
G01 X-25.83737 Y110.80880
G01 X-25.83913 Y110.80829
G01 X-25.84095 Y110.80812
G01 X-25.84276 Y110.80832
G01 X-25.84451 Y110.80888
G01 X-25.84611 Y110.80977
G01 X-25.84751 Y110.81094
G01 X-25.84865 Y110.81236
G01 X-25.84949 Y110.81398
G01 X-25.85000 Y110.81574
G01 X-25.85017 Y110.81757
G01 X-25.84997 Y110.81937
G01 X-25.84733 Y110.82770
G01 X-25.29676 Y112.11231
G01 X-25.28845 Y112.13862
G01 X-25.28546 Y112.16608
G01 X-25.28792 Y112.19359
G01 X-25.29572 Y112.22008
G01 X-25.30857 Y112.24451
G01 X-25.32597 Y112.26595
G01 X-25.34725 Y112.28358
G01 X-25.37156 Y112.29666
G01 X-25.39798 Y112.30474
G01 X-25.42546 Y112.30745
G01 X-26.19109 Y112.30745
G01 X-26.19978 Y112.30832
G01 X-26.20153 Y112.30883
G01 X-26.20313 Y112.30969
G01 X-26.20456 Y112.31086
G01 X-26.20572 Y112.31228
G01 X-26.20659 Y112.31388
G01 X-26.20710 Y112.31563
G01 X-26.20730 Y112.31744
G01 X-26.20710 Y112.31926
G01 X-26.20659 Y112.32102
G01 X-26.20572 Y112.32262
G01 X-26.20456 Y112.32404
G01 X-26.20313 Y112.32521
G01 X-26.20153 Y112.32607
G01 X-26.19978 Y112.32658
G01 X-26.19109 Y112.32744
G01 X-25.20489 Y112.32744
G01 X-25.19615 Y112.32658
G01 X-25.19437 Y112.32605
G01 X-25.19277 Y112.32518
G01 X-25.19135 Y112.32401
G01 X-25.19018 Y112.32257
G01 X-25.18934 Y112.32094
G01 X-25.18881 Y112.31919
G01 X-25.18866 Y112.31736
G04 P0 ( dwell for no time -- G64 should not smooth over this point )
G00 Z2.00000 ( retract )

G00 X-26.68797 Y111.46890 ( rapid move to begin. )
G01 F250.00000
( Mill infeed pass 1/1 )
G01 Z-0.20000
G04 P0 ( dwell for no time -- G64 should not smooth over this point )
G01 F500.00000
G01 X-26.68797 Y111.46890
G01 X-26.69036 Y111.44954
G01 X-26.75784 Y111.17959
G01 X-26.76389 Y111.16329
G01 X-26.82937 Y111.03232
G01 X-26.83310 Y111.02618
G01 X-26.83775 Y111.02069
G01 X-26.97087 Y110.88754
G01 X-26.97892 Y110.88117
G01 X-26.98822 Y110.87682
G01 X-27.18949 Y110.80974
G01 X-27.19645 Y110.80804
G01 X-27.20361 Y110.80746
G01 X-27.54824 Y110.80746
G01 X-27.55693 Y110.80832
G01 X-27.55868 Y110.80883
G01 X-27.56028 Y110.80969
G01 X-27.56170 Y110.81086
G01 X-27.56287 Y110.81228
G01 X-27.56373 Y110.81388
G01 X-27.56424 Y110.81564
G01 X-27.56511 Y110.82432
G01 X-27.56511 Y112.31058
G01 X-27.56424 Y112.31926
G01 X-27.56373 Y112.32102
G01 X-27.56287 Y112.32262
G01 X-27.56170 Y112.32404
G01 X-27.56028 Y112.32521
G01 X-27.55868 Y112.32607
G01 X-27.55693 Y112.32658
G01 X-27.54824 Y112.32744
G01 X-27.20361 Y112.32744
G01 X-27.19645 Y112.32686
G01 X-27.18949 Y112.32516
G01 X-26.98822 Y112.25808
G01 X-26.97892 Y112.25373
G01 X-26.97087 Y112.24736
G01 X-26.83775 Y112.11424
G01 X-26.83310 Y112.10875
G01 X-26.82937 Y112.10260
G01 X-26.76389 Y111.97162
G01 X-26.75784 Y111.95531
G01 X-26.69036 Y111.68536
G01 X-26.68797 Y111.66600
G01 X-26.68797 Y111.46890
G04 P0 ( dwell for no time -- G64 should not smooth over this point )
G00 Z2.00000 ( retract )

G00 X-26.70796 Y111.47878 ( rapid move to begin. )
G01 F250.00000
( Mill infeed pass 1/1 )
G01 Z-0.20000
G04 P0 ( dwell for no time -- G64 should not smooth over this point )
G01 F500.00000
G01 X-26.70796 Y111.47878
G01 X-26.71215 Y111.44479
G01 X-26.77512 Y111.19300
G01 X-26.78571 Y111.16435
G01 X-26.83889 Y111.05798
G01 X-26.85055 Y111.03875
G01 X-26.86511 Y111.02160
G01 X-26.96572 Y110.92099
G01 X-26.99112 Y110.90090
G01 X-27.02045 Y110.88716
G01 X-27.17806 Y110.83463
G01 X-27.19990 Y110.82925
G01 X-27.22233 Y110.82745
G01 X-27.40511 Y110.82745
G01 X-27.43242 Y110.83014
G01 X-27.45868 Y110.83811
G01 X-27.48289 Y110.85104
G01 X-27.50410 Y110.86847
G01 X-27.52152 Y110.88968
G01 X-27.53445 Y110.91388
G01 X-27.54242 Y110.94015
G01 X-27.54512 Y110.96745
G01 X-27.54512 Y112.16745
G01 X-27.54242 Y112.19475
G01 X-27.53445 Y112.22102
G01 X-27.52152 Y112.24522
G01 X-27.50410 Y112.26643
G01 X-27.48289 Y112.28386
G01 X-27.45868 Y112.29679
G01 X-27.43242 Y112.30476
G01 X-27.40511 Y112.30745
G01 X-27.22233 Y112.30745
G01 X-27.19990 Y112.30565
G01 X-27.17806 Y112.30027
G01 X-27.02045 Y112.24774
G01 X-26.99112 Y112.23400
G01 X-26.96572 Y112.21391
G01 X-26.86513 Y112.11332
G01 X-26.85055 Y112.09618
G01 X-26.83889 Y112.07692
G01 X-26.78571 Y111.97055
G01 X-26.77512 Y111.94192
G01 X-26.71215 Y111.69011
G01 X-26.70796 Y111.65612
G01 X-26.70796 Y111.47878
G04 P0 ( dwell for no time -- G64 should not smooth over this point )
G00 Z2.00000 ( retract )

G00 X-28.18799 Y111.82557 ( rapid move to begin. )
G01 F250.00000
( Mill infeed pass 1/1 )
G01 Z-0.20000
G04 P0 ( dwell for no time -- G64 should not smooth over this point )
G01 F500.00000
G01 X-28.18799 Y111.82557
G01 X-28.18918 Y111.81538
G01 X-28.19266 Y111.80570
G01 X-28.25794 Y111.67517
G01 X-28.26168 Y111.66902
G01 X-28.26632 Y111.66354
G01 X-28.32977 Y111.60009
G01 X-28.33526 Y111.59544
G01 X-28.34141 Y111.59171
G01 X-28.47194 Y111.52643
G01 X-28.48161 Y111.52295
G01 X-28.49180 Y111.52176
G01 X-28.90511 Y111.52176
G01 X-28.93241 Y111.51906
G01 X-28.95868 Y111.51109
G01 X-28.98288 Y111.49816
G01 X-29.00409 Y111.48073
G01 X-29.02152 Y111.45953
G01 X-29.03445 Y111.43532
G01 X-29.04242 Y111.40906
G01 X-29.04511 Y111.38175
G01 X-29.04511 Y110.82432
G01 X-29.04598 Y110.81564
G01 X-29.04649 Y110.81388
G01 X-29.04735 Y110.81228
G01 X-29.04852 Y110.81086
G01 X-29.04994 Y110.80969
G01 X-29.05154 Y110.80883
G01 X-29.05329 Y110.80832
G01 X-29.05512 Y110.80812
G01 X-29.05692 Y110.80832
G01 X-29.05868 Y110.80883
G01 X-29.06028 Y110.80969
G01 X-29.06170 Y110.81086
G01 X-29.06287 Y110.81228
G01 X-29.06373 Y110.81388
G01 X-29.06424 Y110.81564
G01 X-29.06510 Y110.82432
G01 X-29.06510 Y112.31058
G01 X-29.06424 Y112.31926
G01 X-29.06373 Y112.32102
G01 X-29.06287 Y112.32262
G01 X-29.06170 Y112.32404
G01 X-29.06028 Y112.32521
G01 X-29.05868 Y112.32607
G01 X-29.05692 Y112.32658
G01 X-29.04824 Y112.32744
G01 X-28.49180 Y112.32744
G01 X-28.48161 Y112.32625
G01 X-28.47194 Y112.32277
G01 X-28.34141 Y112.25749
G01 X-28.33526 Y112.25376
G01 X-28.32977 Y112.24911
G01 X-28.26632 Y112.18566
G01 X-28.26168 Y112.18017
G01 X-28.25794 Y112.17403
G01 X-28.19266 Y112.04350
G01 X-28.18918 Y112.03382
G01 X-28.18799 Y112.02363
G01 X-28.18799 Y111.82557
G04 P0 ( dwell for no time -- G64 should not smooth over this point )
G00 Z2.00000 ( retract )

G00 X-28.20798 Y111.85287 ( rapid move to begin. )
G01 F250.00000
( Mill infeed pass 1/1 )
G01 Z-0.20000
G04 P0 ( dwell for no time -- G64 should not smooth over this point )
G01 F500.00000
G01 X-28.20798 Y111.85287
G01 X-28.21174 Y111.82069
G01 X-28.22276 Y111.79026
G01 X-28.26747 Y111.70085
G01 X-28.27913 Y111.68160
G01 X-28.29371 Y111.66445
G01 X-28.33069 Y111.62747
G01 X-28.34783 Y111.61289
G01 X-28.36709 Y111.60123
G01 X-28.45649 Y111.55653
G01 X-28.48692 Y111.54550
G01 X-28.51910 Y111.54175
G01 X-28.90511 Y111.54175
G01 X-28.93241 Y111.54444
G01 X-28.95868 Y111.55241
G01 X-28.98288 Y111.56534
G01 X-29.00409 Y111.58277
G01 X-29.02152 Y111.60398
G01 X-29.03445 Y111.62818
G01 X-29.04242 Y111.65445
G01 X-29.04511 Y111.68175
G01 X-29.04511 Y112.16745
G01 X-29.04242 Y112.19475
G01 X-29.03445 Y112.22102
G01 X-29.02152 Y112.24522
G01 X-29.00409 Y112.26643
G01 X-28.98288 Y112.28386
G01 X-28.95868 Y112.29679
G01 X-28.93241 Y112.30476
G01 X-28.90511 Y112.30745
G01 X-28.51910 Y112.30745
G01 X-28.48692 Y112.30369
G01 X-28.45649 Y112.29267
G01 X-28.36709 Y112.24797
G01 X-28.34783 Y112.23631
G01 X-28.33069 Y112.22173
G01 X-28.29371 Y112.18475
G01 X-28.27913 Y112.16760
G01 X-28.26747 Y112.14835
G01 X-28.22276 Y112.05894
G01 X-28.21174 Y112.02851
G01 X-28.20798 Y111.99633
G01 X-28.20798 Y111.85287
G04 P0 ( dwell for no time -- G64 should not smooth over this point )
G00 Z2.00000 ( retract )

G00 X-39.48340 Y113.39729 ( rapid move to begin. )
G01 F250.00000
( Mill infeed pass 1/1 )
G01 Z-0.20000
G04 P0 ( dwell for no time -- G64 should not smooth over this point )
G01 F500.00000
G01 X-39.48340 Y113.39729
G01 X-39.48456 Y113.38711
G01 X-39.48807 Y113.37743
G01 X-39.55337 Y113.24687
G01 X-39.55711 Y113.24073
G01 X-39.56175 Y113.23524
G01 X-39.62518 Y113.17179
G01 X-39.63064 Y113.16714
G01 X-39.63681 Y113.16341
G01 X-39.76732 Y113.09813
G01 X-39.77699 Y113.09465
G01 X-39.78718 Y113.09346
G01 X-40.05670 Y113.09346
G01 X-40.06688 Y113.09465
G01 X-40.07656 Y113.09813
G01 X-40.20712 Y113.16341
G01 X-40.21326 Y113.16714
G01 X-40.21875 Y113.17179
G01 X-40.28218 Y113.23524
G01 X-40.28682 Y113.24073
G01 X-40.29056 Y113.24687
G01 X-40.35586 Y113.37743
G01 X-40.35931 Y113.38711
G01 X-40.36053 Y113.39729
G01 X-40.36053 Y113.95200
G01 X-40.35815 Y113.97136
G01 X-40.29025 Y114.24291
G01 X-40.28776 Y114.25015
G01 X-40.28408 Y114.25683
G01 X-40.14839 Y114.46038
G01 X-40.13844 Y114.47258
G01 X-40.07590 Y114.53511
G01 X-40.07042 Y114.53976
G01 X-40.06427 Y114.54349
G01 X-39.93366 Y114.60877
G01 X-39.92401 Y114.61225
G01 X-39.91382 Y114.61344
G01 X-39.64311 Y114.61344
G01 X-39.63442 Y114.61258
G01 X-39.63267 Y114.61207
G01 X-39.63107 Y114.61121
G01 X-39.62965 Y114.61004
G01 X-39.62848 Y114.60862
G01 X-39.62762 Y114.60702
G01 X-39.62708 Y114.60526
G01 X-39.62691 Y114.60344
G01 X-39.62708 Y114.60163
G01 X-39.62762 Y114.59988
G01 X-39.62848 Y114.59828
G01 X-39.62965 Y114.59686
G01 X-39.63107 Y114.59569
G01 X-39.63267 Y114.59483
G01 X-39.63442 Y114.59432
G01 X-39.64311 Y114.59345
G01 X-39.88654 Y114.59345
G01 X-39.91870 Y114.58969
G01 X-39.94913 Y114.57867
G01 X-40.03859 Y114.53397
G01 X-40.05784 Y114.52231
G01 X-40.07496 Y114.50773
G01 X-40.11868 Y114.46404
G01 X-40.13618 Y114.44268
G01 X-40.25634 Y114.26236
G01 X-40.26790 Y114.24136
G01 X-40.27570 Y114.21868
G01 X-40.28212 Y114.19297
G01 X-40.28606 Y114.16671
G01 X-40.28502 Y114.14017
G01 X-40.27895 Y114.11431
G01 X-40.26813 Y114.09008
G01 X-40.25294 Y114.06831
G01 X-40.23392 Y114.04979
G01 X-40.21172 Y114.03521
G01 X-40.18713 Y114.02510
G01 X-40.16112 Y114.01979
G01 X-40.13460 Y114.01949
G01 X-40.10846 Y114.02421
G01 X-40.08367 Y114.03379
G01 X-40.07656 Y114.03735
G01 X-40.06688 Y114.04083
G01 X-40.05670 Y114.04202
G01 X-39.78718 Y114.04202
G01 X-39.77699 Y114.04083
G01 X-39.76732 Y114.03735
G01 X-39.63681 Y113.97207
G01 X-39.63064 Y113.96833
G01 X-39.62518 Y113.96369
G01 X-39.56175 Y113.90024
G01 X-39.55711 Y113.89475
G01 X-39.55337 Y113.88860
G01 X-39.48807 Y113.75805
G01 X-39.48456 Y113.74837
G01 X-39.48340 Y113.73819
G01 X-39.48340 Y113.39729
G04 P0 ( dwell for no time -- G64 should not smooth over this point )
G00 Z2.00000 ( retract )

G00 X-39.50339 Y113.42460 ( rapid move to begin. )
G01 F250.00000
( Mill infeed pass 1/1 )
G01 Z-0.20000
G04 P0 ( dwell for no time -- G64 should not smooth over this point )
G01 F500.00000
G01 X-39.50339 Y113.42460
G01 X-39.50714 Y113.39241
G01 X-39.51814 Y113.36199
G01 X-39.56290 Y113.27253
G01 X-39.57453 Y113.25330
G01 X-39.58911 Y113.23618
G01 X-39.62609 Y113.19917
G01 X-39.64321 Y113.18459
G01 X-39.66249 Y113.17293
G01 X-39.75190 Y113.12823
G01 X-39.78233 Y113.11721
G01 X-39.81451 Y113.11345
G01 X-40.02942 Y113.11345
G01 X-40.06160 Y113.11721
G01 X-40.09203 Y113.12823
G01 X-40.18144 Y113.17293
G01 X-40.20067 Y113.18459
G01 X-40.21784 Y113.19917
G01 X-40.25482 Y113.23618
G01 X-40.26940 Y113.25330
G01 X-40.28103 Y113.27253
G01 X-40.32576 Y113.36199
G01 X-40.33678 Y113.39241
G01 X-40.34054 Y113.42460
G01 X-40.34054 Y113.71088
G01 X-40.33678 Y113.74306
G01 X-40.32576 Y113.77349
G01 X-40.28103 Y113.86295
G01 X-40.26940 Y113.88218
G01 X-40.25482 Y113.89930
G01 X-40.21784 Y113.93631
G01 X-40.20067 Y113.95088
G01 X-40.18144 Y113.96254
G01 X-40.09203 Y114.00725
G01 X-40.06160 Y114.01827
G01 X-40.02942 Y114.02203
G01 X-39.81451 Y114.02203
G01 X-39.78233 Y114.01827
G01 X-39.75190 Y114.00725
G01 X-39.66249 Y113.96254
G01 X-39.64321 Y113.95088
G01 X-39.62609 Y113.93631
G01 X-39.58911 Y113.89930
G01 X-39.57453 Y113.88218
G01 X-39.56290 Y113.86295
G01 X-39.51814 Y113.77349
G01 X-39.50714 Y113.74306
G01 X-39.50339 Y113.71088
G01 X-39.50339 Y113.42460
G04 P0 ( dwell for no time -- G64 should not smooth over this point )
G00 Z2.00000 ( retract )

G00 X-40.91194 Y113.75490 ( rapid move to begin. )
G01 F250.00000
( Mill infeed pass 1/1 )
G01 Z-0.20000
G04 P0 ( dwell for no time -- G64 should not smooth over this point )
G01 F500.00000
G01 X-40.91194 Y113.75490
G01 X-40.91433 Y113.73554
G01 X-40.98182 Y113.46559
G01 X-40.98789 Y113.44929
G01 X-41.05334 Y113.31832
G01 X-41.05710 Y113.31218
G01 X-41.06173 Y113.30669
G01 X-41.19487 Y113.17354
G01 X-41.20293 Y113.16717
G01 X-41.21222 Y113.16282
G01 X-41.41341 Y113.09574
G01 X-41.42040 Y113.09404
G01 X-41.42756 Y113.09346
G01 X-41.77222 Y113.09346
G01 X-41.78090 Y113.09432
G01 X-41.78268 Y113.09483
G01 X-41.78428 Y113.09569
G01 X-41.78570 Y113.09686
G01 X-41.78687 Y113.09828
G01 X-41.78773 Y113.09988
G01 X-41.78824 Y113.10164
G01 X-41.78911 Y113.11032
G01 X-41.78911 Y114.59658
G01 X-41.78824 Y114.60526
G01 X-41.78773 Y114.60702
G01 X-41.78687 Y114.60862
G01 X-41.78570 Y114.61004
G01 X-41.78428 Y114.61121
G01 X-41.78268 Y114.61207
G01 X-41.78090 Y114.61258
G01 X-41.77222 Y114.61344
G01 X-41.42756 Y114.61344
G01 X-41.42040 Y114.61286
G01 X-41.41341 Y114.61116
G01 X-41.21222 Y114.54408
G01 X-41.20293 Y114.53973
G01 X-41.19487 Y114.53336
G01 X-41.06173 Y114.40024
G01 X-41.05710 Y114.39475
G01 X-41.05334 Y114.38860
G01 X-40.98789 Y114.25762
G01 X-40.98182 Y114.24131
G01 X-40.91433 Y113.97136
G01 X-40.91194 Y113.95200
G01 X-40.91194 Y113.75490
G04 P0 ( dwell for no time -- G64 should not smooth over this point )
G00 Z2.00000 ( retract )

G00 X-40.93193 Y113.76478 ( rapid move to begin. )
G01 F250.00000
( Mill infeed pass 1/1 )
G01 Z-0.20000
G04 P0 ( dwell for no time -- G64 should not smooth over this point )
G01 F500.00000
G01 X-40.93193 Y113.76478
G01 X-40.93612 Y113.73079
G01 X-40.99909 Y113.47898
G01 X-41.00971 Y113.45035
G01 X-41.06287 Y113.34398
G01 X-41.07455 Y113.32475
G01 X-41.08911 Y113.30760
G01 X-41.18972 Y113.20699
G01 X-41.21512 Y113.18688
G01 X-41.24443 Y113.17316
G01 X-41.40201 Y113.12063
G01 X-41.42385 Y113.11525
G01 X-41.44628 Y113.11345
G01 X-41.62911 Y113.11345
G01 X-41.65642 Y113.11614
G01 X-41.68268 Y113.12411
G01 X-41.70689 Y113.13704
G01 X-41.72810 Y113.15447
G01 X-41.74552 Y113.17568
G01 X-41.75845 Y113.19988
G01 X-41.76640 Y113.22615
G01 X-41.76912 Y113.25345
G01 X-41.76912 Y114.45345
G01 X-41.76640 Y114.48075
G01 X-41.75845 Y114.50702
G01 X-41.74552 Y114.53122
G01 X-41.72810 Y114.55243
G01 X-41.70689 Y114.56986
G01 X-41.68268 Y114.58279
G01 X-41.65642 Y114.59076
G01 X-41.62911 Y114.59345
G01 X-41.44628 Y114.59345
G01 X-41.42385 Y114.59165
G01 X-41.40201 Y114.58627
G01 X-41.24443 Y114.53374
G01 X-41.21512 Y114.52002
G01 X-41.18972 Y114.49991
G01 X-41.08913 Y114.39932
G01 X-41.07455 Y114.38218
G01 X-41.06287 Y114.36292
G01 X-41.00971 Y114.25655
G01 X-40.99909 Y114.22792
G01 X-40.93612 Y113.97611
G01 X-40.93193 Y113.94212
G01 X-40.93193 Y113.76478
G04 P0 ( dwell for no time -- G64 should not smooth over this point )
G00 Z2.00000 ( retract )

G00 X-42.41199 Y114.11157 ( rapid move to begin. )
G01 F250.00000
( Mill infeed pass 1/1 )
G01 Z-0.20000
G04 P0 ( dwell for no time -- G64 should not smooth over this point )
G01 F500.00000
G01 X-42.41199 Y114.11157
G01 X-42.41318 Y114.10138
G01 X-42.41666 Y114.09170
G01 X-42.48194 Y113.96117
G01 X-42.48568 Y113.95502
G01 X-42.49032 Y113.94954
G01 X-42.55377 Y113.88609
G01 X-42.55926 Y113.88144
G01 X-42.56541 Y113.87771
G01 X-42.69594 Y113.81243
G01 X-42.70561 Y113.80895
G01 X-42.71580 Y113.80776
G01 X-43.12911 Y113.80776
G01 X-43.15641 Y113.80506
G01 X-43.18268 Y113.79709
G01 X-43.20688 Y113.78416
G01 X-43.22809 Y113.76673
G01 X-43.24552 Y113.74553
G01 X-43.25845 Y113.72132
G01 X-43.26642 Y113.69506
G01 X-43.26911 Y113.66775
G01 X-43.26911 Y113.11032
G01 X-43.26998 Y113.10164
G01 X-43.27048 Y113.09988
G01 X-43.27135 Y113.09828
G01 X-43.27252 Y113.09686
G01 X-43.27394 Y113.09569
G01 X-43.27554 Y113.09483
G01 X-43.27729 Y113.09432
G01 X-43.27912 Y113.09412
G01 X-43.28092 Y113.09432
G01 X-43.28268 Y113.09483
G01 X-43.28428 Y113.09569
G01 X-43.28570 Y113.09686
G01 X-43.28687 Y113.09828
G01 X-43.28773 Y113.09988
G01 X-43.28824 Y113.10164
G01 X-43.28910 Y113.11032
G01 X-43.28910 Y114.59658
G01 X-43.28824 Y114.60526
G01 X-43.28773 Y114.60702
G01 X-43.28687 Y114.60862
G01 X-43.28570 Y114.61004
G01 X-43.28428 Y114.61121
G01 X-43.28268 Y114.61207
G01 X-43.28092 Y114.61258
G01 X-43.27224 Y114.61344
G01 X-42.71580 Y114.61344
G01 X-42.70561 Y114.61225
G01 X-42.69594 Y114.60877
G01 X-42.56541 Y114.54349
G01 X-42.55926 Y114.53976
G01 X-42.55377 Y114.53511
G01 X-42.49032 Y114.47166
G01 X-42.48568 Y114.46617
G01 X-42.48194 Y114.46003
G01 X-42.41666 Y114.32950
G01 X-42.41318 Y114.31982
G01 X-42.41199 Y114.30963
G01 X-42.41199 Y114.11157
G04 P0 ( dwell for no time -- G64 should not smooth over this point )
G00 Z2.00000 ( retract )

G00 X-42.43198 Y114.13887 ( rapid move to begin. )
G01 F250.00000
( Mill infeed pass 1/1 )
G01 Z-0.20000
G04 P0 ( dwell for no time -- G64 should not smooth over this point )
G01 F500.00000
G01 X-42.43198 Y114.13887
G01 X-42.43574 Y114.10669
G01 X-42.44676 Y114.07626
G01 X-42.49147 Y113.98685
G01 X-42.50313 Y113.96760
G01 X-42.51771 Y113.95045
G01 X-42.55469 Y113.91347
G01 X-42.57183 Y113.89889
G01 X-42.59109 Y113.88723
G01 X-42.68049 Y113.84253
G01 X-42.71092 Y113.83150
G01 X-42.74310 Y113.82775
G01 X-43.12911 Y113.82775
G01 X-43.15641 Y113.83044
G01 X-43.18268 Y113.83841
G01 X-43.20688 Y113.85134
G01 X-43.22809 Y113.86877
G01 X-43.24552 Y113.88998
G01 X-43.25845 Y113.91418
G01 X-43.26642 Y113.94045
G01 X-43.26911 Y113.96775
G01 X-43.26911 Y114.45345
G01 X-43.26642 Y114.48075
G01 X-43.25845 Y114.50702
G01 X-43.24552 Y114.53122
G01 X-43.22809 Y114.55243
G01 X-43.20688 Y114.56986
G01 X-43.18268 Y114.58279
G01 X-43.15641 Y114.59076
G01 X-43.12911 Y114.59345
G01 X-42.74310 Y114.59345
G01 X-42.71092 Y114.58969
G01 X-42.68049 Y114.57867
G01 X-42.59109 Y114.53397
G01 X-42.57183 Y114.52231
G01 X-42.55469 Y114.50773
G01 X-42.51771 Y114.47075
G01 X-42.50313 Y114.45360
G01 X-42.49147 Y114.43435
G01 X-42.44676 Y114.34494
G01 X-42.43574 Y114.31451
G01 X-42.43198 Y114.28233
G01 X-42.43198 Y114.13887
G04 P0 ( dwell for no time -- G64 should not smooth over this point )
G00 Z2.00000 ( retract )

G00 X-50.04799 Y126.23488 ( rapid move to begin. )
G01 F250.00000
( Mill infeed pass 1/1 )
G01 Z-0.20000
G04 P0 ( dwell for no time -- G64 should not smooth over this point )
G01 F500.00000
G01 X-50.04799 Y126.23488
G01 X-50.04886 Y126.22620
G01 X-50.04936 Y126.22444
G01 X-50.05023 Y126.22284
G01 X-50.05140 Y126.22142
G01 X-50.05282 Y126.22025
G01 X-50.05442 Y126.21939
G01 X-50.05617 Y126.21888
G01 X-50.06486 Y126.21802
G01 X-66.30712 Y126.21802
G01 X-66.31580 Y126.21888
G01 X-66.31756 Y126.21939
G01 X-66.31916 Y126.22025
G01 X-66.32058 Y126.22142
G01 X-66.32175 Y126.22284
G01 X-66.32261 Y126.22444
G01 X-66.32312 Y126.22620
G01 X-66.32398 Y126.23488
G01 X-66.32398 Y132.31714
G01 X-66.32312 Y132.32583
G01 X-66.32261 Y132.32758
G01 X-66.32175 Y132.32918
G01 X-66.32058 Y132.33060
G01 X-66.31916 Y132.33177
G01 X-66.31756 Y132.33264
G01 X-66.31580 Y132.33314
G01 X-66.30712 Y132.33401
G01 X-50.06486 Y132.33401
G01 X-50.05617 Y132.33314
G01 X-50.05442 Y132.33264
G01 X-50.05282 Y132.33177
G01 X-50.05140 Y132.33060
G01 X-50.05023 Y132.32918
G01 X-50.04936 Y132.32758
G01 X-50.04886 Y132.32583
G01 X-50.04799 Y132.31714
G01 X-50.04799 Y126.23488
G04 P0 ( dwell for no time -- G64 should not smooth over this point )
G00 Z2.00000 ( retract )

G00 X-50.06798 Y126.37801 ( rapid move to begin. )
G01 F250.00000
( Mill infeed pass 1/1 )
G01 Z-0.20000
G04 P0 ( dwell for no time -- G64 should not smooth over this point )
G01 F500.00000
G01 X-50.06798 Y126.37801
G01 X-50.07067 Y126.35071
G01 X-50.07865 Y126.32444
G01 X-50.09158 Y126.30024
G01 X-50.10900 Y126.27903
G01 X-50.13021 Y126.26160
G01 X-50.15442 Y126.24868
G01 X-50.18068 Y126.24070
G01 X-50.20799 Y126.23801
G01 X-66.16399 Y126.23801
G01 X-66.19129 Y126.24070
G01 X-66.21756 Y126.24868
G01 X-66.24176 Y126.26160
G01 X-66.26297 Y126.27903
G01 X-66.28040 Y126.30024
G01 X-66.29332 Y126.32444
G01 X-66.30130 Y126.35071
G01 X-66.30399 Y126.37801
G01 X-66.30399 Y132.17401
G01 X-66.30130 Y132.20132
G01 X-66.29332 Y132.22758
G01 X-66.28040 Y132.25179
G01 X-66.26297 Y132.27300
G01 X-66.24176 Y132.29042
G01 X-66.21756 Y132.30335
G01 X-66.19129 Y132.31133
G01 X-66.16399 Y132.31402
G01 X-50.20799 Y132.31402
G01 X-50.18068 Y132.31133
G01 X-50.15442 Y132.30335
G01 X-50.13021 Y132.29042
G01 X-50.10900 Y132.27300
G01 X-50.09158 Y132.25179
G01 X-50.07865 Y132.22758
G01 X-50.07067 Y132.20132
G01 X-50.06798 Y132.17401
G01 X-50.06798 Y126.37801
G04 P0 ( dwell for no time -- G64 should not smooth over this point )
G00 Z2.00000 ( retract )

G00 X-52.49742 Y128.46701 ( rapid move to begin. )
G01 F250.00000
( Mill infeed pass 1/1 )
G01 Z-0.20000
G04 P0 ( dwell for no time -- G64 should not smooth over this point )
G01 F500.00000
G01 X-52.49742 Y128.46701
G01 X-52.49742 Y128.59612
G01 X-52.49861 Y128.60630
G01 X-52.50209 Y128.61598
G01 X-52.56737 Y128.74654
G01 X-52.57110 Y128.75268
G01 X-52.57575 Y128.75817
G01 X-52.63920 Y128.82162
G01 X-52.64469 Y128.82627
G01 X-52.65083 Y128.83000
G01 X-52.78136 Y128.89528
G01 X-52.79104 Y128.89876
G01 X-52.80123 Y128.89995
G01 X-53.14214 Y128.89995
G01 X-53.15233 Y128.89876
G01 X-53.16201 Y128.89528
G01 X-53.29254 Y128.83000
G01 X-53.29868 Y128.82627
G01 X-53.30417 Y128.82162
G01 X-53.36673 Y128.75903
G01 X-53.37229 Y128.75228
G01 X-53.37316 Y128.75068
G01 X-53.37367 Y128.74892
G01 X-53.37387 Y128.74710
G01 X-53.37367 Y128.74529
G01 X-53.37316 Y128.74354
G01 X-53.37229 Y128.74194
G01 X-53.37113 Y128.74052
G01 X-53.36970 Y128.73935
G01 X-53.36810 Y128.73849
G01 X-53.36635 Y128.73798
G01 X-53.36452 Y128.73777
G01 X-53.36272 Y128.73798
G01 X-53.36097 Y128.73849
G01 X-53.35937 Y128.73935
G01 X-53.35261 Y128.74491
G01 X-53.30326 Y128.79424
G01 X-53.28611 Y128.80882
G01 X-53.26686 Y128.82048
G01 X-53.17745 Y128.86518
G01 X-53.14702 Y128.87620
G01 X-53.11484 Y128.87996
G01 X-52.82853 Y128.87996
G01 X-52.79635 Y128.87620
G01 X-52.76592 Y128.86518
G01 X-52.67651 Y128.82048
G01 X-52.65726 Y128.80882
G01 X-52.64011 Y128.79424
G01 X-52.60313 Y128.75726
G01 X-52.58855 Y128.74011
G01 X-52.57689 Y128.72086
G01 X-52.53219 Y128.63142
G01 X-52.52117 Y128.60100
G01 X-52.51741 Y128.56884
G01 X-52.51741 Y128.48573
G01 X-52.51921 Y128.46330
G01 X-52.52459 Y128.44146
G01 X-52.57712 Y128.28388
G01 X-52.59084 Y128.25454
G01 X-52.61095 Y128.22914
G01 X-53.43818 Y127.40189
G01 X-53.44374 Y127.39513
G01 X-53.44461 Y127.39353
G01 X-53.44512 Y127.39178
G01 X-53.44532 Y127.38995
G01 X-53.44512 Y127.38815
G01 X-53.44461 Y127.38639
G01 X-53.44374 Y127.38479
G01 X-53.44258 Y127.38337
G01 X-53.44115 Y127.38220
G01 X-53.43955 Y127.38134
G01 X-53.43780 Y127.38083
G01 X-53.42911 Y127.37997
G01 X-52.51428 Y127.37997
G01 X-52.50559 Y127.38083
G01 X-52.50384 Y127.38134
G01 X-52.50224 Y127.38220
G01 X-52.50082 Y127.38337
G01 X-52.49965 Y127.38479
G01 X-52.49879 Y127.38639
G01 X-52.49828 Y127.38815
G01 X-52.49808 Y127.38995
G01 X-52.49828 Y127.39178
G01 X-52.49879 Y127.39353
G01 X-52.49965 Y127.39513
G01 X-52.50082 Y127.39655
G01 X-52.50224 Y127.39772
G01 X-52.50384 Y127.39858
G01 X-52.50559 Y127.39909
G01 X-52.51428 Y127.39996
G01 X-53.07384 Y127.39996
G01 X-53.10117 Y127.40265
G01 X-53.12744 Y127.41062
G01 X-53.15164 Y127.42355
G01 X-53.17285 Y127.44098
G01 X-53.19025 Y127.46219
G01 X-53.20321 Y127.48639
G01 X-53.21116 Y127.51266
G01 X-53.21385 Y127.53996
G01 X-53.21116 Y127.56727
G01 X-53.20321 Y127.59353
G01 X-53.19025 Y127.61774
G01 X-53.17285 Y127.63894
G01 X-52.57750 Y128.23430
G01 X-52.57113 Y128.24235
G01 X-52.56678 Y128.25164
G01 X-52.49970 Y128.45289
G01 X-52.49800 Y128.45985
G01 X-52.49742 Y128.46701
