( pcb2gcode 2.4.0 )
( Software-independent Gcode )

G94 ( Millimeters per minute feed rate. )
G21 ( Units == Millimeters. )

G90 ( Absolute coordinates. )
G00 S20000 ( RPM spindle speed. )
G64 P0.05000 ( set maximum deviation from commanded toolpath )
G01 F500.00000 ( Feedrate. )


G00 Z30.00000 (Retract to tool change height)
T0
M5      (Spindle stop.)
G04 P1.00000 (Wait for spindle to stop)
(MSG, Change tool bit to mill diameter -0.28000mm)
M6      (Tool change.)
M0      (Temporary machine stop.)
M3 ( Spindle on clockwise. )
G04 P1.00000 (Wait for spindle to get up to speed)
G04 P0 ( dwell for no time -- G64 should not smooth over this point )
G00 Z2.00000 ( retract )

G00 X3.73277 Y107.17800 ( rapid move to begin. )
G01 F250.00000
( Mill infeed pass 1/1 )
G01 Z-0.20000
G04 P0 ( dwell for no time -- G64 should not smooth over this point )
G01 F500.00000
G01 X3.73277 Y107.17800
G01 X3.75154 Y106.99936
G01 X3.80704 Y106.82852
G01 X3.89685 Y106.67297
G01 X4.01705 Y106.53947
G01 X4.16238 Y106.43391
G01 X4.32647 Y106.36083
G01 X4.50219 Y106.32349
G01 X4.68179 Y106.32349
G01 X4.85751 Y106.36083
G01 X5.02159 Y106.43391
G01 X5.16693 Y106.53947
G01 X5.28712 Y106.67297
G01 X5.37694 Y106.82852
G01 X5.43244 Y106.99936
G01 X5.45121 Y107.17800
G01 X5.43244 Y107.35666
G01 X5.37694 Y107.52750
G01 X5.28712 Y107.68305
G01 X5.16693 Y107.81656
G01 X5.02159 Y107.92212
G01 X4.85751 Y107.99519
G01 X4.68179 Y108.03253
G01 X4.50219 Y108.03253
G01 X4.32647 Y107.99519
G01 X4.16238 Y107.92212
G01 X4.01705 Y107.81656
G01 X3.89685 Y107.68305
G01 X3.80704 Y107.52750
G01 X3.75154 Y107.35666
G01 X3.73277 Y107.17800
G04 P0 ( dwell for no time -- G64 should not smooth over this point )
G00 Z2.00000 ( retract )

G00 X3.73277 Y104.63800 ( rapid move to begin. )
G01 F250.00000
( Mill infeed pass 1/1 )
G01 Z-0.20000
G04 P0 ( dwell for no time -- G64 should not smooth over this point )
G01 F500.00000
G01 X3.73277 Y104.63800
G01 X3.75154 Y104.45936
G01 X3.80704 Y104.28852
G01 X3.89685 Y104.13297
G01 X4.01705 Y103.99947
G01 X4.16238 Y103.89391
G01 X4.32647 Y103.82083
G01 X4.50219 Y103.78349
G01 X4.68179 Y103.78349
G01 X4.85751 Y103.82083
G01 X5.02159 Y103.89391
G01 X5.16693 Y103.99947
G01 X5.28712 Y104.13297
G01 X5.37694 Y104.28852
G01 X5.43244 Y104.45936
G01 X5.45121 Y104.63800
G01 X5.43244 Y104.81666
G01 X5.37694 Y104.98750
G01 X5.28712 Y105.14305
G01 X5.16693 Y105.27656
G01 X5.02159 Y105.38212
G01 X4.85751 Y105.45519
G01 X4.68179 Y105.49253
G01 X4.50219 Y105.49253
G01 X4.32647 Y105.45519
G01 X4.16238 Y105.38212
G01 X4.01705 Y105.27656
G01 X3.89685 Y105.14305
G01 X3.80704 Y104.98750
G01 X3.75154 Y104.81666
G01 X3.73277 Y104.63800
G04 P0 ( dwell for no time -- G64 should not smooth over this point )
G00 Z2.00000 ( retract )

G00 X3.73277 Y102.09800 ( rapid move to begin. )
G01 F250.00000
( Mill infeed pass 1/1 )
G01 Z-0.20000
G04 P0 ( dwell for no time -- G64 should not smooth over this point )
G01 F500.00000
G01 X3.73277 Y102.09800
G01 X3.75154 Y101.91936
G01 X3.80704 Y101.74852
G01 X3.89685 Y101.59297
G01 X4.01705 Y101.45947
G01 X4.16238 Y101.35391
G01 X4.32647 Y101.28083
G01 X4.50219 Y101.24349
G01 X4.68179 Y101.24349
G01 X4.85751 Y101.28083
G01 X5.02159 Y101.35391
G01 X5.16693 Y101.45947
G01 X5.28712 Y101.59297
G01 X5.37694 Y101.74852
G01 X5.43244 Y101.91936
G01 X5.45121 Y102.09800
G01 X5.43244 Y102.27666
G01 X5.37694 Y102.44750
G01 X5.28712 Y102.60305
G01 X5.16693 Y102.73656
G01 X5.02159 Y102.84212
G01 X4.85751 Y102.91519
G01 X4.68179 Y102.95253
G01 X4.50219 Y102.95253
G01 X4.32647 Y102.91519
G01 X4.16238 Y102.84212
G01 X4.01705 Y102.73656
G01 X3.89685 Y102.60305
G01 X3.80704 Y102.44750
G01 X3.75154 Y102.27666
G01 X3.73277 Y102.09800
G04 P0 ( dwell for no time -- G64 should not smooth over this point )
G00 Z2.00000 ( retract )

G00 X6.27277 Y102.09800 ( rapid move to begin. )
G01 F250.00000
( Mill infeed pass 1/1 )
G01 Z-0.20000
G04 P0 ( dwell for no time -- G64 should not smooth over this point )
G01 F500.00000
G01 X6.27277 Y102.09800
G01 X6.29154 Y101.91936
G01 X6.34704 Y101.74852
G01 X6.43685 Y101.59297
G01 X6.55705 Y101.45947
G01 X6.70238 Y101.35391
G01 X6.86647 Y101.28083
G01 X7.04219 Y101.24349
G01 X7.22179 Y101.24349
G01 X7.39751 Y101.28083
G01 X7.56159 Y101.35391
G01 X7.70693 Y101.45947
G01 X7.82712 Y101.59297
G01 X7.91694 Y101.74852
G01 X7.97244 Y101.91936
G01 X7.99121 Y102.09800
G01 X7.97244 Y102.27666
G01 X7.91694 Y102.44750
G01 X7.82712 Y102.60305
G01 X7.70693 Y102.73656
G01 X7.56159 Y102.84212
G01 X7.39751 Y102.91519
G01 X7.22179 Y102.95253
G01 X7.04219 Y102.95253
G01 X6.86647 Y102.91519
G01 X6.70238 Y102.84212
G01 X6.55705 Y102.73656
G01 X6.43685 Y102.60305
G01 X6.34704 Y102.44750
G01 X6.29154 Y102.27666
G01 X6.27277 Y102.09800
G04 P0 ( dwell for no time -- G64 should not smooth over this point )
G00 Z2.00000 ( retract )

G00 X6.27277 Y104.63800 ( rapid move to begin. )
G01 F250.00000
( Mill infeed pass 1/1 )
G01 Z-0.20000
G04 P0 ( dwell for no time -- G64 should not smooth over this point )
G01 F500.00000
G01 X6.27277 Y104.63800
G01 X6.29154 Y104.45936
G01 X6.34704 Y104.28852
G01 X6.43685 Y104.13297
G01 X6.55705 Y103.99947
G01 X6.70238 Y103.89391
G01 X6.86647 Y103.82083
G01 X7.04219 Y103.78349
G01 X7.22179 Y103.78349
G01 X7.39751 Y103.82083
G01 X7.56159 Y103.89391
G01 X7.70693 Y103.99947
G01 X7.82712 Y104.13297
G01 X7.91694 Y104.28852
G01 X7.97244 Y104.45936
G01 X7.99121 Y104.63800
G01 X7.97244 Y104.81666
G01 X7.91694 Y104.98750
G01 X7.82712 Y105.14305
G01 X7.70693 Y105.27656
G01 X7.56159 Y105.38212
G01 X7.39751 Y105.45519
G01 X7.22179 Y105.49253
G01 X7.04219 Y105.49253
G01 X6.86647 Y105.45519
G01 X6.70238 Y105.38212
G01 X6.55705 Y105.27656
G01 X6.43685 Y105.14305
G01 X6.34704 Y104.98750
G01 X6.29154 Y104.81666
G01 X6.27277 Y104.63800
G04 P0 ( dwell for no time -- G64 should not smooth over this point )
G00 Z2.00000 ( retract )

G00 X6.27277 Y107.17800 ( rapid move to begin. )
G01 F250.00000
( Mill infeed pass 1/1 )
G01 Z-0.20000
G04 P0 ( dwell for no time -- G64 should not smooth over this point )
G01 F500.00000
G01 X6.27277 Y107.17800
G01 X6.29154 Y106.99936
G01 X6.34704 Y106.82852
G01 X6.43685 Y106.67297
G01 X6.55705 Y106.53947
G01 X6.70238 Y106.43391
G01 X6.86647 Y106.36083
G01 X7.04219 Y106.32349
G01 X7.22179 Y106.32349
G01 X7.39751 Y106.36083
G01 X7.56159 Y106.43391
G01 X7.70693 Y106.53947
G01 X7.82712 Y106.67297
G01 X7.91694 Y106.82852
G01 X7.97244 Y106.99936
G01 X7.99121 Y107.17800
G01 X7.97244 Y107.35666
G01 X7.91694 Y107.52750
G01 X7.82712 Y107.68305
G01 X7.70693 Y107.81656
G01 X7.56159 Y107.92212
G01 X7.39751 Y107.99519
G01 X7.22179 Y108.03253
G01 X7.04219 Y108.03253
G01 X6.86647 Y107.99519
G01 X6.70238 Y107.92212
G01 X6.55705 Y107.81656
G01 X6.43685 Y107.68305
G01 X6.34704 Y107.52750
G01 X6.29154 Y107.35666
G01 X6.27277 Y107.17800
G04 P0 ( dwell for no time -- G64 should not smooth over this point )
G00 Z2.00000 ( retract )

G00 X3.73277 Y109.71800 ( rapid move to begin. )
G01 F250.00000
( Mill infeed pass 1/1 )
G01 Z-0.20000
G04 P0 ( dwell for no time -- G64 should not smooth over this point )
G01 F500.00000
G01 X3.73277 Y109.71800
G01 X3.75154 Y109.53936
G01 X3.80704 Y109.36852
G01 X3.89685 Y109.21297
G01 X4.01705 Y109.07947
G01 X4.16238 Y108.97391
G01 X4.32647 Y108.90083
G01 X4.50219 Y108.86349
G01 X4.68179 Y108.86349
G01 X4.85751 Y108.90083
G01 X5.02159 Y108.97391
G01 X5.16693 Y109.07947
G01 X5.28712 Y109.21297
G01 X5.37694 Y109.36852
G01 X5.43244 Y109.53936
G01 X5.45121 Y109.71800
G01 X5.43244 Y109.89666
G01 X5.37694 Y110.06750
G01 X5.28712 Y110.22305
G01 X5.16693 Y110.35656
G01 X5.02159 Y110.46212
G01 X4.85751 Y110.53519
G01 X4.68179 Y110.57253
G01 X4.50219 Y110.57253
G01 X4.32647 Y110.53519
G01 X4.16238 Y110.46212
G01 X4.01705 Y110.35656
G01 X3.89685 Y110.22305
G01 X3.80704 Y110.06750
G01 X3.75154 Y109.89666
G01 X3.73277 Y109.71800
G04 P0 ( dwell for no time -- G64 should not smooth over this point )
G00 Z2.00000 ( retract )

G00 X3.73277 Y112.25800 ( rapid move to begin. )
G01 F250.00000
( Mill infeed pass 1/1 )
G01 Z-0.20000
G04 P0 ( dwell for no time -- G64 should not smooth over this point )
G01 F500.00000
G01 X3.73277 Y112.25800
G01 X3.75154 Y112.07936
G01 X3.80704 Y111.90852
G01 X3.89685 Y111.75297
G01 X4.01705 Y111.61947
G01 X4.16238 Y111.51391
G01 X4.32647 Y111.44083
G01 X4.50219 Y111.40349
G01 X4.68179 Y111.40349
G01 X4.85751 Y111.44083
G01 X5.02159 Y111.51391
G01 X5.16693 Y111.61947
G01 X5.28712 Y111.75297
G01 X5.37694 Y111.90852
G01 X5.43244 Y112.07936
G01 X5.45121 Y112.25800
G01 X5.43244 Y112.43666
G01 X5.37694 Y112.60750
G01 X5.28712 Y112.76305
G01 X5.16693 Y112.89656
G01 X5.02159 Y113.00212
G01 X4.85751 Y113.07519
G01 X4.68179 Y113.11253
G01 X4.50219 Y113.11253
G01 X4.32647 Y113.07519
G01 X4.16238 Y113.00212
G01 X4.01705 Y112.89656
G01 X3.89685 Y112.76305
G01 X3.80704 Y112.60750
G01 X3.75154 Y112.43666
G01 X3.73277 Y112.25800
G04 P0 ( dwell for no time -- G64 should not smooth over this point )
G00 Z2.00000 ( retract )

G00 X6.27277 Y109.71800 ( rapid move to begin. )
G01 F250.00000
( Mill infeed pass 1/1 )
G01 Z-0.20000
G04 P0 ( dwell for no time -- G64 should not smooth over this point )
G01 F500.00000
G01 X6.27277 Y109.71800
G01 X6.29154 Y109.53936
G01 X6.34704 Y109.36852
G01 X6.43685 Y109.21297
G01 X6.55705 Y109.07947
G01 X6.70238 Y108.97391
G01 X6.86647 Y108.90083
G01 X7.04219 Y108.86349
G01 X7.22179 Y108.86349
G01 X7.39751 Y108.90083
G01 X7.56159 Y108.97391
G01 X7.70693 Y109.07947
G01 X7.82712 Y109.21297
G01 X7.91694 Y109.36852
G01 X7.97244 Y109.53936
G01 X7.99121 Y109.71800
G01 X7.97244 Y109.89666
G01 X7.91694 Y110.06750
G01 X7.82712 Y110.22305
G01 X7.70693 Y110.35656
G01 X7.56159 Y110.46212
G01 X7.39751 Y110.53519
G01 X7.22179 Y110.57253
G01 X7.04219 Y110.57253
G01 X6.86647 Y110.53519
G01 X6.70238 Y110.46212
G01 X6.55705 Y110.35656
G01 X6.43685 Y110.22305
G01 X6.34704 Y110.06750
G01 X6.29154 Y109.89666
G01 X6.27277 Y109.71800
G04 P0 ( dwell for no time -- G64 should not smooth over this point )
G00 Z2.00000 ( retract )

G00 X6.27277 Y112.25800 ( rapid move to begin. )
G01 F250.00000
( Mill infeed pass 1/1 )
G01 Z-0.20000
G04 P0 ( dwell for no time -- G64 should not smooth over this point )
G01 F500.00000
G01 X6.27277 Y112.25800
G01 X6.29154 Y112.07936
G01 X6.34704 Y111.90852
G01 X6.43685 Y111.75297
G01 X6.55705 Y111.61947
G01 X6.70238 Y111.51391
G01 X6.86647 Y111.44083
G01 X7.04219 Y111.40349
G01 X7.22179 Y111.40349
G01 X7.39751 Y111.44083
G01 X7.56159 Y111.51391
G01 X7.70693 Y111.61947
G01 X7.82712 Y111.75297
G01 X7.91694 Y111.90852
G01 X7.97244 Y112.07936
G01 X7.99121 Y112.25800
G01 X7.97244 Y112.43666
G01 X7.91694 Y112.60750
G01 X7.82712 Y112.76305
G01 X7.70693 Y112.89656
G01 X7.56159 Y113.00212
G01 X7.39751 Y113.07519
G01 X7.22179 Y113.11253
G01 X7.04219 Y113.11253
G01 X6.86647 Y113.07519
G01 X6.70238 Y113.00212
G01 X6.55705 Y112.89656
G01 X6.43685 Y112.76305
G01 X6.34704 Y112.60750
G01 X6.29154 Y112.43666
G01 X6.27277 Y112.25800
G04 P0 ( dwell for no time -- G64 should not smooth over this point )
G00 Z2.00000 ( retract )

G00 X10.59476 Y110.98295 ( rapid move to begin. )
G01 F250.00000
( Mill infeed pass 1/1 )
G01 Z-0.20000
G04 P0 ( dwell for no time -- G64 should not smooth over this point )
G01 F500.00000
G01 X10.59476 Y110.98295
G01 X10.61899 Y110.75231
G01 X10.69067 Y110.53177
G01 X10.80659 Y110.33095
G01 X10.96176 Y110.15861
G01 X11.14937 Y110.02232
G01 X11.36123 Y109.92801
G01 X11.58805 Y109.87977
G01 X11.81993 Y109.87977
G01 X12.04675 Y109.92801
G01 X12.25861 Y110.02232
G01 X12.44621 Y110.15861
G01 X12.60138 Y110.33095
G01 X12.71731 Y110.53177
G01 X12.78899 Y110.75231
G01 X12.81322 Y110.98295
G01 X12.78899 Y111.21355
G01 X12.71731 Y111.43410
G01 X12.60138 Y111.63491
G01 X12.44621 Y111.80725
G01 X12.25861 Y111.94355
G01 X12.17001 Y111.98299
G01 X12.14667 Y111.99620
G01 X12.12625 Y112.01363
G01 X12.10954 Y112.03463
G01 X12.09717 Y112.05846
G01 X12.08955 Y112.08419
G01 X12.08696 Y112.11088
G01 X12.08696 Y114.46529
G01 X12.08965 Y114.49259
G01 X12.09762 Y114.51885
G01 X12.11055 Y114.54306
G01 X12.12798 Y114.56427
G01 X13.09424 Y115.53051
G01 X13.11545 Y115.54793
G01 X13.13966 Y115.56086
G01 X13.16592 Y115.56884
G01 X13.19323 Y115.57153
G01 X15.59350 Y115.57153
G01 X15.62116 Y115.56876
G01 X15.64771 Y115.56061
G01 X15.67214 Y115.54735
G01 X15.69348 Y115.52955
G01 X19.83926 Y111.30184
G01 X19.85826 Y111.27766
G01 X19.87150 Y111.24990
G01 X19.87838 Y111.21993
G01 X19.87853 Y111.18919
G01 X19.86075 Y111.02000
G01 X19.88501 Y110.78940
G01 X19.95666 Y110.56885
G01 X20.07261 Y110.36804
G01 X20.22776 Y110.19570
G01 X20.41536 Y110.05940
G01 X20.62722 Y109.96507
G01 X20.85405 Y109.91686
G01 X21.08592 Y109.91686
G01 X21.31277 Y109.96507
G01 X21.52461 Y110.05940
G01 X21.71221 Y110.19570
G01 X21.86738 Y110.36804
G01 X21.98333 Y110.56885
G01 X22.05498 Y110.78940
G01 X22.07921 Y111.02000
G01 X22.05498 Y111.25064
G01 X21.98333 Y111.47118
G01 X21.86738 Y111.67200
G01 X21.71221 Y111.84434
G01 X21.52461 Y111.98063
G01 X21.31277 Y112.07494
G01 X21.08592 Y112.12318
G01 X20.85405 Y112.12318
G01 X20.83700 Y112.11954
G01 X20.80909 Y112.11650
G01 X20.78112 Y112.11906
G01 X20.75425 Y112.12716
G01 X20.72951 Y112.14050
G01 X20.70794 Y112.15846
G01 X16.34887 Y116.60366
G01 X16.25070 Y116.68565
G01 X16.14440 Y116.74331
G01 X16.02881 Y116.77882
G01 X15.90150 Y116.79152
G01 X12.88944 Y116.79152
G01 X12.76371 Y116.77915
G01 X12.64939 Y116.74448
G01 X12.54405 Y116.68817
G01 X12.44637 Y116.60800
G01 X11.05048 Y115.21215
G01 X10.97032 Y115.11446
G01 X10.91403 Y115.00912
G01 X10.87934 Y114.89482
G01 X10.86697 Y114.76907
G01 X10.86697 Y111.75569
G01 X10.86461 Y111.73019
G01 X10.85767 Y111.70552
G01 X10.84634 Y111.68256
G01 X10.83100 Y111.66201
G01 X10.80659 Y111.63491
G01 X10.69067 Y111.43410
G01 X10.61899 Y111.21355
G01 X10.59476 Y110.98295
G04 P0 ( dwell for no time -- G64 should not smooth over this point )
G00 Z2.00000 ( retract )

G00 X10.59476 Y107.17800 ( rapid move to begin. )
G01 F250.00000
( Mill infeed pass 1/1 )
G01 Z-0.20000
G04 P0 ( dwell for no time -- G64 should not smooth over this point )
G01 F500.00000
G01 X10.59476 Y107.17800
G01 X10.61899 Y106.94739
G01 X10.69067 Y106.72685
G01 X10.80659 Y106.52603
G01 X10.96176 Y106.35369
G01 X11.14937 Y106.21740
G01 X11.26092 Y106.16772
G01 X11.28429 Y106.15451
G01 X11.30469 Y106.13708
G01 X11.32140 Y106.11608
G01 X11.33380 Y106.09228
G01 X11.34142 Y106.06655
G01 X11.34398 Y106.03983
G01 X11.34398 Y94.13436
G01 X11.35158 Y94.05740
G01 X11.37202 Y93.98999
G01 X11.40522 Y93.92786
G01 X11.45429 Y93.86807
G01 X12.06498 Y93.25738
G01 X12.08238 Y93.23617
G01 X12.09534 Y93.21196
G01 X12.10329 Y93.18570
G01 X12.10598 Y93.15839
G01 X12.10598 Y90.52459
G01 X12.10329 Y90.49729
G01 X12.09534 Y90.47102
G01 X12.08238 Y90.44682
G01 X12.06498 Y90.42561
G01 X11.96229 Y90.32292
G01 X11.91322 Y90.26312
G01 X11.88002 Y90.20100
G01 X11.85958 Y90.13358
G01 X11.85198 Y90.05662
G01 X11.85198 Y72.89491
G01 X11.85958 Y72.81792
G01 X11.88002 Y72.75051
G01 X11.91322 Y72.68838
G01 X11.96229 Y72.62862
G01 X15.00056 Y69.59032
G01 X15.06036 Y69.54125
G01 X15.12248 Y69.50805
G01 X15.18990 Y69.48760
G01 X15.26686 Y69.48001
G01 X25.18807 Y69.48001
G01 X25.21718 Y69.47696
G01 X25.24502 Y69.46792
G01 X25.27034 Y69.45329
G01 X25.29211 Y69.43370
G01 X25.43976 Y69.26969
G01 X25.62737 Y69.13340
G01 X25.83923 Y69.03906
G01 X26.06605 Y68.99088
G01 X26.29793 Y68.99088
G01 X26.52475 Y69.03906
G01 X26.73661 Y69.13340
G01 X26.92421 Y69.26969
G01 X27.07938 Y69.44203
G01 X27.19531 Y69.64285
G01 X27.26699 Y69.86339
G01 X27.29122 Y70.09403
G01 X27.26699 Y70.32466
G01 X27.19531 Y70.54518
G01 X27.07938 Y70.74599
G01 X26.92421 Y70.91833
G01 X26.73661 Y71.05465
G01 X26.52475 Y71.14896
G01 X26.29793 Y71.19717
G01 X26.06605 Y71.19717
G01 X25.83923 Y71.14896
G01 X25.62737 Y71.05465
G01 X25.43976 Y70.91833
G01 X25.28459 Y70.74599
G01 X25.16867 Y70.54518
G01 X25.09676 Y70.32392
G01 X25.09099 Y70.29674
G01 X25.07908 Y70.27002
G01 X25.06189 Y70.24632
G01 X25.04014 Y70.22674
G01 X25.01479 Y70.21211
G01 X24.98696 Y70.20307
G01 X24.95785 Y70.20002
G01 X15.46709 Y70.20002
G01 X15.43978 Y70.20271
G01 X15.41352 Y70.21066
G01 X15.38931 Y70.22364
G01 X15.36810 Y70.24102
G01 X12.61299 Y72.99613
G01 X12.59559 Y73.01734
G01 X12.58264 Y73.04154
G01 X12.57469 Y73.06781
G01 X12.57199 Y73.09511
G01 X12.57199 Y89.85639
G01 X12.57469 Y89.88370
G01 X12.58264 Y89.90996
G01 X12.59559 Y89.93417
G01 X12.61299 Y89.95538
G01 X12.71568 Y90.05807
G01 X12.76475 Y90.11786
G01 X12.79795 Y90.17999
G01 X12.81840 Y90.24740
G01 X12.82599 Y90.32436
G01 X12.82599 Y93.35862
G01 X12.81840 Y93.43558
G01 X12.79795 Y93.50300
G01 X12.76475 Y93.56512
G01 X12.71568 Y93.62492
G01 X12.10499 Y94.23561
G01 X12.08759 Y94.25682
G01 X12.07464 Y94.28102
G01 X12.06669 Y94.30729
G01 X12.06399 Y94.33459
G01 X12.06399 Y106.03983
G01 X12.06656 Y106.06655
G01 X12.07418 Y106.09228
G01 X12.08657 Y106.11608
G01 X12.10329 Y106.13708
G01 X12.12368 Y106.15451
G01 X12.14705 Y106.16772
G01 X12.25861 Y106.21740
G01 X12.44621 Y106.35369
G01 X12.60138 Y106.52603
G01 X12.71731 Y106.72685
G01 X12.78899 Y106.94739
G01 X12.81322 Y107.17800
G01 X12.78899 Y107.40863
G01 X12.71731 Y107.62918
G01 X12.60138 Y107.82999
G01 X12.44621 Y108.00233
G01 X12.25861 Y108.13863
G01 X12.04675 Y108.23296
G01 X11.81993 Y108.28117
G01 X11.58805 Y108.28117
G01 X11.36123 Y108.23296
G01 X11.14937 Y108.13863
G01 X10.96176 Y108.00233
G01 X10.80659 Y107.82999
G01 X10.69067 Y107.62918
G01 X10.61899 Y107.40863
G01 X10.59476 Y107.17800
G04 P0 ( dwell for no time -- G64 should not smooth over this point )
G00 Z2.00000 ( retract )

G00 X17.90277 Y107.17800 ( rapid move to begin. )
G01 F250.00000
( Mill infeed pass 1/1 )
G01 Z-0.20000
G04 P0 ( dwell for no time -- G64 should not smooth over this point )
G01 F500.00000
G01 X17.90277 Y107.17800
G01 X17.91717 Y107.31508
G01 X17.95974 Y107.44615
G01 X18.02865 Y107.56550
G01 X18.12088 Y107.66792
G01 X18.23238 Y107.74892
G01 X18.35827 Y107.80497
G01 X18.49309 Y107.83362
G01 X18.63088 Y107.83362
G01 X18.76571 Y107.80497
G01 X18.89159 Y107.74892
G01 X19.00310 Y107.66792
G01 X19.09532 Y107.56550
G01 X19.16423 Y107.44615
G01 X19.20680 Y107.31508
G01 X19.22121 Y107.17800
G01 X19.20680 Y107.04094
G01 X19.16423 Y106.90988
G01 X19.09532 Y106.79052
G01 X19.00310 Y106.68811
G01 X18.89159 Y106.60711
G01 X18.76571 Y106.55105
G01 X18.63088 Y106.52240
G01 X18.49309 Y106.52240
G01 X18.35827 Y106.55105
G01 X18.23238 Y106.60711
G01 X18.12088 Y106.68811
G01 X18.02865 Y106.79052
G01 X17.95974 Y106.90988
G01 X17.91717 Y107.04094
G01 X17.90277 Y107.17800
G04 P0 ( dwell for no time -- G64 should not smooth over this point )
G00 Z2.00000 ( retract )

G00 X17.90277 Y104.63800 ( rapid move to begin. )
G01 F250.00000
( Mill infeed pass 1/1 )
G01 Z-0.20000
G04 P0 ( dwell for no time -- G64 should not smooth over this point )
G01 F500.00000
G01 X17.90277 Y104.63800
G01 X17.91717 Y104.77508
G01 X17.95974 Y104.90615
G01 X18.02865 Y105.02550
G01 X18.12088 Y105.12792
G01 X18.23238 Y105.20892
G01 X18.35827 Y105.26497
G01 X18.49309 Y105.29362
G01 X18.63088 Y105.29362
G01 X18.76571 Y105.26497
G01 X18.89159 Y105.20892
G01 X19.00310 Y105.12792
G01 X19.09532 Y105.02550
G01 X19.16423 Y104.90615
G01 X19.20680 Y104.77508
G01 X19.22121 Y104.63800
G01 X19.20680 Y104.50094
G01 X19.16423 Y104.36988
G01 X19.09532 Y104.25052
G01 X19.00310 Y104.14811
G01 X18.89159 Y104.06711
G01 X18.76571 Y104.01105
G01 X18.63088 Y103.98240
G01 X18.49309 Y103.98240
G01 X18.35827 Y104.01105
G01 X18.23238 Y104.06711
G01 X18.12088 Y104.14811
G01 X18.02865 Y104.25052
G01 X17.95974 Y104.36988
G01 X17.91717 Y104.50094
G01 X17.90277 Y104.63800
G04 P0 ( dwell for no time -- G64 should not smooth over this point )
G00 Z2.00000 ( retract )

G00 X17.90277 Y102.09800 ( rapid move to begin. )
G01 F250.00000
( Mill infeed pass 1/1 )
G01 Z-0.20000
G04 P0 ( dwell for no time -- G64 should not smooth over this point )
G01 F500.00000
G01 X17.90277 Y102.09800
G01 X17.91717 Y101.96094
G01 X17.95974 Y101.82988
G01 X18.02865 Y101.71052
G01 X18.12088 Y101.60811
G01 X18.23238 Y101.52711
G01 X18.35827 Y101.47105
G01 X18.49309 Y101.44240
G01 X18.63088 Y101.44240
G01 X18.76571 Y101.47105
G01 X18.89159 Y101.52711
G01 X19.00310 Y101.60811
G01 X19.09532 Y101.71052
G01 X19.16423 Y101.82988
G01 X19.20680 Y101.96094
G01 X19.22121 Y102.09800
G01 X19.20680 Y102.23508
G01 X19.16423 Y102.36615
G01 X19.09532 Y102.48550
G01 X19.00310 Y102.58792
G01 X18.89159 Y102.66892
G01 X18.76571 Y102.72497
G01 X18.63088 Y102.75362
G01 X18.49309 Y102.75362
G01 X18.35827 Y102.72497
G01 X18.23238 Y102.66892
G01 X18.12088 Y102.58792
G01 X18.02865 Y102.48550
G01 X17.95974 Y102.36615
G01 X17.91717 Y102.23508
G01 X17.90277 Y102.09800
G04 P0 ( dwell for no time -- G64 should not smooth over this point )
G00 Z2.00000 ( retract )

G00 X12.99427 Y99.55800 ( rapid move to begin. )
G01 F250.00000
( Mill infeed pass 1/1 )
G01 Z-0.20000
G04 P0 ( dwell for no time -- G64 should not smooth over this point )
G01 F500.00000
G01 X12.99427 Y99.55800
G01 X13.01850 Y99.32739
G01 X13.09015 Y99.10685
G01 X13.20611 Y98.90603
G01 X13.36127 Y98.73369
G01 X13.54888 Y98.59740
G01 X13.76071 Y98.50306
G01 X13.98754 Y98.45485
G01 X14.21944 Y98.45485
G01 X14.44626 Y98.50306
G01 X14.65810 Y98.59740
G01 X14.84570 Y98.73369
G01 X15.00087 Y98.90603
G01 X15.11682 Y99.10685
G01 X15.18847 Y99.32739
G01 X15.21271 Y99.55800
G01 X15.18847 Y99.78863
G01 X15.11682 Y100.00918
G01 X15.00087 Y100.20999
G01 X14.84570 Y100.38233
G01 X14.84128 Y100.38553
G01 X14.82152 Y100.40296
G01 X14.80537 Y100.42378
G01 X14.79340 Y100.44725
G01 X14.78606 Y100.47258
G01 X14.78357 Y100.49879
G01 X14.78357 Y103.50580
G01 X14.78606 Y103.53203
G01 X14.79340 Y103.55733
G01 X14.80537 Y103.58080
G01 X14.82152 Y103.60163
G01 X14.84128 Y103.61905
G01 X14.91580 Y103.67321
G01 X15.07097 Y103.84552
G01 X15.18692 Y104.04636
G01 X15.25858 Y104.26688
G01 X15.28281 Y104.49751
G01 X15.25858 Y104.72814
G01 X15.18692 Y104.94867
G01 X15.07097 Y105.14951
G01 X14.91580 Y105.32182
G01 X14.72820 Y105.45814
G01 X14.51636 Y105.55245
G01 X14.28952 Y105.60066
G01 X14.05764 Y105.60066
G01 X13.83082 Y105.55245
G01 X13.61896 Y105.45814
G01 X13.43135 Y105.32182
G01 X13.27618 Y105.14951
G01 X13.16026 Y104.94867
G01 X13.08858 Y104.72814
G01 X13.06435 Y104.49751
G01 X13.08858 Y104.26688
G01 X13.16026 Y104.04636
G01 X13.27618 Y103.84552
G01 X13.43135 Y103.67321
G01 X13.50588 Y103.61905
G01 X13.52564 Y103.60163
G01 X13.54179 Y103.58083
G01 X13.55376 Y103.55733
G01 X13.56110 Y103.53203
G01 X13.56358 Y103.50580
G01 X13.56358 Y100.60064
G01 X13.56110 Y100.57441
G01 X13.55376 Y100.54911
G01 X13.54179 Y100.52564
G01 X13.52564 Y100.50481
G01 X13.50588 Y100.48739
G01 X13.36127 Y100.38233
G01 X13.20611 Y100.20999
G01 X13.09015 Y100.00918
G01 X13.01850 Y99.78863
G01 X12.99427 Y99.55800
G04 P0 ( dwell for no time -- G64 should not smooth over this point )
G00 Z2.00000 ( retract )

G00 X2.09927 Y92.19200 ( rapid move to begin. )
G01 F250.00000
( Mill infeed pass 1/1 )
G01 Z-0.20000
G04 P0 ( dwell for no time -- G64 should not smooth over this point )
G01 F500.00000
G01 X2.09927 Y92.19200
G01 X2.12350 Y92.42263
G01 X2.19515 Y92.64318
G01 X2.31111 Y92.84399
G01 X2.46627 Y93.01633
G01 X2.65388 Y93.15263
G01 X2.86571 Y93.24696
G01 X3.09254 Y93.29517
G01 X3.32444 Y93.29517
G01 X3.55126 Y93.24696
G01 X3.76310 Y93.15263
G01 X3.95070 Y93.01633
G01 X4.10198 Y92.84834
G01 X4.12373 Y92.82875
G01 X4.14907 Y92.81412
G01 X4.17691 Y92.80508
G01 X4.20602 Y92.80201
G01 X9.29595 Y92.80201
G01 X9.32506 Y92.80508
G01 X9.35290 Y92.81412
G01 X9.37825 Y92.82875
G01 X9.39999 Y92.84834
G01 X9.55127 Y93.01633
G01 X9.73888 Y93.15263
G01 X9.95071 Y93.24696
G01 X10.17754 Y93.29517
G01 X10.40944 Y93.29517
G01 X10.63626 Y93.24696
G01 X10.84810 Y93.15263
G01 X11.03570 Y93.01633
G01 X11.19087 Y92.84399
G01 X11.30682 Y92.64318
G01 X11.37847 Y92.42263
G01 X11.40271 Y92.19200
G01 X11.37847 Y91.96139
G01 X11.30682 Y91.74085
G01 X11.19087 Y91.54003
G01 X11.03570 Y91.36769
G01 X10.84810 Y91.23140
G01 X10.63626 Y91.13706
G01 X10.40944 Y91.08885
G01 X10.17754 Y91.08885
G01 X9.95071 Y91.13706
G01 X9.73888 Y91.23140
G01 X9.55127 Y91.36769
G01 X9.39999 Y91.53569
G01 X9.37825 Y91.55527
G01 X9.35290 Y91.56990
G01 X9.32506 Y91.57895
G01 X9.29595 Y91.58202
G01 X4.20602 Y91.58202
G01 X4.17691 Y91.57895
G01 X4.14907 Y91.56990
G01 X4.12373 Y91.55527
G01 X4.10198 Y91.53569
G01 X3.95070 Y91.36769
G01 X3.76310 Y91.23140
G01 X3.55126 Y91.13706
G01 X3.32444 Y91.08885
G01 X3.09254 Y91.08885
G01 X2.86571 Y91.13706
G01 X2.65388 Y91.23140
G01 X2.46627 Y91.36769
G01 X2.31111 Y91.54003
G01 X2.19515 Y91.74085
G01 X2.12350 Y91.96139
G01 X2.09927 Y92.19200
G04 P0 ( dwell for no time -- G64 should not smooth over this point )
G00 Z2.00000 ( retract )

G00 X13.33077 Y89.43801 ( rapid move to begin. )
G01 F250.00000
( Mill infeed pass 1/1 )
G01 Z-0.20000
G04 P0 ( dwell for no time -- G64 should not smooth over this point )
G01 F500.00000
G01 X13.33077 Y89.43801
G01 X13.34517 Y89.57506
G01 X13.38774 Y89.70615
G01 X13.45665 Y89.82551
G01 X13.54888 Y89.92792
G01 X13.66038 Y90.00892
G01 X13.78627 Y90.06498
G01 X13.92109 Y90.09363
G01 X14.05888 Y90.09363
G01 X14.19371 Y90.06498
G01 X14.31959 Y90.00892
G01 X14.43110 Y89.92792
G01 X14.52332 Y89.82551
G01 X14.59223 Y89.70615
G01 X14.63480 Y89.57506
G01 X14.64921 Y89.43801
G01 X14.63480 Y89.30095
G01 X14.59223 Y89.16988
G01 X14.52332 Y89.05053
G01 X14.43110 Y88.94812
G01 X14.31959 Y88.86711
G01 X14.19371 Y88.81106
G01 X14.05888 Y88.78241
G01 X13.92109 Y88.78241
G01 X13.78627 Y88.81106
G01 X13.66038 Y88.86711
G01 X13.54888 Y88.94812
G01 X13.45665 Y89.05053
G01 X13.38774 Y89.16988
G01 X13.34517 Y89.30095
G01 X13.33077 Y89.43801
G04 P0 ( dwell for no time -- G64 should not smooth over this point )
G00 Z2.00000 ( retract )

G00 X13.33077 Y94.43802 ( rapid move to begin. )
G01 F250.00000
( Mill infeed pass 1/1 )
G01 Z-0.20000
G04 P0 ( dwell for no time -- G64 should not smooth over this point )
G01 F500.00000
G01 X13.33077 Y94.43802
G01 X13.34517 Y94.57508
G01 X13.38774 Y94.70614
G01 X13.45665 Y94.82550
G01 X13.54888 Y94.92791
G01 X13.66038 Y95.00891
G01 X13.78627 Y95.06497
G01 X13.92109 Y95.09362
G01 X14.05888 Y95.09362
G01 X14.19371 Y95.06497
G01 X14.31959 Y95.00891
G01 X14.43110 Y94.92791
G01 X14.52332 Y94.82550
G01 X14.59223 Y94.70614
G01 X14.63480 Y94.57508
G01 X14.64921 Y94.43802
G01 X14.63480 Y94.30096
G01 X14.59223 Y94.16987
G01 X14.52332 Y94.05052
G01 X14.43110 Y93.94811
G01 X14.31959 Y93.86710
G01 X14.19371 Y93.81105
G01 X14.05888 Y93.78240
G01 X13.92109 Y93.78240
G01 X13.78627 Y93.81105
G01 X13.66038 Y93.86710
G01 X13.54888 Y93.94811
G01 X13.45665 Y94.05052
G01 X13.38774 Y94.16987
G01 X13.34517 Y94.30096
G01 X13.33077 Y94.43802
G04 P0 ( dwell for no time -- G64 should not smooth over this point )
G00 Z2.00000 ( retract )

G00 X17.90277 Y94.47800 ( rapid move to begin. )
G01 F250.00000
( Mill infeed pass 1/1 )
G01 Z-0.20000
G04 P0 ( dwell for no time -- G64 should not smooth over this point )
G01 F500.00000
G01 X17.90277 Y94.47800
G01 X17.91717 Y94.34094
G01 X17.95974 Y94.20988
G01 X18.02865 Y94.09052
G01 X18.12088 Y93.98811
G01 X18.23238 Y93.90711
G01 X18.35827 Y93.85105
G01 X18.49309 Y93.82240
G01 X18.63088 Y93.82240
G01 X18.76571 Y93.85105
G01 X18.89159 Y93.90711
G01 X19.00310 Y93.98811
G01 X19.09532 Y94.09052
G01 X19.16423 Y94.20988
G01 X19.20680 Y94.34094
G01 X19.22121 Y94.47800
G01 X19.20680 Y94.61508
G01 X19.16423 Y94.74615
G01 X19.09532 Y94.86550
G01 X19.00310 Y94.96792
G01 X18.89159 Y95.04892
G01 X18.76571 Y95.10497
G01 X18.63088 Y95.13362
G01 X18.49309 Y95.13362
G01 X18.35827 Y95.10497
G01 X18.23238 Y95.04892
G01 X18.12088 Y94.96792
G01 X18.02865 Y94.86550
G01 X17.95974 Y94.74615
G01 X17.91717 Y94.61508
G01 X17.90277 Y94.47800
G04 P0 ( dwell for no time -- G64 should not smooth over this point )
G00 Z2.00000 ( retract )

G00 X17.90277 Y91.93800 ( rapid move to begin. )
G01 F250.00000
( Mill infeed pass 1/1 )
G01 Z-0.20000
G04 P0 ( dwell for no time -- G64 should not smooth over this point )
G01 F500.00000
G01 X17.90277 Y91.93800
G01 X17.91717 Y91.80094
G01 X17.95974 Y91.66988
G01 X18.02865 Y91.55052
G01 X18.12088 Y91.44811
G01 X18.23238 Y91.36711
G01 X18.35827 Y91.31105
G01 X18.49309 Y91.28240
G01 X18.63088 Y91.28240
G01 X18.76571 Y91.31105
G01 X18.89159 Y91.36711
G01 X19.00310 Y91.44811
G01 X19.09532 Y91.55052
G01 X19.16423 Y91.66988
G01 X19.20680 Y91.80094
G01 X19.22121 Y91.93800
G01 X19.20680 Y92.07508
G01 X19.16423 Y92.20615
G01 X19.09532 Y92.32550
G01 X19.00310 Y92.42792
G01 X18.89159 Y92.50892
G01 X18.76571 Y92.56497
G01 X18.63088 Y92.59362
G01 X18.49309 Y92.59362
G01 X18.35827 Y92.56497
G01 X18.23238 Y92.50892
G01 X18.12088 Y92.42792
G01 X18.02865 Y92.32550
G01 X17.95974 Y92.20615
G01 X17.91717 Y92.07508
G01 X17.90277 Y91.93800
G04 P0 ( dwell for no time -- G64 should not smooth over this point )
G00 Z2.00000 ( retract )

G00 X17.90277 Y89.39800 ( rapid move to begin. )
G01 F250.00000
( Mill infeed pass 1/1 )
G01 Z-0.20000
G04 P0 ( dwell for no time -- G64 should not smooth over this point )
G01 F500.00000
G01 X17.90277 Y89.39800
G01 X17.91717 Y89.26094
G01 X17.95974 Y89.12988
G01 X18.02865 Y89.01052
G01 X18.12088 Y88.90811
G01 X18.23238 Y88.82711
G01 X18.35827 Y88.77105
G01 X18.49309 Y88.74240
G01 X18.63088 Y88.74240
G01 X18.76571 Y88.77105
G01 X18.77660 Y88.77590
G01 X18.80444 Y88.78495
G01 X18.83355 Y88.78802
G01 X19.57112 Y88.78802
G01 X19.69687 Y88.80039
G01 X19.81117 Y88.83506
G01 X19.91651 Y88.89137
G01 X20.01419 Y88.97153
G01 X22.32966 Y91.28700
G01 X22.35087 Y91.30442
G01 X22.37507 Y91.31735
G01 X22.40134 Y91.32533
G01 X22.42864 Y91.32802
G01 X25.91042 Y91.32802
G01 X25.93953 Y91.32495
G01 X25.96737 Y91.31590
G01 X25.97827 Y91.31105
G01 X26.11309 Y91.28240
G01 X26.25088 Y91.28240
G01 X26.38571 Y91.31105
G01 X26.51159 Y91.36711
G01 X26.62310 Y91.44811
G01 X26.71532 Y91.55052
G01 X26.78423 Y91.66988
G01 X26.82680 Y91.80094
G01 X26.84121 Y91.93800
G01 X26.82680 Y92.07508
G01 X26.78423 Y92.20615
G01 X26.71532 Y92.32550
G01 X26.62310 Y92.42792
G01 X26.51159 Y92.50892
G01 X26.38571 Y92.56497
G01 X26.25088 Y92.59362
G01 X26.11309 Y92.59362
G01 X25.97827 Y92.56497
G01 X25.96737 Y92.56012
G01 X25.93953 Y92.55108
G01 X25.91042 Y92.54801
G01 X22.12486 Y92.54801
G01 X21.99910 Y92.53564
G01 X21.88480 Y92.50097
G01 X21.77947 Y92.44465
G01 X21.68178 Y92.36449
G01 X19.36632 Y90.04903
G01 X19.34511 Y90.03160
G01 X19.32090 Y90.01867
G01 X19.29464 Y90.01070
G01 X19.26733 Y90.00801
G01 X18.83355 Y90.00801
G01 X18.80444 Y90.01108
G01 X18.77660 Y90.02012
G01 X18.76571 Y90.02497
G01 X18.63088 Y90.05362
G01 X18.49309 Y90.05362
G01 X18.35827 Y90.02497
G01 X18.23238 Y89.96892
G01 X18.12088 Y89.88792
G01 X18.02865 Y89.78550
G01 X17.95974 Y89.66615
G01 X17.91717 Y89.53508
G01 X17.90277 Y89.39800
G04 P0 ( dwell for no time -- G64 should not smooth over this point )
G00 Z2.00000 ( retract )

G00 X17.90277 Y86.85800 ( rapid move to begin. )
G01 F250.00000
( Mill infeed pass 1/1 )
G01 Z-0.20000
G04 P0 ( dwell for no time -- G64 should not smooth over this point )
G01 F500.00000
G01 X17.90277 Y86.85800
G01 X17.91717 Y86.72094
G01 X17.95974 Y86.58988
G01 X18.02865 Y86.47052
G01 X18.12088 Y86.36811
G01 X18.23238 Y86.28711
G01 X18.35827 Y86.23105
G01 X18.49309 Y86.20240
G01 X18.63088 Y86.20240
G01 X18.76571 Y86.23105
G01 X18.89159 Y86.28711
G01 X19.00310 Y86.36811
G01 X19.09532 Y86.47052
G01 X19.16423 Y86.58988
G01 X19.20680 Y86.72094
G01 X19.22121 Y86.85800
G01 X19.20680 Y86.99508
G01 X19.16423 Y87.12615
G01 X19.09532 Y87.24550
G01 X19.00310 Y87.34792
G01 X18.89159 Y87.42892
G01 X18.76571 Y87.48497
G01 X18.63088 Y87.51362
G01 X18.49309 Y87.51362
G01 X18.35827 Y87.48497
G01 X18.23238 Y87.42892
G01 X18.12088 Y87.34792
G01 X18.02865 Y87.24550
G01 X17.95974 Y87.12615
G01 X17.91717 Y86.99508
G01 X17.90277 Y86.85800
G04 P0 ( dwell for no time -- G64 should not smooth over this point )
G00 Z2.00000 ( retract )

G00 X17.90277 Y84.31800 ( rapid move to begin. )
G01 F250.00000
( Mill infeed pass 1/1 )
G01 Z-0.20000
G04 P0 ( dwell for no time -- G64 should not smooth over this point )
G01 F500.00000
G01 X17.90277 Y84.31800
G01 X17.91717 Y84.18094
G01 X17.95974 Y84.04988
G01 X18.02865 Y83.93052
G01 X18.12088 Y83.82811
G01 X18.23238 Y83.74711
G01 X18.35827 Y83.69105
G01 X18.49309 Y83.66240
G01 X18.63088 Y83.66240
G01 X18.76571 Y83.69105
G01 X18.89159 Y83.74711
G01 X19.00310 Y83.82811
G01 X19.09532 Y83.93052
G01 X19.16423 Y84.04988
G01 X19.20680 Y84.18094
G01 X19.22121 Y84.31800
G01 X19.20680 Y84.45508
G01 X19.16423 Y84.58615
G01 X19.09532 Y84.70550
G01 X19.00310 Y84.80792
G01 X18.89159 Y84.88892
G01 X18.76571 Y84.94497
G01 X18.63088 Y84.97362
G01 X18.49309 Y84.97362
G01 X18.35827 Y84.94497
G01 X18.23238 Y84.88892
G01 X18.12088 Y84.80792
G01 X18.02865 Y84.70550
G01 X17.95974 Y84.58615
G01 X17.91717 Y84.45508
G01 X17.90277 Y84.31800
G04 P0 ( dwell for no time -- G64 should not smooth over this point )
G00 Z2.00000 ( retract )

G00 X17.90277 Y81.77800 ( rapid move to begin. )
G01 F250.00000
( Mill infeed pass 1/1 )
G01 Z-0.20000
G04 P0 ( dwell for no time -- G64 should not smooth over this point )
G01 F500.00000
G01 X17.90277 Y81.77800
G01 X17.91717 Y81.64094
G01 X17.95974 Y81.50988
G01 X18.02865 Y81.39052
G01 X18.12088 Y81.28811
G01 X18.23238 Y81.20711
G01 X18.35827 Y81.15105
G01 X18.49309 Y81.12240
G01 X18.63088 Y81.12240
G01 X18.76571 Y81.15105
G01 X18.89159 Y81.20711
G01 X19.00310 Y81.28811
G01 X19.09532 Y81.39052
G01 X19.16423 Y81.50988
G01 X19.20680 Y81.64094
G01 X19.22121 Y81.77800
G01 X19.20680 Y81.91508
G01 X19.16423 Y82.04615
G01 X19.09532 Y82.16550
G01 X19.00310 Y82.26792
G01 X18.89159 Y82.34892
G01 X18.76571 Y82.40497
G01 X18.63088 Y82.43362
G01 X18.49309 Y82.43362
G01 X18.35827 Y82.40497
G01 X18.23238 Y82.34892
G01 X18.12088 Y82.26792
G01 X18.02865 Y82.16550
G01 X17.95974 Y82.04615
G01 X17.91717 Y81.91508
G01 X17.90277 Y81.77800
G04 P0 ( dwell for no time -- G64 should not smooth over this point )
G00 Z2.00000 ( retract )

G00 X17.90277 Y79.23800 ( rapid move to begin. )
G01 F250.00000
( Mill infeed pass 1/1 )
G01 Z-0.20000
G04 P0 ( dwell for no time -- G64 should not smooth over this point )
G01 F500.00000
G01 X17.90277 Y79.23800
G01 X17.91717 Y79.10094
G01 X17.95974 Y78.96988
G01 X18.02865 Y78.85052
G01 X18.12088 Y78.74811
G01 X18.23238 Y78.66711
G01 X18.35827 Y78.61105
G01 X18.49309 Y78.58240
G01 X18.63088 Y78.58240
G01 X18.76571 Y78.61105
G01 X18.89159 Y78.66711
G01 X19.00310 Y78.74811
G01 X19.09532 Y78.85052
G01 X19.16423 Y78.96988
G01 X19.20680 Y79.10094
G01 X19.22121 Y79.23800
G01 X19.20680 Y79.37508
G01 X19.16423 Y79.50615
G01 X19.09532 Y79.62550
G01 X19.00310 Y79.72792
G01 X18.89159 Y79.80892
G01 X18.76571 Y79.86497
G01 X18.63088 Y79.89362
G01 X18.49309 Y79.89362
G01 X18.35827 Y79.86497
G01 X18.23238 Y79.80892
G01 X18.12088 Y79.72792
G01 X18.02865 Y79.62550
G01 X17.95974 Y79.50615
G01 X17.91717 Y79.37508
G01 X17.90277 Y79.23800
G04 P0 ( dwell for no time -- G64 should not smooth over this point )
G00 Z2.00000 ( retract )

G00 X17.90277 Y76.69800 ( rapid move to begin. )
G01 F250.00000
( Mill infeed pass 1/1 )
G01 Z-0.20000
G04 P0 ( dwell for no time -- G64 should not smooth over this point )
G01 F500.00000
G01 X17.90277 Y76.69800
G01 X17.91717 Y76.56094
G01 X17.95974 Y76.42988
G01 X18.02865 Y76.31052
G01 X18.12088 Y76.20811
G01 X18.23238 Y76.12711
G01 X18.35827 Y76.07105
G01 X18.49309 Y76.04240
G01 X18.63088 Y76.04240
G01 X18.76571 Y76.07105
G01 X18.89159 Y76.12711
G01 X19.00310 Y76.20811
G01 X19.09532 Y76.31052
G01 X19.16423 Y76.42988
G01 X19.20680 Y76.56094
G01 X19.22121 Y76.69800
G01 X19.20680 Y76.83508
G01 X19.16423 Y76.96615
G01 X19.09532 Y77.08550
G01 X19.00310 Y77.18792
G01 X18.89159 Y77.26892
G01 X18.76571 Y77.32497
G01 X18.63088 Y77.35362
G01 X18.49309 Y77.35362
G01 X18.35827 Y77.32497
G01 X18.23238 Y77.26892
G01 X18.12088 Y77.18792
G01 X18.02865 Y77.08550
G01 X17.95974 Y76.96615
G01 X17.91717 Y76.83508
G01 X17.90277 Y76.69800
G04 P0 ( dwell for no time -- G64 should not smooth over this point )
G00 Z2.00000 ( retract )

G00 X17.90277 Y74.15800 ( rapid move to begin. )
G01 F250.00000
( Mill infeed pass 1/1 )
G01 Z-0.20000
G04 P0 ( dwell for no time -- G64 should not smooth over this point )
G01 F500.00000
G01 X17.90277 Y74.15800
G01 X17.91717 Y74.02094
G01 X17.95974 Y73.88988
G01 X18.02865 Y73.77052
G01 X18.12088 Y73.66811
G01 X18.23238 Y73.58714
G01 X18.35827 Y73.53105
G01 X18.49309 Y73.50243
G01 X18.63088 Y73.50243
G01 X18.76571 Y73.53105
G01 X18.89159 Y73.58714
G01 X19.00310 Y73.66811
G01 X19.09532 Y73.77052
G01 X19.16423 Y73.88988
G01 X19.20680 Y74.02094
G01 X19.22121 Y74.15800
G01 X19.20680 Y74.29508
G01 X19.16423 Y74.42615
G01 X19.09532 Y74.54550
G01 X19.00310 Y74.64792
G01 X18.89159 Y74.72892
G01 X18.76571 Y74.78497
G01 X18.63088 Y74.81362
G01 X18.49309 Y74.81362
G01 X18.35827 Y74.78497
G01 X18.23238 Y74.72892
G01 X18.12088 Y74.64792
G01 X18.02865 Y74.54550
G01 X17.95974 Y74.42615
G01 X17.91717 Y74.29508
G01 X17.90277 Y74.15800
G04 P0 ( dwell for no time -- G64 should not smooth over this point )
G00 Z2.00000 ( retract )

G00 X25.52198 Y73.49801 ( rapid move to begin. )
G01 F250.00000
( Mill infeed pass 1/1 )
G01 Z-0.20000
G04 P0 ( dwell for no time -- G64 should not smooth over this point )
G01 F500.00000
G01 X25.52198 Y73.49801
G01 X25.52198 Y74.81802
G01 X26.84199 Y74.81802
G01 X26.84199 Y73.49801
G01 X25.52198 Y73.49801
G04 P0 ( dwell for no time -- G64 should not smooth over this point )
G00 Z2.00000 ( retract )

G00 X28.89076 Y70.05001 ( rapid move to begin. )
G01 F250.00000
( Mill infeed pass 1/1 )
G01 Z-0.20000
G04 P0 ( dwell for no time -- G64 should not smooth over this point )
G01 F500.00000
G01 X28.89076 Y70.05001
G01 X28.90516 Y69.91295
G01 X28.94776 Y69.78188
G01 X29.01667 Y69.66253
G01 X29.10887 Y69.56014
G01 X29.22037 Y69.47912
G01 X29.34628 Y69.42308
G01 X29.48108 Y69.39441
G01 X29.61890 Y69.39441
G01 X29.75370 Y69.42308
G01 X29.87961 Y69.47912
G01 X29.99109 Y69.56014
G01 X30.08331 Y69.66253
G01 X30.15222 Y69.78188
G01 X30.19482 Y69.91295
G01 X30.20922 Y70.05001
G01 X30.19482 Y70.18707
G01 X30.15222 Y70.31816
G01 X30.08331 Y70.43751
G01 X29.99109 Y70.53992
G01 X29.87961 Y70.62092
G01 X29.75370 Y70.67701
G01 X29.61890 Y70.70563
G01 X29.48108 Y70.70563
G01 X29.34628 Y70.67701
G01 X29.22037 Y70.62092
G01 X29.10887 Y70.53992
G01 X29.01667 Y70.43751
G01 X28.94776 Y70.31816
G01 X28.90516 Y70.18707
G01 X28.89076 Y70.05001
G04 P0 ( dwell for no time -- G64 should not smooth over this point )
G00 Z2.00000 ( retract )

G00 X22.82676 Y64.05002 ( rapid move to begin. )
G01 F250.00000
( Mill infeed pass 1/1 )
G01 Z-0.20000
G04 P0 ( dwell for no time -- G64 should not smooth over this point )
G01 F500.00000
G01 X22.82676 Y64.05002
G01 X22.84335 Y64.20785
G01 X22.89240 Y64.35881
G01 X22.97177 Y64.49627
G01 X23.07797 Y64.61423
G01 X23.20636 Y64.70752
G01 X23.35137 Y64.77209
G01 X23.50662 Y64.80509
G01 X23.66534 Y64.80509
G01 X23.82061 Y64.77209
G01 X23.96560 Y64.70752
G01 X24.09402 Y64.61423
G01 X24.20022 Y64.49627
G01 X24.27957 Y64.35881
G01 X24.32861 Y64.20785
G01 X24.34522 Y64.05002
G01 X24.32861 Y63.89216
G01 X24.27957 Y63.74121
G01 X24.20022 Y63.60374
G01 X24.09402 Y63.48578
G01 X23.96560 Y63.39249
G01 X23.82061 Y63.32795
G01 X23.66534 Y63.29495
G01 X23.50662 Y63.29495
G01 X23.35137 Y63.32795
G01 X23.20636 Y63.39249
G01 X23.07797 Y63.48578
G01 X22.97177 Y63.60374
G01 X22.89240 Y63.74121
G01 X22.84335 Y63.89216
G01 X22.82676 Y64.05002
G04 P0 ( dwell for no time -- G64 should not smooth over this point )
G00 Z2.00000 ( retract )

G00 X26.64075 Y64.05002 ( rapid move to begin. )
G01 F250.00000
( Mill infeed pass 1/1 )
G01 Z-0.20000
G04 P0 ( dwell for no time -- G64 should not smooth over this point )
G01 F500.00000
G01 X26.64075 Y64.05002
G01 X26.66282 Y64.25985
G01 X26.72800 Y64.46051
G01 X26.83351 Y64.64321
G01 X26.97468 Y64.80001
G01 X27.14537 Y64.92403
G01 X27.33811 Y65.00983
G01 X27.54451 Y65.05370
G01 X27.75548 Y65.05370
G01 X27.96185 Y65.00983
G01 X28.15459 Y64.92403
G01 X28.32530 Y64.80001
G01 X28.46648 Y64.64321
G01 X28.57196 Y64.46051
G01 X28.63716 Y64.25985
G01 X28.65921 Y64.05002
G01 X28.63716 Y63.84019
G01 X28.57196 Y63.63953
G01 X28.46648 Y63.45680
G01 X28.32530 Y63.30001
G01 X28.15459 Y63.17601
G01 X27.96185 Y63.09018
G01 X27.75548 Y63.04631
G01 X27.54451 Y63.04631
G01 X27.33811 Y63.09018
G01 X27.14537 Y63.17601
G01 X26.97468 Y63.30001
G01 X26.83351 Y63.45680
G01 X26.72800 Y63.63953
G01 X26.66282 Y63.84019
G01 X26.64075 Y64.05002
G04 P0 ( dwell for no time -- G64 should not smooth over this point )
G00 Z2.00000 ( retract )

G00 X30.70475 Y64.05002 ( rapid move to begin. )
G01 F250.00000
( Mill infeed pass 1/1 )
G01 Z-0.20000
G04 P0 ( dwell for no time -- G64 should not smooth over this point )
G01 F500.00000
G01 X30.70475 Y64.05002
G01 X30.72682 Y63.84019
G01 X30.79200 Y63.63953
G01 X30.89751 Y63.45680
G01 X31.03868 Y63.30001
G01 X31.20937 Y63.17601
G01 X31.40211 Y63.09018
G01 X31.60851 Y63.04631
G01 X31.81948 Y63.04631
G01 X32.02585 Y63.09018
G01 X32.21859 Y63.17601
G01 X32.38930 Y63.30001
G01 X32.53048 Y63.45680
G01 X32.63596 Y63.63953
G01 X32.70116 Y63.84019
G01 X32.72321 Y64.05002
G01 X32.70116 Y64.25985
G01 X32.63596 Y64.46051
G01 X32.53048 Y64.64321
G01 X32.38930 Y64.80001
G01 X32.21859 Y64.92403
G01 X32.02585 Y65.00983
G01 X31.81948 Y65.05370
G01 X31.60851 Y65.05370
G01 X31.40211 Y65.00983
G01 X31.20937 Y64.92403
G01 X31.03868 Y64.80001
G01 X30.89751 Y64.64321
G01 X30.79200 Y64.46051
G01 X30.72682 Y64.25985
G01 X30.70475 Y64.05002
G04 P0 ( dwell for no time -- G64 should not smooth over this point )
G00 Z2.00000 ( retract )

G00 X35.19077 Y60.95000 ( rapid move to begin. )
G01 F250.00000
( Mill infeed pass 1/1 )
G01 Z-0.20000
G04 P0 ( dwell for no time -- G64 should not smooth over this point )
G01 F500.00000
G01 X35.19077 Y60.95000
G01 X35.20517 Y60.81294
G01 X35.24774 Y60.68188
G01 X35.31665 Y60.56252
G01 X35.40888 Y60.46011
G01 X35.52036 Y60.37911
G01 X35.64627 Y60.32305
G01 X35.78109 Y60.29440
G01 X35.91889 Y60.29440
G01 X36.05371 Y60.32305
G01 X36.17959 Y60.37911
G01 X36.29110 Y60.46011
G01 X36.38333 Y60.56252
G01 X36.45221 Y60.68188
G01 X36.49481 Y60.81294
G01 X36.50921 Y60.95000
G01 X36.49481 Y61.08708
G01 X36.45221 Y61.21815
G01 X36.38333 Y61.33750
G01 X36.29110 Y61.43992
G01 X36.17959 Y61.52092
G01 X36.05371 Y61.57697
G01 X35.91889 Y61.60562
G01 X35.78109 Y61.60562
G01 X35.64627 Y61.57697
G01 X35.52036 Y61.52092
G01 X35.40888 Y61.43992
G01 X35.31665 Y61.33750
G01 X35.24774 Y61.21815
G01 X35.20517 Y61.08708
G01 X35.19077 Y60.95000
G04 P0 ( dwell for no time -- G64 should not smooth over this point )
G00 Z2.00000 ( retract )

G00 X36.99077 Y63.85002 ( rapid move to begin. )
G01 F250.00000
( Mill infeed pass 1/1 )
G01 Z-0.20000
G04 P0 ( dwell for no time -- G64 should not smooth over this point )
G01 F500.00000
G01 X36.99077 Y63.85002
G01 X37.00735 Y63.69216
G01 X37.05640 Y63.54121
G01 X37.13575 Y63.40374
G01 X37.24195 Y63.28578
G01 X37.37037 Y63.19249
G01 X37.51535 Y63.12795
G01 X37.67060 Y63.09495
G01 X37.82935 Y63.09495
G01 X37.98459 Y63.12795
G01 X38.12960 Y63.19249
G01 X38.25800 Y63.28578
G01 X38.36422 Y63.40374
G01 X38.44355 Y63.54121
G01 X38.49259 Y63.69216
G01 X38.50920 Y63.85002
G01 X38.49259 Y64.00786
G01 X38.44355 Y64.15881
G01 X38.36422 Y64.29627
G01 X38.25800 Y64.41423
G01 X38.12960 Y64.50752
G01 X37.98459 Y64.57209
G01 X37.82935 Y64.60509
G01 X37.67060 Y64.60509
G01 X37.51535 Y64.57209
G01 X37.37037 Y64.50752
G01 X37.24195 Y64.41423
G01 X37.13575 Y64.29627
G01 X37.05640 Y64.15881
G01 X37.00735 Y64.00786
G01 X36.99077 Y63.85002
G04 P0 ( dwell for no time -- G64 should not smooth over this point )
G00 Z2.00000 ( retract )

G00 X41.00976 Y67.55400 ( rapid move to begin. )
G01 F250.00000
( Mill infeed pass 1/1 )
G01 Z-0.20000
G04 P0 ( dwell for no time -- G64 should not smooth over this point )
G01 F500.00000
G01 X41.00976 Y67.55400
G01 X41.03401 Y67.32339
G01 X41.10564 Y67.10285
G01 X41.22162 Y66.90203
G01 X41.37676 Y66.72969
G01 X41.56439 Y66.59340
G01 X41.77623 Y66.49906
G01 X42.00305 Y66.45085
G01 X42.23495 Y66.45085
G01 X42.46177 Y66.49906
G01 X42.67361 Y66.59340
G01 X42.86121 Y66.72969
G01 X43.01250 Y66.89769
G01 X43.03424 Y66.91727
G01 X43.05959 Y66.93190
G01 X43.08743 Y66.94095
G01 X43.11654 Y66.94402
G01 X51.72747 Y66.94402
G01 X51.75657 Y66.94095
G01 X51.78441 Y66.93190
G01 X51.80976 Y66.91727
G01 X51.83150 Y66.89769
G01 X51.98276 Y66.72969
G01 X52.17037 Y66.59340
G01 X52.38223 Y66.49906
G01 X52.60905 Y66.45085
G01 X52.84093 Y66.45085
G01 X53.06775 Y66.49906
G01 X53.27961 Y66.59340
G01 X53.46721 Y66.72969
G01 X53.62238 Y66.90203
G01 X53.73831 Y67.10285
G01 X53.80999 Y67.32339
G01 X53.83422 Y67.55400
G01 X53.80999 Y67.78463
G01 X53.73831 Y68.00518
G01 X53.62238 Y68.20599
G01 X53.46721 Y68.37833
G01 X53.27961 Y68.51463
G01 X53.06775 Y68.60896
G01 X52.84093 Y68.65717
G01 X52.60905 Y68.65717
G01 X52.38223 Y68.60896
G01 X52.17037 Y68.51463
G01 X51.98276 Y68.37833
G01 X51.83150 Y68.21034
G01 X51.80976 Y68.19075
G01 X51.78441 Y68.17612
G01 X51.75657 Y68.16708
G01 X51.72747 Y68.16401
G01 X43.11654 Y68.16401
G01 X43.08743 Y68.16708
G01 X43.05959 Y68.17612
G01 X43.03424 Y68.19075
G01 X43.01250 Y68.21034
G01 X42.86121 Y68.37833
G01 X42.67361 Y68.51463
G01 X42.46177 Y68.60896
G01 X42.23495 Y68.65717
G01 X42.00305 Y68.65717
G01 X41.77623 Y68.60896
G01 X41.56439 Y68.51463
G01 X41.37676 Y68.37833
G01 X41.22162 Y68.20599
G01 X41.10564 Y68.00518
G01 X41.03401 Y67.78463
G01 X41.00976 Y67.55400
G04 P0 ( dwell for no time -- G64 should not smooth over this point )
G00 Z2.00000 ( retract )

G00 X41.11336 Y74.08912 ( rapid move to begin. )
G01 F250.00000
( Mill infeed pass 1/1 )
G01 Z-0.20000
G04 P0 ( dwell for no time -- G64 should not smooth over this point )
G01 F500.00000
G01 X41.11336 Y74.08912
G01 X41.11336 Y74.22691
G01 X41.14202 Y74.36173
G01 X41.19807 Y74.48762
G01 X41.27907 Y74.59912
G01 X41.38151 Y74.69135
G01 X41.50087 Y74.76026
G01 X41.63193 Y74.80283
G01 X41.77633 Y74.81802
G01 X42.56165 Y74.81802
G01 X42.70605 Y74.80283
G01 X42.83711 Y74.76026
G01 X42.95646 Y74.69135
G01 X43.05888 Y74.59912
G01 X43.13990 Y74.48762
G01 X43.19596 Y74.36173
G01 X43.22461 Y74.22691
G01 X43.22461 Y74.08912
G01 X43.19596 Y73.95429
G01 X43.13990 Y73.82841
G01 X43.05888 Y73.71690
G01 X42.95646 Y73.62468
G01 X42.83711 Y73.55577
G01 X42.70605 Y73.51322
G01 X42.56165 Y73.49801
G01 X41.77633 Y73.49801
G01 X41.63193 Y73.51322
G01 X41.50087 Y73.55577
G01 X41.38151 Y73.62468
G01 X41.27907 Y73.71690
G01 X41.19807 Y73.82841
G01 X41.14202 Y73.95429
G01 X41.11336 Y74.08912
G04 P0 ( dwell for no time -- G64 should not smooth over this point )
G00 Z2.00000 ( retract )

G00 X41.11336 Y76.62912 ( rapid move to begin. )
G01 F250.00000
( Mill infeed pass 1/1 )
G01 Z-0.20000
G04 P0 ( dwell for no time -- G64 should not smooth over this point )
G01 F500.00000
G01 X41.11336 Y76.62912
G01 X41.11336 Y76.76691
G01 X41.14202 Y76.90173
G01 X41.19807 Y77.02762
G01 X41.27907 Y77.13912
G01 X41.38151 Y77.23135
G01 X41.50087 Y77.30026
G01 X41.63193 Y77.34283
G01 X41.77633 Y77.35802
G01 X42.56165 Y77.35802
G01 X42.70605 Y77.34283
G01 X42.83711 Y77.30026
G01 X42.95646 Y77.23135
G01 X43.05888 Y77.13912
G01 X43.13990 Y77.02762
G01 X43.19596 Y76.90173
G01 X43.22461 Y76.76691
G01 X43.22461 Y76.62912
G01 X43.19596 Y76.49429
G01 X43.13990 Y76.36841
G01 X43.05888 Y76.25690
G01 X42.95646 Y76.16468
G01 X42.83711 Y76.09577
G01 X42.70605 Y76.05320
G01 X42.56165 Y76.03801
G01 X41.77633 Y76.03801
G01 X41.63193 Y76.05320
G01 X41.50087 Y76.09577
G01 X41.38151 Y76.16468
G01 X41.27907 Y76.25690
G01 X41.19807 Y76.36841
G01 X41.14202 Y76.49429
G01 X41.11336 Y76.62912
G04 P0 ( dwell for no time -- G64 should not smooth over this point )
G00 Z2.00000 ( retract )

G00 X41.11336 Y79.16912 ( rapid move to begin. )
G01 F250.00000
( Mill infeed pass 1/1 )
G01 Z-0.20000
G04 P0 ( dwell for no time -- G64 should not smooth over this point )
G01 F500.00000
G01 X41.11336 Y79.16912
G01 X41.11336 Y79.30691
G01 X41.14202 Y79.44173
G01 X41.19807 Y79.56762
G01 X41.27907 Y79.67912
G01 X41.38151 Y79.77135
G01 X41.50087 Y79.84026
G01 X41.63193 Y79.88283
G01 X41.77633 Y79.89802
G01 X42.56165 Y79.89802
G01 X42.70605 Y79.88283
G01 X42.83711 Y79.84026
G01 X42.95646 Y79.77135
G01 X43.05888 Y79.67912
G01 X43.13990 Y79.56762
G01 X43.19596 Y79.44173
G01 X43.22461 Y79.30691
G01 X43.22461 Y79.16912
G01 X43.19596 Y79.03429
G01 X43.13990 Y78.90841
G01 X43.05888 Y78.79690
G01 X42.95646 Y78.70468
G01 X42.83711 Y78.63577
G01 X42.70605 Y78.59320
G01 X42.56165 Y78.57801
G01 X41.77633 Y78.57801
G01 X41.63193 Y78.59320
G01 X41.50087 Y78.63577
G01 X41.38151 Y78.70468
G01 X41.27907 Y78.79690
G01 X41.19807 Y78.90841
G01 X41.14202 Y79.03429
G01 X41.11336 Y79.16912
G04 P0 ( dwell for no time -- G64 should not smooth over this point )
G00 Z2.00000 ( retract )

G00 X41.11336 Y81.70912 ( rapid move to begin. )
G01 F250.00000
( Mill infeed pass 1/1 )
G01 Z-0.20000
G04 P0 ( dwell for no time -- G64 should not smooth over this point )
G01 F500.00000
G01 X41.11336 Y81.70912
G01 X41.11336 Y81.84691
G01 X41.14202 Y81.98173
G01 X41.19807 Y82.10762
G01 X41.27907 Y82.21912
G01 X41.38151 Y82.31135
G01 X41.50087 Y82.38026
G01 X41.63193 Y82.42283
G01 X41.77633 Y82.43802
G01 X42.56165 Y82.43802
G01 X42.70605 Y82.42283
G01 X42.83711 Y82.38026
G01 X42.95646 Y82.31135
G01 X43.05888 Y82.21912
G01 X43.13990 Y82.10762
G01 X43.19596 Y81.98173
G01 X43.22461 Y81.84691
G01 X43.22461 Y81.70912
G01 X43.19596 Y81.57429
G01 X43.13990 Y81.44841
G01 X43.05888 Y81.33690
G01 X42.95646 Y81.24468
G01 X42.83711 Y81.17577
G01 X42.70605 Y81.13320
G01 X42.56165 Y81.11801
G01 X41.77633 Y81.11801
G01 X41.63193 Y81.13320
G01 X41.50087 Y81.17577
G01 X41.38151 Y81.24468
G01 X41.27907 Y81.33690
G01 X41.19807 Y81.44841
G01 X41.14202 Y81.57429
G01 X41.11336 Y81.70912
G04 P0 ( dwell for no time -- G64 should not smooth over this point )
G00 Z2.00000 ( retract )

G00 X41.11336 Y84.24912 ( rapid move to begin. )
G01 F250.00000
( Mill infeed pass 1/1 )
G01 Z-0.20000
G04 P0 ( dwell for no time -- G64 should not smooth over this point )
G01 F500.00000
G01 X41.11336 Y84.24912
G01 X41.14202 Y84.11429
G01 X41.19807 Y83.98841
G01 X41.27907 Y83.87690
G01 X41.38151 Y83.78468
G01 X41.50087 Y83.71577
G01 X41.63193 Y83.67320
G01 X41.77633 Y83.65801
G01 X42.56165 Y83.65801
G01 X42.70605 Y83.67320
G01 X42.83711 Y83.71577
G01 X42.95646 Y83.78468
G01 X43.05888 Y83.87690
G01 X43.13990 Y83.98841
G01 X43.19596 Y84.11429
G01 X43.22461 Y84.24912
G01 X43.22461 Y84.38691
G01 X43.19596 Y84.52173
G01 X43.13990 Y84.64762
G01 X43.05888 Y84.75912
G01 X42.95646 Y84.85135
G01 X42.83711 Y84.92026
G01 X42.70605 Y84.96283
G01 X42.56165 Y84.97802
G01 X41.77633 Y84.97802
G01 X41.63193 Y84.96283
G01 X41.50087 Y84.92026
G01 X41.38151 Y84.85135
G01 X41.27907 Y84.75912
G01 X41.19807 Y84.64762
G01 X41.14202 Y84.52173
G01 X41.11336 Y84.38691
G01 X41.11336 Y84.24912
G04 P0 ( dwell for no time -- G64 should not smooth over this point )
G00 Z2.00000 ( retract )

G00 X41.11336 Y86.78912 ( rapid move to begin. )
G01 F250.00000
( Mill infeed pass 1/1 )
G01 Z-0.20000
G04 P0 ( dwell for no time -- G64 should not smooth over this point )
G01 F500.00000
G01 X41.11336 Y86.78912
G01 X41.11336 Y86.92691
G01 X41.14202 Y87.06173
G01 X41.19807 Y87.18762
G01 X41.27907 Y87.29912
G01 X41.38151 Y87.39135
G01 X41.50087 Y87.46026
G01 X41.63193 Y87.50283
G01 X41.77633 Y87.51802
G01 X42.56165 Y87.51802
G01 X42.70605 Y87.50283
G01 X42.83711 Y87.46026
G01 X42.95646 Y87.39135
G01 X43.05888 Y87.29912
G01 X43.13990 Y87.18762
G01 X43.19596 Y87.06173
G01 X43.22461 Y86.92691
G01 X43.22461 Y86.78912
G01 X43.19596 Y86.65429
G01 X43.13990 Y86.52841
G01 X43.05888 Y86.41690
G01 X42.95646 Y86.32468
G01 X42.83711 Y86.25577
G01 X42.70605 Y86.21320
G01 X42.56165 Y86.19801
G01 X41.77633 Y86.19801
G01 X41.63193 Y86.21320
G01 X41.50087 Y86.25577
G01 X41.38151 Y86.32468
G01 X41.27907 Y86.41690
G01 X41.19807 Y86.52841
G01 X41.14202 Y86.65429
G01 X41.11336 Y86.78912
G04 P0 ( dwell for no time -- G64 should not smooth over this point )
G00 Z2.00000 ( retract )

G00 X41.11336 Y89.32912 ( rapid move to begin. )
G01 F250.00000
( Mill infeed pass 1/1 )
G01 Z-0.20000
G04 P0 ( dwell for no time -- G64 should not smooth over this point )
G01 F500.00000
G01 X41.11336 Y89.32912
G01 X41.11336 Y89.46691
G01 X41.14202 Y89.60173
G01 X41.19807 Y89.72762
G01 X41.27907 Y89.83912
G01 X41.38151 Y89.93135
G01 X41.50087 Y90.00026
G01 X41.63193 Y90.04283
G01 X41.77633 Y90.05802
G01 X42.56165 Y90.05802
G01 X42.70605 Y90.04283
G01 X42.83711 Y90.00026
G01 X42.95646 Y89.93135
G01 X43.05888 Y89.83912
G01 X43.13990 Y89.72762
G01 X43.19596 Y89.60173
G01 X43.22461 Y89.46691
G01 X43.22461 Y89.32912
G01 X43.19596 Y89.19429
G01 X43.13990 Y89.06841
G01 X43.05888 Y88.95690
G01 X42.95646 Y88.86468
G01 X42.83711 Y88.79577
G01 X42.70605 Y88.75320
G01 X42.56165 Y88.73801
G01 X41.77633 Y88.73801
G01 X41.63193 Y88.75320
G01 X41.50087 Y88.79577
G01 X41.38151 Y88.86468
G01 X41.27907 Y88.95690
G01 X41.19807 Y89.06841
G01 X41.14202 Y89.19429
G01 X41.11336 Y89.32912
G04 P0 ( dwell for no time -- G64 should not smooth over this point )
G00 Z2.00000 ( retract )

G00 X41.11336 Y91.86912 ( rapid move to begin. )
G01 F250.00000
( Mill infeed pass 1/1 )
G01 Z-0.20000
G04 P0 ( dwell for no time -- G64 should not smooth over this point )
G01 F500.00000
G01 X41.11336 Y91.86912
G01 X41.11336 Y92.00691
G01 X41.14202 Y92.14173
G01 X41.19807 Y92.26762
G01 X41.27907 Y92.37912
G01 X41.38151 Y92.47135
G01 X41.50087 Y92.54026
G01 X41.63193 Y92.58283
G01 X41.77633 Y92.59802
G01 X42.56165 Y92.59802
G01 X42.70605 Y92.58283
G01 X42.83711 Y92.54026
G01 X42.95646 Y92.47135
G01 X43.05888 Y92.37912
G01 X43.13990 Y92.26762
G01 X43.19596 Y92.14173
G01 X43.22461 Y92.00691
G01 X43.22461 Y91.86912
G01 X43.19596 Y91.73429
G01 X43.13990 Y91.60841
G01 X43.05888 Y91.49690
G01 X42.95646 Y91.40468
G01 X42.83711 Y91.33577
G01 X42.70605 Y91.29320
G01 X42.56165 Y91.27801
G01 X41.77633 Y91.27801
G01 X41.63193 Y91.29320
G01 X41.50087 Y91.33577
G01 X41.38151 Y91.40468
G01 X41.27907 Y91.49690
G01 X41.19807 Y91.60841
G01 X41.14202 Y91.73429
G01 X41.11336 Y91.86912
G04 P0 ( dwell for no time -- G64 should not smooth over this point )
G00 Z2.00000 ( retract )

G00 X33.48900 Y93.81801 ( rapid move to begin. )
G01 F250.00000
( Mill infeed pass 1/1 )
G01 Z-0.20000
G04 P0 ( dwell for no time -- G64 should not smooth over this point )
G01 F500.00000
G01 X33.48900 Y93.81801
G01 X33.48900 Y95.13802
G01 X35.60898 Y95.13802
G01 X35.60898 Y93.81801
G01 X33.48900 Y93.81801
G04 P0 ( dwell for no time -- G64 should not smooth over this point )
G00 Z2.00000 ( retract )

G00 X33.49336 Y91.86912 ( rapid move to begin. )
G01 F250.00000
( Mill infeed pass 1/1 )
G01 Z-0.20000
G04 P0 ( dwell for no time -- G64 should not smooth over this point )
G01 F500.00000
G01 X33.49336 Y91.86912
G01 X33.49336 Y92.00691
G01 X33.52202 Y92.14173
G01 X33.57807 Y92.26762
G01 X33.65907 Y92.37912
G01 X33.76151 Y92.47135
G01 X33.88087 Y92.54026
G01 X34.01193 Y92.58283
G01 X34.15633 Y92.59802
G01 X34.94165 Y92.59802
G01 X35.08605 Y92.58283
G01 X35.21711 Y92.54026
G01 X35.33646 Y92.47135
G01 X35.43888 Y92.37912
G01 X35.51990 Y92.26762
G01 X35.57596 Y92.14173
G01 X35.60461 Y92.00691
G01 X35.60461 Y91.86912
G01 X35.57596 Y91.73429
G01 X35.51990 Y91.60841
G01 X35.43888 Y91.49690
G01 X35.33646 Y91.40468
G01 X35.21711 Y91.33577
G01 X35.08605 Y91.29320
G01 X34.94165 Y91.27801
G01 X34.15633 Y91.27801
G01 X34.01193 Y91.29320
G01 X33.88087 Y91.33577
G01 X33.76151 Y91.40468
G01 X33.65907 Y91.49690
G01 X33.57807 Y91.60841
G01 X33.52202 Y91.73429
G01 X33.49336 Y91.86912
G04 P0 ( dwell for no time -- G64 should not smooth over this point )
G00 Z2.00000 ( retract )

G00 X33.49336 Y89.32912 ( rapid move to begin. )
G01 F250.00000
( Mill infeed pass 1/1 )
G01 Z-0.20000
G04 P0 ( dwell for no time -- G64 should not smooth over this point )
G01 F500.00000
G01 X33.49336 Y89.32912
G01 X33.52202 Y89.19429
G01 X33.57807 Y89.06841
G01 X33.65907 Y88.95690
G01 X33.76151 Y88.86468
G01 X33.88087 Y88.79577
G01 X34.01193 Y88.75320
G01 X34.15633 Y88.73801
G01 X34.94165 Y88.73801
G01 X35.08605 Y88.75320
G01 X35.21711 Y88.79577
G01 X35.33646 Y88.86468
G01 X35.43888 Y88.95690
G01 X35.51990 Y89.06841
G01 X35.57596 Y89.19429
G01 X35.60461 Y89.32912
G01 X35.60461 Y89.46691
G01 X35.57596 Y89.60173
G01 X35.51990 Y89.72762
G01 X35.43888 Y89.83912
G01 X35.33646 Y89.93135
G01 X35.21711 Y90.00026
G01 X35.08605 Y90.04283
G01 X34.94165 Y90.05802
G01 X34.15633 Y90.05802
G01 X34.01193 Y90.04283
G01 X33.88087 Y90.00026
G01 X33.76151 Y89.93135
G01 X33.65907 Y89.83912
G01 X33.57807 Y89.72762
G01 X33.52202 Y89.60173
G01 X33.49336 Y89.46691
G01 X33.49336 Y89.32912
G04 P0 ( dwell for no time -- G64 should not smooth over this point )
G00 Z2.00000 ( retract )

G00 X33.49336 Y86.78912 ( rapid move to begin. )
G01 F250.00000
( Mill infeed pass 1/1 )
G01 Z-0.20000
G04 P0 ( dwell for no time -- G64 should not smooth over this point )
G01 F500.00000
G01 X33.49336 Y86.78912
G01 X33.52202 Y86.65429
G01 X33.57807 Y86.52841
G01 X33.65907 Y86.41690
G01 X33.76151 Y86.32468
G01 X33.88087 Y86.25577
G01 X34.01193 Y86.21320
G01 X34.15633 Y86.19801
G01 X34.94165 Y86.19801
G01 X35.08605 Y86.21320
G01 X35.21711 Y86.25577
G01 X35.33646 Y86.32468
G01 X35.43888 Y86.41690
G01 X35.51990 Y86.52841
G01 X35.57596 Y86.65429
G01 X35.60461 Y86.78912
G01 X35.60461 Y86.92691
G01 X35.57596 Y87.06173
G01 X35.51990 Y87.18762
G01 X35.43888 Y87.29912
G01 X35.33646 Y87.39135
G01 X35.21711 Y87.46026
G01 X35.08605 Y87.50283
G01 X34.94165 Y87.51802
G01 X34.15633 Y87.51802
G01 X34.01193 Y87.50283
G01 X33.88087 Y87.46026
G01 X33.76151 Y87.39135
G01 X33.65907 Y87.29912
G01 X33.57807 Y87.18762
G01 X33.52202 Y87.06173
G01 X33.49336 Y86.92691
G01 X33.49336 Y86.78912
G04 P0 ( dwell for no time -- G64 should not smooth over this point )
G00 Z2.00000 ( retract )

G00 X33.49336 Y84.24912 ( rapid move to begin. )
G01 F250.00000
( Mill infeed pass 1/1 )
G01 Z-0.20000
G04 P0 ( dwell for no time -- G64 should not smooth over this point )
G01 F500.00000
G01 X33.49336 Y84.24912
G01 X33.49336 Y84.38691
G01 X33.52202 Y84.52173
G01 X33.57807 Y84.64762
G01 X33.65907 Y84.75912
G01 X33.76151 Y84.85135
G01 X33.88087 Y84.92026
G01 X34.01193 Y84.96283
G01 X34.15633 Y84.97802
G01 X34.94165 Y84.97802
G01 X35.08605 Y84.96283
G01 X35.21711 Y84.92026
G01 X35.33646 Y84.85135
G01 X35.43888 Y84.75912
G01 X35.51990 Y84.64762
G01 X35.57596 Y84.52173
G01 X35.60461 Y84.38691
G01 X35.60461 Y84.24912
G01 X35.57596 Y84.11429
G01 X35.51990 Y83.98841
G01 X35.43888 Y83.87690
G01 X35.33646 Y83.78468
G01 X35.21711 Y83.71577
G01 X35.08605 Y83.67320
G01 X34.94165 Y83.65801
G01 X34.15633 Y83.65801
G01 X34.01193 Y83.67320
G01 X33.88087 Y83.71577
G01 X33.76151 Y83.78468
G01 X33.65907 Y83.87690
G01 X33.57807 Y83.98841
G01 X33.52202 Y84.11429
G01 X33.49336 Y84.24912
G04 P0 ( dwell for no time -- G64 should not smooth over this point )
G00 Z2.00000 ( retract )

G00 X33.49336 Y81.70912 ( rapid move to begin. )
G01 F250.00000
( Mill infeed pass 1/1 )
G01 Z-0.20000
G04 P0 ( dwell for no time -- G64 should not smooth over this point )
G01 F500.00000
G01 X33.49336 Y81.70912
G01 X33.49336 Y81.84691
G01 X33.52202 Y81.98173
G01 X33.57807 Y82.10762
G01 X33.65907 Y82.21912
G01 X33.76151 Y82.31135
G01 X33.88087 Y82.38026
G01 X34.01193 Y82.42283
G01 X34.15633 Y82.43802
G01 X34.94165 Y82.43802
G01 X35.08605 Y82.42283
G01 X35.21711 Y82.38026
G01 X35.33646 Y82.31135
G01 X35.43888 Y82.21912
G01 X35.51990 Y82.10762
G01 X35.57596 Y81.98173
G01 X35.60461 Y81.84691
G01 X35.60461 Y81.70912
G01 X35.57596 Y81.57429
G01 X35.51990 Y81.44841
G01 X35.43888 Y81.33690
G01 X35.33646 Y81.24468
G01 X35.21711 Y81.17577
G01 X35.08605 Y81.13320
G01 X34.94165 Y81.11801
G01 X34.15633 Y81.11801
G01 X34.01193 Y81.13320
G01 X33.88087 Y81.17577
G01 X33.76151 Y81.24468
G01 X33.65907 Y81.33690
G01 X33.57807 Y81.44841
G01 X33.52202 Y81.57429
G01 X33.49336 Y81.70912
G04 P0 ( dwell for no time -- G64 should not smooth over this point )
G00 Z2.00000 ( retract )

G00 X33.49336 Y79.16912 ( rapid move to begin. )
G01 F250.00000
( Mill infeed pass 1/1 )
G01 Z-0.20000
G04 P0 ( dwell for no time -- G64 should not smooth over this point )
G01 F500.00000
G01 X33.49336 Y79.16912
G01 X33.49336 Y79.30691
G01 X33.52202 Y79.44173
G01 X33.57807 Y79.56762
G01 X33.65907 Y79.67912
G01 X33.76151 Y79.77135
G01 X33.88087 Y79.84026
G01 X34.01193 Y79.88283
G01 X34.15633 Y79.89802
G01 X34.94165 Y79.89802
G01 X35.08605 Y79.88283
G01 X35.21711 Y79.84026
G01 X35.33646 Y79.77135
G01 X35.43888 Y79.67912
G01 X35.51990 Y79.56762
G01 X35.57596 Y79.44173
G01 X35.60461 Y79.30691
G01 X35.60461 Y79.16912
G01 X35.57596 Y79.03429
G01 X35.51990 Y78.90841
G01 X35.43888 Y78.79690
G01 X35.33646 Y78.70468
G01 X35.21711 Y78.63577
G01 X35.08605 Y78.59320
G01 X34.94165 Y78.57801
G01 X34.15633 Y78.57801
G01 X34.01193 Y78.59320
G01 X33.88087 Y78.63577
G01 X33.76151 Y78.70468
G01 X33.65907 Y78.79690
G01 X33.57807 Y78.90841
G01 X33.52202 Y79.03429
G01 X33.49336 Y79.16912
G04 P0 ( dwell for no time -- G64 should not smooth over this point )
G00 Z2.00000 ( retract )

G00 X33.49336 Y76.62912 ( rapid move to begin. )
G01 F250.00000
( Mill infeed pass 1/1 )
G01 Z-0.20000
G04 P0 ( dwell for no time -- G64 should not smooth over this point )
G01 F500.00000
G01 X33.49336 Y76.62912
G01 X33.49336 Y76.76691
G01 X33.52202 Y76.90173
G01 X33.57807 Y77.02762
G01 X33.65907 Y77.13912
G01 X33.76151 Y77.23135
G01 X33.88087 Y77.30026
G01 X34.01193 Y77.34283
G01 X34.15633 Y77.35802
G01 X34.94165 Y77.35802
G01 X35.08605 Y77.34283
G01 X35.21711 Y77.30026
G01 X35.33646 Y77.23135
G01 X35.43888 Y77.13912
G01 X35.51990 Y77.02762
G01 X35.57596 Y76.90173
G01 X35.60461 Y76.76691
G01 X35.60461 Y76.62912
G01 X35.57596 Y76.49429
G01 X35.51990 Y76.36841
G01 X35.43888 Y76.25690
G01 X35.33646 Y76.16468
G01 X35.21711 Y76.09577
G01 X35.08605 Y76.05320
G01 X34.94165 Y76.03801
G01 X34.15633 Y76.03801
G01 X34.01193 Y76.05320
G01 X33.88087 Y76.09577
G01 X33.76151 Y76.16468
G01 X33.65907 Y76.25690
G01 X33.57807 Y76.36841
G01 X33.52202 Y76.49429
G01 X33.49336 Y76.62912
G04 P0 ( dwell for no time -- G64 should not smooth over this point )
G00 Z2.00000 ( retract )

G00 X33.49336 Y74.08912 ( rapid move to begin. )
G01 F250.00000
( Mill infeed pass 1/1 )
G01 Z-0.20000
G04 P0 ( dwell for no time -- G64 should not smooth over this point )
G01 F500.00000
G01 X33.49336 Y74.08912
G01 X33.49336 Y74.22691
G01 X33.52202 Y74.36173
G01 X33.57807 Y74.48762
G01 X33.65907 Y74.59912
G01 X33.76151 Y74.69135
G01 X33.88087 Y74.76026
G01 X34.01193 Y74.80283
G01 X34.15633 Y74.81802
G01 X34.94165 Y74.81802
G01 X35.08605 Y74.80283
G01 X35.21711 Y74.76026
G01 X35.33646 Y74.69135
G01 X35.43888 Y74.59912
G01 X35.51990 Y74.48762
G01 X35.57596 Y74.36173
G01 X35.60461 Y74.22691
G01 X35.60461 Y74.08912
G01 X35.57596 Y73.95429
G01 X35.51990 Y73.82841
G01 X35.43888 Y73.71690
G01 X35.33646 Y73.62468
G01 X35.21711 Y73.55577
G01 X35.08605 Y73.51322
G01 X34.94165 Y73.49801
G01 X34.15633 Y73.49801
G01 X34.01193 Y73.51322
G01 X33.88087 Y73.55577
G01 X33.76151 Y73.62468
G01 X33.65907 Y73.71690
G01 X33.57807 Y73.82841
G01 X33.52202 Y73.95429
G01 X33.49336 Y74.08912
G04 P0 ( dwell for no time -- G64 should not smooth over this point )
G00 Z2.00000 ( retract )

G00 X33.89075 Y70.05001 ( rapid move to begin. )
G01 F250.00000
( Mill infeed pass 1/1 )
G01 Z-0.20000
G04 P0 ( dwell for no time -- G64 should not smooth over this point )
G01 F500.00000
G01 X33.89075 Y70.05001
G01 X33.90517 Y69.91295
G01 X33.94775 Y69.78188
G01 X34.01666 Y69.66253
G01 X34.10888 Y69.56014
G01 X34.22036 Y69.47912
G01 X34.34627 Y69.42308
G01 X34.48107 Y69.39441
G01 X34.61889 Y69.39441
G01 X34.75371 Y69.42308
G01 X34.87960 Y69.47912
G01 X34.99110 Y69.56014
G01 X35.08330 Y69.66253
G01 X35.15221 Y69.78188
G01 X35.19481 Y69.91295
G01 X35.20921 Y70.05001
G01 X35.19481 Y70.18707
G01 X35.15221 Y70.31816
G01 X35.08330 Y70.43751
G01 X34.99110 Y70.53992
G01 X34.87960 Y70.62092
G01 X34.75371 Y70.67701
G01 X34.61889 Y70.70563
G01 X34.48107 Y70.70563
G01 X34.34627 Y70.67701
G01 X34.22036 Y70.62092
G01 X34.10888 Y70.53992
G01 X34.01666 Y70.43751
G01 X33.94775 Y70.31816
G01 X33.90517 Y70.18707
G01 X33.89075 Y70.05001
G04 P0 ( dwell for no time -- G64 should not smooth over this point )
G00 Z2.00000 ( retract )

G00 X29.01677 Y74.24301 ( rapid move to begin. )
G01 F250.00000
( Mill infeed pass 1/1 )
G01 Z-0.20000
G04 P0 ( dwell for no time -- G64 should not smooth over this point )
G01 F500.00000
G01 X29.01677 Y74.24301
G01 X29.03335 Y74.08515
G01 X29.08240 Y73.93420
G01 X29.16175 Y73.79676
G01 X29.26797 Y73.67880
G01 X29.39637 Y73.58553
G01 X29.54138 Y73.52097
G01 X29.69662 Y73.48795
G01 X29.85535 Y73.48795
G01 X30.01059 Y73.52097
G01 X30.15560 Y73.58553
G01 X30.28400 Y73.67880
G01 X30.39022 Y73.79676
G01 X30.46957 Y73.93420
G01 X30.51862 Y74.08515
G01 X30.53520 Y74.24301
G01 X30.51862 Y74.40087
G01 X30.46957 Y74.55183
G01 X30.39022 Y74.68927
G01 X30.28400 Y74.80722
G01 X30.15560 Y74.90052
G01 X30.01059 Y74.96509
G01 X29.85535 Y74.99808
G01 X29.69662 Y74.99808
G01 X29.54138 Y74.96509
G01 X29.39637 Y74.90052
G01 X29.26797 Y74.80722
G01 X29.16175 Y74.68927
G01 X29.08240 Y74.55183
G01 X29.03335 Y74.40087
G01 X29.01677 Y74.24301
G04 P0 ( dwell for no time -- G64 should not smooth over this point )
G00 Z2.00000 ( retract )

G00 X25.52277 Y76.69800 ( rapid move to begin. )
G01 F250.00000
( Mill infeed pass 1/1 )
G01 Z-0.20000
G04 P0 ( dwell for no time -- G64 should not smooth over this point )
G01 F500.00000
G01 X25.52277 Y76.69800
G01 X25.53717 Y76.56094
G01 X25.57974 Y76.42988
G01 X25.64865 Y76.31052
G01 X25.74088 Y76.20811
G01 X25.85238 Y76.12711
G01 X25.97827 Y76.07105
G01 X26.11309 Y76.04240
G01 X26.25088 Y76.04240
G01 X26.38571 Y76.07105
G01 X26.51159 Y76.12711
G01 X26.62310 Y76.20811
G01 X26.71532 Y76.31052
G01 X26.78423 Y76.42988
G01 X26.82680 Y76.56094
G01 X26.84121 Y76.69800
G01 X26.82680 Y76.83508
G01 X26.78423 Y76.96615
G01 X26.71532 Y77.08550
G01 X26.62310 Y77.18792
G01 X26.51159 Y77.26892
G01 X26.38571 Y77.32497
G01 X26.25088 Y77.35362
G01 X26.11309 Y77.35362
G01 X25.97827 Y77.32497
G01 X25.85238 Y77.26892
G01 X25.74088 Y77.18792
G01 X25.64865 Y77.08550
G01 X25.57974 Y76.96615
G01 X25.53717 Y76.83508
G01 X25.52277 Y76.69800
G04 P0 ( dwell for no time -- G64 should not smooth over this point )
G00 Z2.00000 ( retract )

G00 X25.52277 Y79.23800 ( rapid move to begin. )
G01 F250.00000
( Mill infeed pass 1/1 )
G01 Z-0.20000
G04 P0 ( dwell for no time -- G64 should not smooth over this point )
G01 F500.00000
G01 X25.52277 Y79.23800
G01 X25.53717 Y79.10094
G01 X25.57974 Y78.96988
G01 X25.64865 Y78.85052
G01 X25.74088 Y78.74811
G01 X25.85238 Y78.66711
G01 X25.97827 Y78.61105
G01 X26.11309 Y78.58240
G01 X26.25088 Y78.58240
G01 X26.38571 Y78.61105
G01 X26.51159 Y78.66711
G01 X26.62310 Y78.74811
G01 X26.71532 Y78.85052
G01 X26.78423 Y78.96988
G01 X26.82680 Y79.10094
G01 X26.84121 Y79.23800
G01 X26.82680 Y79.37508
G01 X26.78423 Y79.50615
G01 X26.71532 Y79.62550
G01 X26.62310 Y79.72792
G01 X26.51159 Y79.80892
G01 X26.38571 Y79.86497
G01 X26.25088 Y79.89362
G01 X26.11309 Y79.89362
G01 X25.97827 Y79.86497
G01 X25.85238 Y79.80892
G01 X25.74088 Y79.72792
G01 X25.64865 Y79.62550
G01 X25.57974 Y79.50615
G01 X25.53717 Y79.37508
G01 X25.52277 Y79.23800
G04 P0 ( dwell for no time -- G64 should not smooth over this point )
G00 Z2.00000 ( retract )

G00 X25.52277 Y81.77800 ( rapid move to begin. )
G01 F250.00000
( Mill infeed pass 1/1 )
G01 Z-0.20000
G04 P0 ( dwell for no time -- G64 should not smooth over this point )
G01 F500.00000
G01 X25.52277 Y81.77800
G01 X25.53717 Y81.64094
G01 X25.57974 Y81.50988
G01 X25.64865 Y81.39052
G01 X25.74088 Y81.28811
G01 X25.85238 Y81.20711
G01 X25.97827 Y81.15105
G01 X26.11309 Y81.12240
G01 X26.25088 Y81.12240
G01 X26.38571 Y81.15105
G01 X26.51159 Y81.20711
G01 X26.62310 Y81.28811
G01 X26.71532 Y81.39052
G01 X26.78423 Y81.50988
G01 X26.82680 Y81.64094
G01 X26.84121 Y81.77800
G01 X26.82680 Y81.91508
G01 X26.78423 Y82.04615
G01 X26.71532 Y82.16550
G01 X26.62310 Y82.26792
G01 X26.51159 Y82.34892
G01 X26.38571 Y82.40497
G01 X26.25088 Y82.43362
G01 X26.11309 Y82.43362
G01 X25.97827 Y82.40497
G01 X25.85238 Y82.34892
G01 X25.74088 Y82.26792
G01 X25.64865 Y82.16550
G01 X25.57974 Y82.04615
G01 X25.53717 Y81.91508
G01 X25.52277 Y81.77800
G04 P0 ( dwell for no time -- G64 should not smooth over this point )
G00 Z2.00000 ( retract )

G00 X25.52277 Y84.31800 ( rapid move to begin. )
G01 F250.00000
( Mill infeed pass 1/1 )
G01 Z-0.20000
G04 P0 ( dwell for no time -- G64 should not smooth over this point )
G01 F500.00000
G01 X25.52277 Y84.31800
G01 X25.53717 Y84.18094
G01 X25.57974 Y84.04988
G01 X25.64865 Y83.93052
G01 X25.74088 Y83.82811
G01 X25.85238 Y83.74711
G01 X25.97827 Y83.69105
G01 X26.11309 Y83.66240
G01 X26.25088 Y83.66240
G01 X26.38571 Y83.69105
G01 X26.51159 Y83.74711
G01 X26.62310 Y83.82811
G01 X26.71532 Y83.93052
G01 X26.78423 Y84.04988
G01 X26.82680 Y84.18094
G01 X26.84121 Y84.31800
G01 X26.82680 Y84.45508
G01 X26.78423 Y84.58615
G01 X26.71532 Y84.70550
G01 X26.62310 Y84.80792
G01 X26.51159 Y84.88892
G01 X26.38571 Y84.94497
G01 X26.25088 Y84.97362
G01 X26.11309 Y84.97362
G01 X25.97827 Y84.94497
G01 X25.85238 Y84.88892
G01 X25.74088 Y84.80792
G01 X25.64865 Y84.70550
G01 X25.57974 Y84.58615
G01 X25.53717 Y84.45508
G01 X25.52277 Y84.31800
G04 P0 ( dwell for no time -- G64 should not smooth over this point )
G00 Z2.00000 ( retract )

G00 X25.52277 Y86.85800 ( rapid move to begin. )
G01 F250.00000
( Mill infeed pass 1/1 )
G01 Z-0.20000
G04 P0 ( dwell for no time -- G64 should not smooth over this point )
G01 F500.00000
G01 X25.52277 Y86.85800
G01 X25.53717 Y86.72094
G01 X25.57974 Y86.58988
G01 X25.64865 Y86.47052
G01 X25.74088 Y86.36811
G01 X25.85238 Y86.28711
G01 X25.97827 Y86.23105
G01 X26.11309 Y86.20240
G01 X26.25088 Y86.20240
G01 X26.38571 Y86.23105
G01 X26.51159 Y86.28711
G01 X26.62310 Y86.36811
G01 X26.71532 Y86.47052
G01 X26.78423 Y86.58988
G01 X26.82680 Y86.72094
G01 X26.84121 Y86.85800
G01 X26.82680 Y86.99508
G01 X26.78423 Y87.12615
G01 X26.71532 Y87.24550
G01 X26.62310 Y87.34792
G01 X26.51159 Y87.42892
G01 X26.38571 Y87.48497
G01 X26.25088 Y87.51362
G01 X26.11309 Y87.51362
G01 X25.97827 Y87.48497
G01 X25.85238 Y87.42892
G01 X25.74088 Y87.34792
G01 X25.64865 Y87.24550
G01 X25.57974 Y87.12615
G01 X25.53717 Y86.99508
G01 X25.52277 Y86.85800
G04 P0 ( dwell for no time -- G64 should not smooth over this point )
G00 Z2.00000 ( retract )

G00 X25.52277 Y89.39800 ( rapid move to begin. )
G01 F250.00000
( Mill infeed pass 1/1 )
G01 Z-0.20000
G04 P0 ( dwell for no time -- G64 should not smooth over this point )
G01 F500.00000
G01 X25.52277 Y89.39800
G01 X25.53717 Y89.26094
G01 X25.57974 Y89.12988
G01 X25.64865 Y89.01052
G01 X25.74088 Y88.90811
G01 X25.85238 Y88.82711
G01 X25.97827 Y88.77105
G01 X26.11309 Y88.74240
G01 X26.25088 Y88.74240
G01 X26.38571 Y88.77105
G01 X26.51159 Y88.82711
G01 X26.62310 Y88.90811
G01 X26.71532 Y89.01052
G01 X26.78423 Y89.12988
G01 X26.82680 Y89.26094
G01 X26.84121 Y89.39800
G01 X26.82680 Y89.53508
G01 X26.78423 Y89.66615
G01 X26.71532 Y89.78550
G01 X26.62310 Y89.88792
G01 X26.51159 Y89.96892
G01 X26.38571 Y90.02497
G01 X26.25088 Y90.05362
G01 X26.11309 Y90.05362
G01 X25.97827 Y90.02497
G01 X25.85238 Y89.96892
G01 X25.74088 Y89.88792
G01 X25.64865 Y89.78550
G01 X25.57974 Y89.66615
G01 X25.53717 Y89.53508
G01 X25.52277 Y89.39800
G04 P0 ( dwell for no time -- G64 should not smooth over this point )
G00 Z2.00000 ( retract )

G00 X29.01677 Y89.24301 ( rapid move to begin. )
G01 F250.00000
( Mill infeed pass 1/1 )
G01 Z-0.20000
G04 P0 ( dwell for no time -- G64 should not smooth over this point )
G01 F500.00000
G01 X29.01677 Y89.24301
G01 X29.03335 Y89.08515
G01 X29.08240 Y88.93420
G01 X29.16175 Y88.79676
G01 X29.26797 Y88.67880
G01 X29.39637 Y88.58550
G01 X29.54138 Y88.52094
G01 X29.69662 Y88.48794
G01 X29.85535 Y88.48794
G01 X30.01059 Y88.52094
G01 X30.15560 Y88.58550
G01 X30.28400 Y88.67880
G01 X30.39022 Y88.79676
G01 X30.46957 Y88.93420
G01 X30.51862 Y89.08515
G01 X30.53520 Y89.24301
G01 X30.51862 Y89.40087
G01 X30.46957 Y89.55182
G01 X30.39022 Y89.68929
G01 X30.28400 Y89.80722
G01 X30.15560 Y89.90051
G01 X30.01059 Y89.96508
G01 X29.85535 Y89.99808
G01 X29.69662 Y89.99808
G01 X29.54138 Y89.96508
G01 X29.39637 Y89.90051
G01 X29.26797 Y89.80722
G01 X29.16175 Y89.68929
G01 X29.08240 Y89.55182
G01 X29.03335 Y89.40087
G01 X29.01677 Y89.24301
G04 P0 ( dwell for no time -- G64 should not smooth over this point )
G00 Z2.00000 ( retract )

G00 X25.52277 Y94.47800 ( rapid move to begin. )
G01 F250.00000
( Mill infeed pass 1/1 )
G01 Z-0.20000
G04 P0 ( dwell for no time -- G64 should not smooth over this point )
G01 F500.00000
G01 X25.52277 Y94.47800
G01 X25.53717 Y94.61508
G01 X25.57974 Y94.74615
G01 X25.64865 Y94.86550
G01 X25.74088 Y94.96792
G01 X25.85238 Y95.04892
G01 X25.97827 Y95.10497
G01 X26.11309 Y95.13362
G01 X26.25088 Y95.13362
G01 X26.38571 Y95.10497
G01 X26.51159 Y95.04892
G01 X26.62310 Y94.96792
G01 X26.71532 Y94.86550
G01 X26.78423 Y94.74615
G01 X26.82680 Y94.61508
G01 X26.84121 Y94.47800
G01 X26.82680 Y94.34094
G01 X26.78423 Y94.20988
G01 X26.71532 Y94.09052
G01 X26.62310 Y93.98811
G01 X26.51159 Y93.90711
G01 X26.38571 Y93.85105
G01 X26.25088 Y93.82240
G01 X26.11309 Y93.82240
G01 X25.97827 Y93.85105
G01 X25.85238 Y93.90711
G01 X25.74088 Y93.98811
G01 X25.64865 Y94.09052
G01 X25.57974 Y94.20988
G01 X25.53717 Y94.34094
G01 X25.52277 Y94.47800
G04 P0 ( dwell for no time -- G64 should not smooth over this point )
G00 Z2.00000 ( retract )

G00 X25.52277 Y97.01800 ( rapid move to begin. )
G01 F250.00000
( Mill infeed pass 1/1 )
G01 Z-0.20000
G04 P0 ( dwell for no time -- G64 should not smooth over this point )
G01 F500.00000
G01 X25.52277 Y97.01800
G01 X25.53717 Y97.15508
G01 X25.57974 Y97.28615
G01 X25.64865 Y97.40550
G01 X25.74088 Y97.50792
G01 X25.85238 Y97.58892
G01 X25.97827 Y97.64497
G01 X26.11309 Y97.67362
G01 X26.25088 Y97.67362
G01 X26.38571 Y97.64497
G01 X26.51159 Y97.58892
G01 X26.62310 Y97.50792
G01 X26.71532 Y97.40550
G01 X26.78423 Y97.28615
G01 X26.82680 Y97.15508
G01 X26.84121 Y97.01800
G01 X26.82680 Y96.88094
G01 X26.78423 Y96.74988
G01 X26.71532 Y96.63052
G01 X26.62310 Y96.52811
G01 X26.51159 Y96.44711
G01 X26.38571 Y96.39105
G01 X26.25088 Y96.36240
G01 X26.11309 Y96.36240
G01 X25.97827 Y96.39105
G01 X25.85238 Y96.44711
G01 X25.74088 Y96.52811
G01 X25.64865 Y96.63052
G01 X25.57974 Y96.74988
G01 X25.53717 Y96.88094
G01 X25.52277 Y97.01800
G04 P0 ( dwell for no time -- G64 should not smooth over this point )
G00 Z2.00000 ( retract )

G00 X25.52277 Y99.55800 ( rapid move to begin. )
G01 F250.00000
( Mill infeed pass 1/1 )
G01 Z-0.20000
G04 P0 ( dwell for no time -- G64 should not smooth over this point )
G01 F500.00000
G01 X25.52277 Y99.55800
G01 X25.53717 Y99.69508
G01 X25.57974 Y99.82615
G01 X25.64865 Y99.94550
G01 X25.74088 Y100.04792
G01 X25.85238 Y100.12892
G01 X25.97827 Y100.18497
G01 X26.11309 Y100.21362
G01 X26.25088 Y100.21362
G01 X26.38571 Y100.18497
G01 X26.51159 Y100.12892
G01 X26.62310 Y100.04792
G01 X26.71532 Y99.94550
G01 X26.78423 Y99.82615
G01 X26.82680 Y99.69508
G01 X26.84121 Y99.55800
G01 X26.82680 Y99.42094
G01 X26.78423 Y99.28988
G01 X26.71532 Y99.17052
G01 X26.62310 Y99.06811
G01 X26.51159 Y98.98711
G01 X26.38571 Y98.93105
G01 X26.25088 Y98.90240
G01 X26.11309 Y98.90240
G01 X25.97827 Y98.93105
G01 X25.85238 Y98.98711
G01 X25.74088 Y99.06811
G01 X25.64865 Y99.17052
G01 X25.57974 Y99.28988
G01 X25.53717 Y99.42094
G01 X25.52277 Y99.55800
G04 P0 ( dwell for no time -- G64 should not smooth over this point )
G00 Z2.00000 ( retract )

G00 X25.52277 Y102.09800 ( rapid move to begin. )
G01 F250.00000
( Mill infeed pass 1/1 )
G01 Z-0.20000
G04 P0 ( dwell for no time -- G64 should not smooth over this point )
G01 F500.00000
G01 X25.52277 Y102.09800
G01 X25.53717 Y102.23508
G01 X25.57974 Y102.36615
G01 X25.64865 Y102.48550
G01 X25.74088 Y102.58792
G01 X25.85238 Y102.66892
G01 X25.97827 Y102.72497
G01 X26.11309 Y102.75362
G01 X26.25088 Y102.75362
G01 X26.38571 Y102.72497
G01 X26.51159 Y102.66892
G01 X26.62310 Y102.58792
G01 X26.71532 Y102.48550
G01 X26.78423 Y102.36615
G01 X26.82680 Y102.23508
G01 X26.84121 Y102.09800
G01 X26.82680 Y101.96094
G01 X26.78423 Y101.82988
G01 X26.71532 Y101.71052
G01 X26.62310 Y101.60811
G01 X26.51159 Y101.52711
G01 X26.38571 Y101.47105
G01 X26.25088 Y101.44240
G01 X26.11309 Y101.44240
G01 X25.97827 Y101.47105
G01 X25.85238 Y101.52711
G01 X25.74088 Y101.60811
G01 X25.64865 Y101.71052
G01 X25.57974 Y101.82988
G01 X25.53717 Y101.96094
G01 X25.52277 Y102.09800
G04 P0 ( dwell for no time -- G64 should not smooth over this point )
G00 Z2.00000 ( retract )

G00 X17.90277 Y97.01800 ( rapid move to begin. )
G01 F250.00000
( Mill infeed pass 1/1 )
G01 Z-0.20000
G04 P0 ( dwell for no time -- G64 should not smooth over this point )
G01 F500.00000
G01 X17.90277 Y97.01800
G01 X17.91717 Y97.15508
G01 X17.95974 Y97.28615
G01 X18.02865 Y97.40550
G01 X18.12088 Y97.50792
G01 X18.23238 Y97.58892
G01 X18.35827 Y97.64497
G01 X18.49309 Y97.67362
G01 X18.63088 Y97.67362
G01 X18.76571 Y97.64497
G01 X18.89159 Y97.58892
G01 X19.00310 Y97.50792
G01 X19.09532 Y97.40550
G01 X19.16423 Y97.28615
G01 X19.20680 Y97.15508
G01 X19.22121 Y97.01800
G01 X19.20680 Y96.88094
G01 X19.16423 Y96.74988
G01 X19.09532 Y96.63052
G01 X19.00310 Y96.52811
G01 X18.89159 Y96.44711
G01 X18.76571 Y96.39105
G01 X18.63088 Y96.36240
G01 X18.49309 Y96.36240
G01 X18.35827 Y96.39105
G01 X18.23238 Y96.44711
G01 X18.12088 Y96.52811
G01 X18.02865 Y96.63052
G01 X17.95974 Y96.74988
G01 X17.91717 Y96.88094
G01 X17.90277 Y97.01800
G04 P0 ( dwell for no time -- G64 should not smooth over this point )
G00 Z2.00000 ( retract )

G00 X17.90277 Y99.55800 ( rapid move to begin. )
G01 F250.00000
( Mill infeed pass 1/1 )
G01 Z-0.20000
G04 P0 ( dwell for no time -- G64 should not smooth over this point )
G01 F500.00000
G01 X17.90277 Y99.55800
G01 X17.91717 Y99.69508
G01 X17.95974 Y99.82615
G01 X18.02865 Y99.94550
G01 X18.12088 Y100.04792
G01 X18.23238 Y100.12892
G01 X18.35827 Y100.18497
G01 X18.49309 Y100.21362
G01 X18.63088 Y100.21362
G01 X18.76571 Y100.18497
G01 X18.89159 Y100.12892
G01 X19.00310 Y100.04792
G01 X19.09532 Y99.94550
G01 X19.16423 Y99.82615
G01 X19.20680 Y99.69508
G01 X19.22121 Y99.55800
G01 X19.20680 Y99.42094
G01 X19.16423 Y99.28988
G01 X19.09532 Y99.17052
G01 X19.00310 Y99.06811
G01 X18.89159 Y98.98711
G01 X18.76571 Y98.93105
G01 X18.63088 Y98.90240
G01 X18.49309 Y98.90240
G01 X18.35827 Y98.93105
G01 X18.23238 Y98.98711
G01 X18.12088 Y99.06811
G01 X18.02865 Y99.17052
G01 X17.95974 Y99.28988
G01 X17.91717 Y99.42094
G01 X17.90277 Y99.55800
G04 P0 ( dwell for no time -- G64 should not smooth over this point )
G00 Z2.00000 ( retract )

G00 X25.52277 Y104.63800 ( rapid move to begin. )
G01 F250.00000
( Mill infeed pass 1/1 )
G01 Z-0.20000
G04 P0 ( dwell for no time -- G64 should not smooth over this point )
G01 F500.00000
G01 X25.52277 Y104.63800
G01 X25.53717 Y104.50094
G01 X25.57974 Y104.36988
G01 X25.64865 Y104.25052
G01 X25.74088 Y104.14811
G01 X25.85238 Y104.06711
G01 X25.97827 Y104.01105
G01 X26.11309 Y103.98240
G01 X26.25088 Y103.98240
G01 X26.38571 Y104.01105
G01 X26.51159 Y104.06711
G01 X26.62310 Y104.14811
G01 X26.71532 Y104.25052
G01 X26.78423 Y104.36988
G01 X26.82680 Y104.50094
G01 X26.84121 Y104.63800
G01 X26.82680 Y104.77508
G01 X26.78423 Y104.90615
G01 X26.71532 Y105.02550
G01 X26.62310 Y105.12792
G01 X26.51159 Y105.20892
G01 X26.38571 Y105.26497
G01 X26.25088 Y105.29362
G01 X26.11309 Y105.29362
G01 X25.97827 Y105.26497
G01 X25.85238 Y105.20892
G01 X25.74088 Y105.12792
G01 X25.64865 Y105.02550
G01 X25.57974 Y104.90615
G01 X25.53717 Y104.77508
G01 X25.52277 Y104.63800
G04 P0 ( dwell for no time -- G64 should not smooth over this point )
G00 Z2.00000 ( retract )

G00 X25.52277 Y107.17800 ( rapid move to begin. )
G01 F250.00000
( Mill infeed pass 1/1 )
G01 Z-0.20000
G04 P0 ( dwell for no time -- G64 should not smooth over this point )
G01 F500.00000
G01 X25.52277 Y107.17800
G01 X25.53717 Y107.04094
G01 X25.57974 Y106.90988
G01 X25.64865 Y106.79052
G01 X25.74088 Y106.68811
G01 X25.85238 Y106.60711
G01 X25.97827 Y106.55105
G01 X26.11309 Y106.52240
G01 X26.25088 Y106.52240
G01 X26.38571 Y106.55105
G01 X26.51159 Y106.60711
G01 X26.62310 Y106.68811
G01 X26.71532 Y106.79052
G01 X26.78423 Y106.90988
G01 X26.82680 Y107.04094
G01 X26.84121 Y107.17800
G01 X26.82680 Y107.31508
G01 X26.78423 Y107.44615
G01 X26.71532 Y107.56550
G01 X26.62310 Y107.66792
G01 X26.51159 Y107.74892
G01 X26.38571 Y107.80497
G01 X26.25088 Y107.83362
G01 X26.11309 Y107.83362
G01 X25.97827 Y107.80497
G01 X25.85238 Y107.74892
G01 X25.74088 Y107.66792
G01 X25.64865 Y107.56550
G01 X25.57974 Y107.44615
G01 X25.53717 Y107.31508
G01 X25.52277 Y107.17800
G04 P0 ( dwell for no time -- G64 should not smooth over this point )
G00 Z2.00000 ( retract )

G00 X22.62798 Y115.05401 ( rapid move to begin. )
G01 F250.00000
( Mill infeed pass 1/1 )
G01 Z-0.20000
G04 P0 ( dwell for no time -- G64 should not smooth over this point )
G01 F500.00000
G01 X22.62798 Y115.05401
G01 X22.62798 Y116.57402
G01 X24.14799 Y116.57402
G01 X24.14799 Y115.05401
G01 X22.62798 Y115.05401
G04 P0 ( dwell for no time -- G64 should not smooth over this point )
G00 Z2.00000 ( retract )

G00 X25.16877 Y115.81400 ( rapid move to begin. )
G01 F250.00000
( Mill infeed pass 1/1 )
G01 Z-0.20000
G04 P0 ( dwell for no time -- G64 should not smooth over this point )
G01 F500.00000
G01 X25.16877 Y115.81400
G01 X25.18535 Y115.65616
G01 X25.23440 Y115.50521
G01 X25.31375 Y115.36775
G01 X25.41997 Y115.24979
G01 X25.54837 Y115.15650
G01 X25.69338 Y115.09195
G01 X25.84863 Y115.05893
G01 X26.00735 Y115.05893
G01 X26.16259 Y115.09195
G01 X26.30760 Y115.15650
G01 X26.43600 Y115.24979
G01 X26.54222 Y115.36775
G01 X26.62157 Y115.50521
G01 X26.67062 Y115.65616
G01 X26.68721 Y115.81400
G01 X26.67062 Y115.97186
G01 X26.62157 Y116.12281
G01 X26.54222 Y116.26028
G01 X26.43600 Y116.37824
G01 X26.30760 Y116.47153
G01 X26.16259 Y116.53607
G01 X26.00735 Y116.56909
G01 X25.84863 Y116.56909
G01 X25.69338 Y116.53607
G01 X25.54837 Y116.47153
G01 X25.41997 Y116.37824
G01 X25.31375 Y116.26028
G01 X25.23440 Y116.12281
G01 X25.18535 Y115.97186
G01 X25.16877 Y115.81400
G04 P0 ( dwell for no time -- G64 should not smooth over this point )
G00 Z2.00000 ( retract )

G00 X28.97877 Y114.63801 ( rapid move to begin. )
G01 F250.00000
( Mill infeed pass 1/1 )
G01 Z-0.20000
G04 P0 ( dwell for no time -- G64 should not smooth over this point )
G01 F500.00000
G01 X28.97877 Y114.63801
G01 X28.99535 Y114.48017
G01 X29.04440 Y114.32922
G01 X29.12375 Y114.19175
G01 X29.22997 Y114.07380
G01 X29.35837 Y113.98050
G01 X29.50338 Y113.91593
G01 X29.65862 Y113.88294
G01 X29.81735 Y113.88294
G01 X29.97259 Y113.91593
G01 X30.11760 Y113.98050
G01 X30.24600 Y114.07380
G01 X30.35222 Y114.19175
G01 X30.43157 Y114.32922
G01 X30.48062 Y114.48017
G01 X30.49721 Y114.63801
G01 X30.48062 Y114.79587
G01 X30.43157 Y114.94682
G01 X30.35222 Y115.08428
G01 X30.24600 Y115.20224
G01 X30.11760 Y115.29554
G01 X29.97259 Y115.36008
G01 X29.81735 Y115.39307
G01 X29.65862 Y115.39307
G01 X29.50338 Y115.36008
G01 X29.35837 Y115.29554
G01 X29.22997 Y115.20224
G01 X29.12375 Y115.08428
G01 X29.04440 Y114.94682
G01 X28.99535 Y114.79587
G01 X28.97877 Y114.63801
G04 P0 ( dwell for no time -- G64 should not smooth over this point )
G00 Z2.00000 ( retract )

G00 X29.73996 Y118.04920 ( rapid move to begin. )
G01 F250.00000
( Mill infeed pass 1/1 )
G01 Z-0.20000
G04 P0 ( dwell for no time -- G64 should not smooth over this point )
G01 F500.00000
G01 X29.73996 Y118.04920
G01 X29.76419 Y117.81859
G01 X29.83587 Y117.59805
G01 X29.95179 Y117.39723
G01 X30.10696 Y117.22489
G01 X30.29456 Y117.08860
G01 X30.50643 Y116.99426
G01 X30.73325 Y116.94605
G01 X30.96512 Y116.94605
G01 X31.19195 Y116.99426
G01 X31.40381 Y117.08860
G01 X31.59141 Y117.22489
G01 X31.74658 Y117.39723
G01 X31.75974 Y117.42002
G01 X31.77693 Y117.44369
G01 X31.79868 Y117.46327
G01 X31.82403 Y117.47790
G01 X31.85186 Y117.48695
G01 X31.88097 Y117.49002
G01 X36.25247 Y117.49002
G01 X36.28157 Y117.48695
G01 X36.30941 Y117.47790
G01 X36.33476 Y117.46327
G01 X36.35650 Y117.44369
G01 X36.50776 Y117.27569
G01 X36.69536 Y117.13940
G01 X36.90720 Y117.04506
G01 X37.13405 Y116.99685
G01 X37.36590 Y116.99685
G01 X37.59275 Y117.04506
G01 X37.80458 Y117.13940
G01 X37.99221 Y117.27569
G01 X38.14738 Y117.44803
G01 X38.26328 Y117.64885
G01 X38.33499 Y117.86939
G01 X38.35922 Y118.10000
G01 X38.33499 Y118.33063
G01 X38.26328 Y118.55118
G01 X38.14738 Y118.75199
G01 X37.99221 Y118.92433
G01 X37.80458 Y119.06063
G01 X37.59275 Y119.15496
G01 X37.36590 Y119.20317
G01 X37.13405 Y119.20317
G01 X36.90720 Y119.15496
G01 X36.69536 Y119.06063
G01 X36.50776 Y118.92433
G01 X36.35650 Y118.75634
G01 X36.33476 Y118.73675
G01 X36.30941 Y118.72212
G01 X36.28157 Y118.71308
G01 X36.25247 Y118.71001
G01 X31.80096 Y118.71001
G01 X31.77185 Y118.71308
G01 X31.74402 Y118.72212
G01 X31.71869 Y118.73675
G01 X31.69692 Y118.75634
G01 X31.59141 Y118.87353
G01 X31.40381 Y119.00983
G01 X31.19195 Y119.10416
G01 X30.96512 Y119.15237
G01 X30.73325 Y119.15237
G01 X30.50643 Y119.10416
G01 X30.29456 Y119.00983
G01 X30.10696 Y118.87353
G01 X29.95179 Y118.70119
G01 X29.83587 Y118.50038
G01 X29.76419 Y118.27983
G01 X29.73996 Y118.04920
G04 P0 ( dwell for no time -- G64 should not smooth over this point )
G00 Z2.00000 ( retract )

G00 X25.85975 Y122.07203 ( rapid move to begin. )
G01 F250.00000
( Mill infeed pass 1/1 )
G01 Z-0.20000
G04 P0 ( dwell for no time -- G64 should not smooth over this point )
G01 F500.00000
G01 X25.85975 Y122.07203
G01 X25.87415 Y121.93494
G01 X25.91675 Y121.80388
G01 X25.98566 Y121.68452
G01 X26.07789 Y121.58211
G01 X26.18937 Y121.50111
G01 X26.31527 Y121.44505
G01 X26.45007 Y121.41640
G01 X26.58789 Y121.41640
G01 X26.72269 Y121.44505
G01 X26.84860 Y121.50111
G01 X26.96010 Y121.58211
G01 X27.05231 Y121.68452
G01 X27.12122 Y121.80388
G01 X27.16381 Y121.93494
G01 X27.17821 Y122.07203
G01 X27.16381 Y122.20909
G01 X27.12122 Y122.34015
G01 X27.05231 Y122.45950
G01 X26.96010 Y122.56192
G01 X26.84860 Y122.64292
G01 X26.72269 Y122.69897
G01 X26.58789 Y122.72763
G01 X26.45007 Y122.72763
G01 X26.31527 Y122.69897
G01 X26.18937 Y122.64292
G01 X26.07789 Y122.56192
G01 X25.98566 Y122.45950
G01 X25.91675 Y122.34015
G01 X25.87415 Y122.20909
G01 X25.85975 Y122.07203
G04 P0 ( dwell for no time -- G64 should not smooth over this point )
G00 Z2.00000 ( retract )

G00 X28.13676 Y125.88200 ( rapid move to begin. )
G01 F250.00000
( Mill infeed pass 1/1 )
G01 Z-0.20000
G04 P0 ( dwell for no time -- G64 should not smooth over this point )
G01 F500.00000
G01 X28.13676 Y125.88200
G01 X28.15881 Y125.67217
G01 X28.22401 Y125.47151
G01 X28.32949 Y125.28881
G01 X28.47069 Y125.13202
G01 X28.64138 Y125.00799
G01 X28.83412 Y124.92219
G01 X29.04049 Y124.87832
G01 X29.25149 Y124.87832
G01 X29.45786 Y124.92219
G01 X29.65060 Y125.00799
G01 X29.82129 Y125.13202
G01 X29.96246 Y125.28881
G01 X30.06797 Y125.47151
G01 X30.13317 Y125.67217
G01 X30.15522 Y125.88200
G01 X30.13317 Y126.09183
G01 X30.06797 Y126.29249
G01 X29.96246 Y126.47522
G01 X29.82129 Y126.63201
G01 X29.65060 Y126.75604
G01 X29.45786 Y126.84184
G01 X29.25149 Y126.88571
G01 X29.04049 Y126.88571
G01 X28.83412 Y126.84184
G01 X28.64138 Y126.75604
G01 X28.47069 Y126.63201
G01 X28.32949 Y126.47522
G01 X28.22401 Y126.29249
G01 X28.15881 Y126.09183
G01 X28.13676 Y125.88200
G04 P0 ( dwell for no time -- G64 should not smooth over this point )
G00 Z2.00000 ( retract )

G00 X28.13676 Y129.94600 ( rapid move to begin. )
G01 F250.00000
( Mill infeed pass 1/1 )
G01 Z-0.20000
G04 P0 ( dwell for no time -- G64 should not smooth over this point )
G01 F500.00000
G01 X28.13676 Y129.94600
G01 X28.15881 Y129.73617
G01 X28.22401 Y129.53551
G01 X28.32949 Y129.35281
G01 X28.47069 Y129.19602
G01 X28.64138 Y129.07199
G01 X28.83412 Y128.98619
G01 X29.04049 Y128.94232
G01 X29.25149 Y128.94232
G01 X29.45786 Y128.98619
G01 X29.65060 Y129.07199
G01 X29.82129 Y129.19602
G01 X29.96246 Y129.35281
G01 X30.06797 Y129.53551
G01 X30.13317 Y129.73617
G01 X30.15522 Y129.94600
G01 X30.13317 Y130.15583
G01 X30.06797 Y130.35649
G01 X29.96246 Y130.53922
G01 X29.82129 Y130.69601
G01 X29.65060 Y130.82004
G01 X29.45786 Y130.90584
G01 X29.25149 Y130.94971
G01 X29.04049 Y130.94971
G01 X28.83412 Y130.90584
G01 X28.64138 Y130.82004
G01 X28.47069 Y130.69601
G01 X28.32949 Y130.53922
G01 X28.22401 Y130.35649
G01 X28.15881 Y130.15583
G01 X28.13676 Y129.94600
G04 P0 ( dwell for no time -- G64 should not smooth over this point )
G00 Z2.00000 ( retract )

G00 X34.95676 Y121.29001 ( rapid move to begin. )
G01 F250.00000
( Mill infeed pass 1/1 )
G01 Z-0.20000
G04 P0 ( dwell for no time -- G64 should not smooth over this point )
G01 F500.00000
G01 X34.95676 Y121.29001
G01 X34.97116 Y121.42707
G01 X35.01376 Y121.55813
G01 X35.08267 Y121.67749
G01 X35.17487 Y121.77993
G01 X35.28638 Y121.86093
G01 X35.41228 Y121.91698
G01 X35.54708 Y121.94564
G01 X35.68490 Y121.94564
G01 X35.81970 Y121.91698
G01 X35.94561 Y121.86093
G01 X36.05709 Y121.77993
G01 X36.14932 Y121.67749
G01 X36.21823 Y121.55813
G01 X36.26082 Y121.42707
G01 X36.27522 Y121.29001
G01 X36.26082 Y121.15295
G01 X36.21823 Y121.02189
G01 X36.14932 Y120.90253
G01 X36.05709 Y120.80012
G01 X35.94561 Y120.71910
G01 X35.81970 Y120.66304
G01 X35.68490 Y120.63439
G01 X35.54708 Y120.63439
G01 X35.41228 Y120.66304
G01 X35.28638 Y120.71910
G01 X35.17487 Y120.80012
G01 X35.08267 Y120.90253
G01 X35.01376 Y121.02189
G01 X34.97116 Y121.15295
G01 X34.95676 Y121.29001
G04 P0 ( dwell for no time -- G64 should not smooth over this point )
G00 Z2.00000 ( retract )

G00 X32.36075 Y125.86201 ( rapid move to begin. )
G01 F250.00000
( Mill infeed pass 1/1 )
G01 Z-0.20000
G04 P0 ( dwell for no time -- G64 should not smooth over this point )
G01 F500.00000
G01 X32.36075 Y125.86201
G01 X32.38280 Y126.07184
G01 X32.44800 Y126.27250
G01 X32.55351 Y126.45523
G01 X32.69469 Y126.61202
G01 X32.86538 Y126.73603
G01 X33.05811 Y126.82185
G01 X33.26449 Y126.86572
G01 X33.47548 Y126.86572
G01 X33.68186 Y126.82185
G01 X33.87459 Y126.73603
G01 X34.04528 Y126.61202
G01 X34.18648 Y126.45523
G01 X34.29197 Y126.27250
G01 X34.35717 Y126.07184
G01 X34.37922 Y125.86201
G01 X34.35717 Y125.65218
G01 X34.29197 Y125.45152
G01 X34.18648 Y125.26879
G01 X34.04528 Y125.11200
G01 X33.87459 Y124.98800
G01 X33.68186 Y124.90217
G01 X33.47548 Y124.85831
G01 X33.26449 Y124.85831
G01 X33.05811 Y124.90217
G01 X32.86538 Y124.98800
G01 X32.69469 Y125.11200
G01 X32.55351 Y125.26879
G01 X32.44800 Y125.45152
G01 X32.38280 Y125.65218
G01 X32.36075 Y125.86201
G04 P0 ( dwell for no time -- G64 should not smooth over this point )
G00 Z2.00000 ( retract )

G00 X32.36075 Y129.92601 ( rapid move to begin. )
G01 F250.00000
( Mill infeed pass 1/1 )
G01 Z-0.20000
G04 P0 ( dwell for no time -- G64 should not smooth over this point )
G01 F500.00000
G01 X32.36075 Y129.92601
G01 X32.38280 Y129.71618
G01 X32.44800 Y129.51552
G01 X32.55351 Y129.33279
G01 X32.69469 Y129.17600
G01 X32.86538 Y129.05200
G01 X33.05811 Y128.96617
G01 X33.26449 Y128.92230
G01 X33.47548 Y128.92230
G01 X33.68186 Y128.96617
G01 X33.87459 Y129.05200
G01 X34.04528 Y129.17600
G01 X34.18648 Y129.33279
G01 X34.29197 Y129.51552
G01 X34.35717 Y129.71618
G01 X34.37922 Y129.92601
G01 X34.35717 Y130.13584
G01 X34.29197 Y130.33650
G01 X34.18648 Y130.51923
G01 X34.04528 Y130.67602
G01 X33.87459 Y130.80003
G01 X33.68186 Y130.88585
G01 X33.47548 Y130.92972
G01 X33.26449 Y130.92972
G01 X33.05811 Y130.88585
G01 X32.86538 Y130.80003
G01 X32.69469 Y130.67602
G01 X32.55351 Y130.51923
G01 X32.44800 Y130.33650
G01 X32.38280 Y130.13584
G01 X32.36075 Y129.92601
G04 P0 ( dwell for no time -- G64 should not smooth over this point )
G00 Z2.00000 ( retract )

G00 X32.61077 Y133.99001 ( rapid move to begin. )
G01 F250.00000
( Mill infeed pass 1/1 )
G01 Z-0.20000
G04 P0 ( dwell for no time -- G64 should not smooth over this point )
G01 F500.00000
G01 X32.61077 Y133.99001
G01 X32.62735 Y133.83215
G01 X32.67640 Y133.68120
G01 X32.75575 Y133.54376
G01 X32.86197 Y133.42580
G01 X32.99037 Y133.33251
G01 X33.13538 Y133.26794
G01 X33.29062 Y133.23495
G01 X33.44935 Y133.23495
G01 X33.60459 Y133.26794
G01 X33.74960 Y133.33251
G01 X33.87802 Y133.42580
G01 X33.98422 Y133.54376
G01 X34.06357 Y133.68120
G01 X34.11262 Y133.83215
G01 X34.12923 Y133.99001
G01 X34.11262 Y134.14787
G01 X34.06357 Y134.29882
G01 X33.98422 Y134.43626
G01 X33.87802 Y134.55422
G01 X33.74960 Y134.64752
G01 X33.60459 Y134.71208
G01 X33.44935 Y134.74508
G01 X33.29062 Y134.74508
G01 X33.13538 Y134.71208
G01 X32.99037 Y134.64752
G01 X32.86197 Y134.55422
G01 X32.75575 Y134.43626
G01 X32.67640 Y134.29882
G01 X32.62735 Y134.14787
G01 X32.61077 Y133.99001
G04 P0 ( dwell for no time -- G64 should not smooth over this point )
G00 Z2.00000 ( retract )

G00 X28.38677 Y134.01000 ( rapid move to begin. )
G01 F250.00000
( Mill infeed pass 1/1 )
G01 Z-0.20000
G04 P0 ( dwell for no time -- G64 should not smooth over this point )
G01 F500.00000
G01 X28.38677 Y134.01000
G01 X28.40336 Y134.16786
G01 X28.45240 Y134.31881
G01 X28.53175 Y134.45628
G01 X28.63795 Y134.57424
G01 X28.76637 Y134.66753
G01 X28.91138 Y134.73207
G01 X29.06663 Y134.76509
G01 X29.22535 Y134.76509
G01 X29.38060 Y134.73207
G01 X29.52561 Y134.66753
G01 X29.65400 Y134.57424
G01 X29.76022 Y134.45628
G01 X29.83957 Y134.31881
G01 X29.88862 Y134.16786
G01 X29.90521 Y134.01000
G01 X29.88862 Y133.85217
G01 X29.83957 Y133.70121
G01 X29.76022 Y133.56375
G01 X29.65400 Y133.44579
G01 X29.52561 Y133.35250
G01 X29.38060 Y133.28796
G01 X29.22535 Y133.25494
G01 X29.06663 Y133.25494
G01 X28.91138 Y133.28796
G01 X28.76637 Y133.35250
G01 X28.63795 Y133.44579
G01 X28.53175 Y133.56375
G01 X28.45240 Y133.70121
G01 X28.40336 Y133.85217
G01 X28.38677 Y134.01000
G04 P0 ( dwell for no time -- G64 should not smooth over this point )
G00 Z2.00000 ( retract )

G00 X18.38677 Y138.09402 ( rapid move to begin. )
G01 F250.00000
( Mill infeed pass 1/1 )
G01 Z-0.20000
G04 P0 ( dwell for no time -- G64 should not smooth over this point )
G01 F500.00000
G01 X18.38677 Y138.09402
G01 X18.40335 Y138.25188
G01 X18.45240 Y138.40283
G01 X18.53175 Y138.54027
G01 X18.63797 Y138.65823
G01 X18.76637 Y138.75152
G01 X18.91138 Y138.81609
G01 X19.06662 Y138.84908
G01 X19.22535 Y138.84908
G01 X19.38059 Y138.81609
G01 X19.52560 Y138.75152
G01 X19.65402 Y138.65823
G01 X19.76022 Y138.54027
G01 X19.83957 Y138.40283
G01 X19.88862 Y138.25188
G01 X19.90523 Y138.09402
G01 X19.88862 Y137.93616
G01 X19.83957 Y137.78520
G01 X19.76022 Y137.64774
G01 X19.65402 Y137.52981
G01 X19.52560 Y137.43651
G01 X19.38059 Y137.37195
G01 X19.22535 Y137.33895
G01 X19.06662 Y137.33895
G01 X18.91138 Y137.37195
G01 X18.76637 Y137.43651
G01 X18.63797 Y137.52981
G01 X18.53175 Y137.64774
G01 X18.45240 Y137.78520
G01 X18.40335 Y137.93616
G01 X18.38677 Y138.09402
G04 P0 ( dwell for no time -- G64 should not smooth over this point )
G00 Z2.00000 ( retract )

G00 X18.38677 Y134.01000 ( rapid move to begin. )
G01 F250.00000
( Mill infeed pass 1/1 )
G01 Z-0.20000
G04 P0 ( dwell for no time -- G64 should not smooth over this point )
G01 F500.00000
G01 X18.38677 Y134.01000
G01 X18.40335 Y134.16786
G01 X18.45240 Y134.31881
G01 X18.53175 Y134.45628
G01 X18.63797 Y134.57424
G01 X18.76637 Y134.66753
G01 X18.91138 Y134.73207
G01 X19.06662 Y134.76509
G01 X19.22535 Y134.76509
G01 X19.38059 Y134.73207
G01 X19.52560 Y134.66753
G01 X19.65402 Y134.57424
G01 X19.76022 Y134.45628
G01 X19.83957 Y134.31881
G01 X19.88862 Y134.16786
G01 X19.90523 Y134.01000
G01 X19.88862 Y133.85217
G01 X19.83957 Y133.70121
G01 X19.76022 Y133.56375
G01 X19.65402 Y133.44579
G01 X19.52560 Y133.35250
G01 X19.38059 Y133.28796
G01 X19.22535 Y133.25494
G01 X19.06662 Y133.25494
G01 X18.91138 Y133.28796
G01 X18.76637 Y133.35250
G01 X18.63797 Y133.44579
G01 X18.53175 Y133.56375
G01 X18.45240 Y133.70121
G01 X18.40335 Y133.85217
G01 X18.38677 Y134.01000
G04 P0 ( dwell for no time -- G64 should not smooth over this point )
G00 Z2.00000 ( retract )

G00 X18.13675 Y129.94600 ( rapid move to begin. )
G01 F250.00000
( Mill infeed pass 1/1 )
G01 Z-0.20000
G04 P0 ( dwell for no time -- G64 should not smooth over this point )
G01 F500.00000
G01 X18.13675 Y129.94600
G01 X18.15880 Y130.15583
G01 X18.22400 Y130.35649
G01 X18.32951 Y130.53922
G01 X18.47069 Y130.69601
G01 X18.64138 Y130.82004
G01 X18.83411 Y130.90584
G01 X19.04049 Y130.94971
G01 X19.25148 Y130.94971
G01 X19.45786 Y130.90584
G01 X19.65059 Y130.82004
G01 X19.82128 Y130.69601
G01 X19.96248 Y130.53922
G01 X20.06797 Y130.35649
G01 X20.13317 Y130.15583
G01 X20.15522 Y129.94600
G01 X20.13317 Y129.73617
G01 X20.06797 Y129.53551
G01 X19.96248 Y129.35281
G01 X19.82128 Y129.19602
G01 X19.65059 Y129.07199
G01 X19.45786 Y128.98619
G01 X19.25148 Y128.94232
G01 X19.04049 Y128.94232
G01 X18.83411 Y128.98619
G01 X18.64138 Y129.07199
G01 X18.47069 Y129.19602
G01 X18.32951 Y129.35281
G01 X18.22400 Y129.53551
G01 X18.15880 Y129.73617
G01 X18.13675 Y129.94600
G04 P0 ( dwell for no time -- G64 should not smooth over this point )
G00 Z2.00000 ( retract )

G00 X14.01276 Y129.94600 ( rapid move to begin. )
G01 F250.00000
( Mill infeed pass 1/1 )
G01 Z-0.20000
G04 P0 ( dwell for no time -- G64 should not smooth over this point )
G01 F500.00000
G01 X14.01276 Y129.94600
G01 X14.03481 Y130.15583
G01 X14.10001 Y130.35649
G01 X14.20549 Y130.53922
G01 X14.34669 Y130.69601
G01 X14.51738 Y130.82004
G01 X14.71012 Y130.90584
G01 X14.91649 Y130.94971
G01 X15.12749 Y130.94971
G01 X15.33386 Y130.90584
G01 X15.52660 Y130.82004
G01 X15.69729 Y130.69601
G01 X15.83846 Y130.53922
G01 X15.94397 Y130.35649
G01 X16.00917 Y130.15583
G01 X16.03122 Y129.94600
G01 X16.00917 Y129.73617
G01 X15.94397 Y129.53551
G01 X15.83846 Y129.35281
G01 X15.69729 Y129.19602
G01 X15.52660 Y129.07199
G01 X15.33386 Y128.98619
G01 X15.12749 Y128.94232
G01 X14.91649 Y128.94232
G01 X14.71012 Y128.98619
G01 X14.51738 Y129.07199
G01 X14.34669 Y129.19602
G01 X14.20549 Y129.35281
G01 X14.10001 Y129.53551
G01 X14.03481 Y129.73617
G01 X14.01276 Y129.94600
G04 P0 ( dwell for no time -- G64 should not smooth over this point )
G00 Z2.00000 ( retract )

G00 X18.13675 Y125.88200 ( rapid move to begin. )
G01 F250.00000
( Mill infeed pass 1/1 )
G01 Z-0.20000
G04 P0 ( dwell for no time -- G64 should not smooth over this point )
G01 F500.00000
G01 X18.13675 Y125.88200
G01 X18.15880 Y125.67217
G01 X18.22400 Y125.47151
G01 X18.32951 Y125.28881
G01 X18.47069 Y125.13202
G01 X18.64138 Y125.00799
G01 X18.83411 Y124.92219
G01 X19.04049 Y124.87832
G01 X19.25148 Y124.87832
G01 X19.45786 Y124.92219
G01 X19.65059 Y125.00799
G01 X19.82128 Y125.13202
G01 X19.96248 Y125.28881
G01 X20.06797 Y125.47151
G01 X20.13317 Y125.67217
G01 X20.15522 Y125.88200
G01 X20.13317 Y126.09183
G01 X20.06797 Y126.29249
G01 X19.96248 Y126.47522
G01 X19.82128 Y126.63201
G01 X19.65059 Y126.75604
G01 X19.45786 Y126.84184
G01 X19.25148 Y126.88571
G01 X19.04049 Y126.88571
G01 X18.83411 Y126.84184
G01 X18.64138 Y126.75604
G01 X18.47069 Y126.63201
G01 X18.32951 Y126.47522
G01 X18.22400 Y126.29249
G01 X18.15880 Y126.09183
G01 X18.13675 Y125.88200
G04 P0 ( dwell for no time -- G64 should not smooth over this point )
G00 Z2.00000 ( retract )

G00 X20.85976 Y122.07203 ( rapid move to begin. )
G01 F250.00000
( Mill infeed pass 1/1 )
G01 Z-0.20000
G04 P0 ( dwell for no time -- G64 should not smooth over this point )
G01 F500.00000
G01 X20.85976 Y122.07203
G01 X20.87416 Y121.93494
G01 X20.91676 Y121.80388
G01 X20.98567 Y121.68452
G01 X21.07787 Y121.58211
G01 X21.18938 Y121.50111
G01 X21.31528 Y121.44505
G01 X21.45008 Y121.41640
G01 X21.58790 Y121.41640
G01 X21.72270 Y121.44505
G01 X21.84861 Y121.50111
G01 X21.96009 Y121.58211
G01 X22.05232 Y121.68452
G01 X22.12123 Y121.80388
G01 X22.16382 Y121.93494
G01 X22.17822 Y122.07203
G01 X22.16382 Y122.20909
G01 X22.12123 Y122.34015
G01 X22.05232 Y122.45950
G01 X21.96009 Y122.56192
G01 X21.84861 Y122.64292
G01 X21.72270 Y122.69897
G01 X21.58790 Y122.72763
G01 X21.45008 Y122.72763
G01 X21.31528 Y122.69897
G01 X21.18938 Y122.64292
G01 X21.07787 Y122.56192
G01 X20.98567 Y122.45950
G01 X20.91676 Y122.34015
G01 X20.87416 Y122.20909
G01 X20.85976 Y122.07203
G04 P0 ( dwell for no time -- G64 should not smooth over this point )
G00 Z2.00000 ( retract )

G00 X14.01276 Y125.88200 ( rapid move to begin. )
G01 F250.00000
( Mill infeed pass 1/1 )
G01 Z-0.20000
