( pcb2gcode 2.4.0 )
( Software-independent Gcode )

G94 ( Millimeters per minute feed rate. )
G21 ( Units == Millimeters. )

G90 ( Absolute coordinates. )
G00 S10000 ( RPM spindle speed. )
G64 P0.05000 ( set maximum deviation from commanded toolpath )
G01 F200.00000 ( Feedrate. )


G00 Z30.00000 (Retract to tool change height)
T0
M5      (Spindle stop.)
G04 P1.00000 (Wait for spindle to stop)
(MSG, Change tool bit to cutter diameter 0.00000mm)
M6      (Tool change.)
M0      (Temporary machine stop.)
M3 ( Spindle on clockwise. )
G04 P1.00000 (Wait for spindle to get up to speed)
G04 P0 ( dwell for no time -- G64 should not smooth over this point )
G00 Z2.00000 ( retract )

G00 X0.25000 Y0.25002 ( rapid move to begin. )
G01 Z-0.45000 F60.00000 ( plunge. )
G04 P0 ( dwell for no time -- G64 should not smooth over this point )
G01 F200.00000
G01 X0.25000 Y160.25000
G01 X49.74999 Y160.25000
G01 X50.74999 Y160.25000
G01 X100.24997 Y160.25000
G01 X100.24997 Y0.25002
G01 X50.74999 Y0.25002
G01 X49.74999 Y0.25002
G01 X0.25000 Y0.25002
G01 Z-0.90000 F60.00000 ( plunge. )
G04 P0 ( dwell for no time -- G64 should not smooth over this point )
G01 F200.00000
G01 X0.25000 Y160.25000
G01 X49.74999 Y160.25000
G00 Z-0.60000
G01 X50.74999 Y160.25000
G01 Z-0.90000 F60.00000
G01 F200.00000
G01 X100.24997 Y160.25000
G01 X100.24997 Y0.25002
G01 X50.74999 Y0.25002
G00 Z-0.60000
G01 X49.74999 Y0.25002
G01 Z-0.90000 F60.00000
G01 F200.00000
G01 X0.25000 Y0.25002
G01 Z-1.35000 F60.00000 ( plunge. )
G04 P0 ( dwell for no time -- G64 should not smooth over this point )
G01 F200.00000
G01 X0.25000 Y160.25000
G01 X49.74999 Y160.25000
G00 Z-0.60000
G01 X50.74999 Y160.25000
G01 Z-1.35000 F60.00000
G01 F200.00000
G01 X100.24997 Y160.25000
G01 X100.24997 Y0.25002
G01 X50.74999 Y0.25002
G00 Z-0.60000
G01 X49.74999 Y0.25002
G01 Z-1.35000 F60.00000
G01 F200.00000
G01 X0.25000 Y0.25002
G01 Z-1.80000 F60.00000 ( plunge. )
G04 P0 ( dwell for no time -- G64 should not smooth over this point )
G01 F200.00000
G01 X0.25000 Y160.25000
G01 X49.74999 Y160.25000
G00 Z-0.60000
G01 X50.74999 Y160.25000
G01 Z-1.80000 F60.00000
G01 F200.00000
G01 X100.24997 Y160.25000
G01 X100.24997 Y0.25002
G01 X50.74999 Y0.25002
G00 Z-0.60000
G01 X49.74999 Y0.25002
G01 Z-1.80000 F60.00000
G01 F200.00000
G01 X0.25000 Y0.25002
G01 Z-2.25000 F60.00000 ( plunge. )
G04 P0 ( dwell for no time -- G64 should not smooth over this point )
G01 F200.00000
G01 X0.25000 Y160.25000
G01 X49.74999 Y160.25000
G00 Z-0.60000
G01 X50.74999 Y160.25000
G01 Z-2.25000 F60.00000
G01 F200.00000
G01 X100.24997 Y160.25000
G01 X100.24997 Y0.25002
G01 X50.74999 Y0.25002
G00 Z-0.60000
G01 X49.74999 Y0.25002
G01 Z-2.25000 F60.00000
G01 F200.00000
G01 X0.25000 Y0.25002
G01 Z-2.70000 F60.00000 ( plunge. )
G04 P0 ( dwell for no time -- G64 should not smooth over this point )
G01 F200.00000
G01 X0.25000 Y160.25000
G01 X49.74999 Y160.25000
G00 Z-0.60000
G01 X50.74999 Y160.25000
G01 Z-2.70000 F60.00000
G01 F200.00000
G01 X100.24997 Y160.25000
G01 X100.24997 Y0.25002
G01 X50.74999 Y0.25002
G00 Z-0.60000
G01 X49.74999 Y0.25002
G01 Z-2.70000 F60.00000
G01 F200.00000
G01 X0.25000 Y0.25002

G04 P0 ( dwell for no time -- G64 should not smooth over this point )
G00 Z30.000000 ( retract )

M5 ( Spindle off. )
G04 P1.000000
M9 ( Coolant off. )
M2 ( Program end. )

