( pcb2gcode 2.4.0 )
( Software-independent Gcode )

G94 ( Millimeters per minute feed rate. )
G21 ( Units == Millimeters. )

G90 ( Absolute coordinates. )
G00 S20000 ( RPM spindle speed. )
G64 P0.05000 ( set maximum deviation from commanded toolpath )
G01 F500.00000 ( Feedrate. )


G00 Z30.00000 (Retract to tool change height)
T0
M5      (Spindle stop.)
G04 P1.00000 (Wait for spindle to stop)
(MSG, Change tool bit to mill diameter -0.28000mm)
M6      (Tool change.)
M0      (Temporary machine stop.)
M3 ( Spindle on clockwise. )
G04 P1.00000 (Wait for spindle to get up to speed)
G04 P0 ( dwell for no time -- G64 should not smooth over this point )
G00 Z2.00000 ( retract )

G00 X0.14001 Y-0.12312 ( rapid move to begin. )
G01 F250.00000
( Mill infeed pass 1/1 )
G01 Z-0.20000
G04 P0 ( dwell for no time -- G64 should not smooth over this point )
G01 F500.00000
G01 X0.14001 Y-0.12312
G01 X0.14001 Y5.95914
G01 X0.13914 Y5.96783
G01 X0.13864 Y5.96958
G01 X0.13777 Y5.97118
G01 X0.13660 Y5.97260
G01 X0.13518 Y5.97377
G01 X0.13358 Y5.97464
G01 X0.13183 Y5.97514
G01 X0.12314 Y5.97601
G01 X-16.11912 Y5.97601
G01 X-16.12780 Y5.97514
G01 X-16.12956 Y5.97464
G01 X-16.13116 Y5.97377
G01 X-16.13258 Y5.97260
G01 X-16.13375 Y5.97118
G01 X-16.13461 Y5.96958
G01 X-16.13512 Y5.96783
G01 X-16.13598 Y5.95914
G01 X-16.13598 Y-0.12312
G01 X-16.13512 Y-0.13180
G01 X-16.13461 Y-0.13356
G01 X-16.13375 Y-0.13516
G01 X-16.13258 Y-0.13658
G01 X-16.13116 Y-0.13775
G01 X-16.12956 Y-0.13861
G01 X-16.12780 Y-0.13912
G01 X-16.11912 Y-0.13998
G01 X0.12314 Y-0.13998
G01 X0.13183 Y-0.13912
G01 X0.13358 Y-0.13861
G01 X0.13518 Y-0.13775
G01 X0.13660 Y-0.13658
G01 X0.13777 Y-0.13516
G01 X0.13864 Y-0.13356
G01 X0.13914 Y-0.13180
G01 X0.14001 Y-0.12312
G04 P0 ( dwell for no time -- G64 should not smooth over this point )
G00 Z2.00000 ( retract )

G00 X0.12002 Y0.02001 ( rapid move to begin. )
G01 F250.00000
( Mill infeed pass 1/1 )
G01 Z-0.20000
G04 P0 ( dwell for no time -- G64 should not smooth over this point )
G01 F500.00000
G01 X0.12002 Y0.02001
G01 X0.12002 Y5.81601
G01 X0.11733 Y5.84332
G01 X0.10935 Y5.86958
G01 X0.09642 Y5.89379
G01 X0.07900 Y5.91500
G01 X0.05779 Y5.93242
G01 X0.03358 Y5.94535
G01 X0.00732 Y5.95333
G01 X-0.01999 Y5.95602
G01 X-15.97599 Y5.95602
G01 X-16.00329 Y5.95333
G01 X-16.02956 Y5.94535
G01 X-16.05376 Y5.93242
G01 X-16.07497 Y5.91500
G01 X-16.09240 Y5.89379
G01 X-16.10532 Y5.86958
G01 X-16.11330 Y5.84332
G01 X-16.11599 Y5.81601
G01 X-16.11599 Y0.02001
G01 X-16.11330 Y-0.00729
G01 X-16.10532 Y-0.03356
G01 X-16.09240 Y-0.05776
G01 X-16.07497 Y-0.07897
G01 X-16.05376 Y-0.09640
G01 X-16.02956 Y-0.10932
G01 X-16.00329 Y-0.11730
G01 X-15.97599 Y-0.11999
G01 X-0.01999 Y-0.11999
G01 X0.00732 Y-0.11730
G01 X0.03358 Y-0.10932
G01 X0.05779 Y-0.09640
G01 X0.07900 Y-0.07897
G01 X0.09642 Y-0.05776
G01 X0.10935 Y-0.03356
G01 X0.11733 Y-0.00729
G01 X0.12002 Y0.02001
G04 P0 ( dwell for no time -- G64 should not smooth over this point )
G00 Z2.00000 ( retract )

G00 X-2.30942 Y2.10901 ( rapid move to begin. )
G01 F250.00000
( Mill infeed pass 1/1 )
G01 Z-0.20000
G04 P0 ( dwell for no time -- G64 should not smooth over this point )
G01 F500.00000
G01 X-2.30942 Y2.10901
G01 X-2.30942 Y2.23812
G01 X-2.31061 Y2.24830
G01 X-2.31409 Y2.25798
G01 X-2.37937 Y2.38854
G01 X-2.38310 Y2.39468
G01 X-2.38775 Y2.40017
G01 X-2.45120 Y2.46362
G01 X-2.45669 Y2.46827
G01 X-2.46283 Y2.47200
G01 X-2.59336 Y2.53728
G01 X-2.60304 Y2.54076
G01 X-2.61323 Y2.54195
G01 X-2.95414 Y2.54195
G01 X-2.96433 Y2.54076
G01 X-2.97401 Y2.53728
G01 X-3.10454 Y2.47200
G01 X-3.11068 Y2.46827
G01 X-3.11617 Y2.46362
G01 X-3.17873 Y2.40103
G01 X-3.18429 Y2.39428
G01 X-3.18516 Y2.39268
G01 X-3.18567 Y2.39092
G01 X-3.18587 Y2.38910
G01 X-3.18567 Y2.38729
G01 X-3.18516 Y2.38554
G01 X-3.18429 Y2.38394
G01 X-3.18313 Y2.38252
G01 X-3.18170 Y2.38135
G01 X-3.18010 Y2.38049
G01 X-3.17835 Y2.37998
G01 X-3.17652 Y2.37977
G01 X-3.17472 Y2.37998
G01 X-3.17297 Y2.38049
G01 X-3.17137 Y2.38135
G01 X-3.16461 Y2.38691
G01 X-3.11526 Y2.43624
G01 X-3.09811 Y2.45082
G01 X-3.07886 Y2.46248
G01 X-2.98945 Y2.50718
G01 X-2.95902 Y2.51820
G01 X-2.92684 Y2.52196
G01 X-2.64053 Y2.52196
G01 X-2.60835 Y2.51820
G01 X-2.57792 Y2.50718
G01 X-2.48851 Y2.46248
G01 X-2.46926 Y2.45082
G01 X-2.45211 Y2.43624
G01 X-2.41513 Y2.39926
G01 X-2.40055 Y2.38211
G01 X-2.38889 Y2.36286
G01 X-2.34419 Y2.27342
G01 X-2.33317 Y2.24299
G01 X-2.32941 Y2.21084
G01 X-2.32941 Y2.12773
G01 X-2.33121 Y2.10530
G01 X-2.33659 Y2.08346
G01 X-2.38912 Y1.92588
G01 X-2.40284 Y1.89654
G01 X-2.42295 Y1.87114
G01 X-3.25018 Y1.04389
G01 X-3.25574 Y1.03713
G01 X-3.25661 Y1.03553
G01 X-3.25712 Y1.03378
G01 X-3.25732 Y1.03195
G01 X-3.25712 Y1.03014
G01 X-3.25661 Y1.02839
G01 X-3.25574 Y1.02679
G01 X-3.25458 Y1.02537
G01 X-3.25315 Y1.02420
G01 X-3.25155 Y1.02334
G01 X-3.24980 Y1.02283
G01 X-3.24111 Y1.02197
G01 X-2.32628 Y1.02197
G01 X-2.31759 Y1.02283
G01 X-2.31584 Y1.02334
G01 X-2.31424 Y1.02420
G01 X-2.31282 Y1.02537
G01 X-2.31165 Y1.02679
G01 X-2.31079 Y1.02839
G01 X-2.31028 Y1.03014
G01 X-2.31008 Y1.03195
G01 X-2.31028 Y1.03378
G01 X-2.31079 Y1.03553
G01 X-2.31165 Y1.03713
G01 X-2.31282 Y1.03855
G01 X-2.31424 Y1.03972
G01 X-2.31584 Y1.04058
G01 X-2.31759 Y1.04109
G01 X-2.32628 Y1.04196
G01 X-2.88584 Y1.04196
G01 X-2.91317 Y1.04465
G01 X-2.93944 Y1.05262
G01 X-2.96364 Y1.06555
G01 X-2.98485 Y1.08298
G01 X-3.00225 Y1.10419
G01 X-3.01521 Y1.12839
G01 X-3.02316 Y1.15466
G01 X-3.02585 Y1.18196
G01 X-3.02316 Y1.20927
G01 X-3.01521 Y1.23553
G01 X-3.00225 Y1.25974
G01 X-2.98485 Y1.28094
G01 X-2.38950 Y1.87630
G01 X-2.38313 Y1.88435
G01 X-2.37878 Y1.89364
G01 X-2.31170 Y2.09489
G01 X-2.31000 Y2.10185
G01 X-2.30942 Y2.10901
G04 P0 ( dwell for no time -- G64 should not smooth over this point )
G00 Z2.00000 ( retract )

G00 X-1.02369 Y4.02696 ( rapid move to begin. )
G01 F250.00000
( Mill infeed pass 1/1 )
G01 Z-0.20000
G04 P0 ( dwell for no time -- G64 should not smooth over this point )
G01 F500.00000
G01 X-1.02369 Y4.02696
G01 X-1.02608 Y4.00763
G01 X-1.09354 Y3.73768
G01 X-1.09959 Y3.72135
G01 X-1.16507 Y3.59039
G01 X-1.16880 Y3.58424
G01 X-1.17345 Y3.57876
G01 X-1.23690 Y3.51531
G01 X-1.24239 Y3.51066
G01 X-1.24853 Y3.50692
G01 X-1.37909 Y3.44162
G01 X-1.38877 Y3.43814
G01 X-1.39895 Y3.43695
G01 X-1.52557 Y3.43695
G01 X-1.53576 Y3.43814
G01 X-1.54543 Y3.44162
G01 X-1.67597 Y3.50692
G01 X-1.68211 Y3.51066
G01 X-1.68760 Y3.51531
G01 X-1.75107 Y3.57876
G01 X-1.75572 Y3.58424
G01 X-1.75946 Y3.59039
G01 X-1.82494 Y3.72135
G01 X-1.83098 Y3.73768
G01 X-1.89844 Y4.00763
G01 X-1.90083 Y4.02696
G01 X-1.90083 Y4.36694
G01 X-1.89844 Y4.38627
G01 X-1.83098 Y4.65622
G01 X-1.82494 Y4.67256
G01 X-1.75946 Y4.80352
G01 X-1.75572 Y4.80966
G01 X-1.75107 Y4.81515
G01 X-1.68760 Y4.87860
G01 X-1.68211 Y4.88325
G01 X-1.67597 Y4.88698
G01 X-1.54543 Y4.95229
G01 X-1.53576 Y4.95577
G01 X-1.52557 Y4.95696
G01 X-1.39895 Y4.95696
G01 X-1.38877 Y4.95577
G01 X-1.37909 Y4.95229
G01 X-1.24853 Y4.88698
G01 X-1.24239 Y4.88325
G01 X-1.23690 Y4.87860
G01 X-1.17345 Y4.81515
G01 X-1.16880 Y4.80966
G01 X-1.16507 Y4.80352
G01 X-1.09959 Y4.67256
G01 X-1.09354 Y4.65622
G01 X-1.02608 Y4.38627
G01 X-1.02369 Y4.36694
G01 X-1.02369 Y4.02696
G04 P0 ( dwell for no time -- G64 should not smooth over this point )
G00 Z2.00000 ( retract )

G00 X-1.04368 Y4.03684 ( rapid move to begin. )
G01 F250.00000
( Mill infeed pass 1/1 )
G01 Z-0.20000
G04 P0 ( dwell for no time -- G64 should not smooth over this point )
G01 F500.00000
G01 X-1.04368 Y4.03684
G01 X-1.04787 Y4.00291
G01 X-1.11082 Y3.75107
G01 X-1.12143 Y3.72242
G01 X-1.17459 Y3.61607
G01 X-1.18625 Y3.59681
G01 X-1.20083 Y3.57967
G01 X-1.23782 Y3.54266
G01 X-1.25496 Y3.52811
G01 X-1.27421 Y3.51645
G01 X-1.36365 Y3.47172
G01 X-1.39408 Y3.46070
G01 X-1.42626 Y3.45694
G01 X-1.49827 Y3.45694
G01 X-1.53045 Y3.46070
G01 X-1.56090 Y3.47172
G01 X-1.65031 Y3.51645
G01 X-1.66954 Y3.52808
G01 X-1.68666 Y3.54266
G01 X-1.72369 Y3.57967
G01 X-1.73827 Y3.59681
G01 X-1.74993 Y3.61607
G01 X-1.80309 Y3.72242
G01 X-1.81371 Y3.75107
G01 X-1.87665 Y4.00291
G01 X-1.88084 Y4.03684
G01 X-1.88084 Y4.35706
G01 X-1.87665 Y4.39100
G01 X-1.81371 Y4.64284
G01 X-1.80309 Y4.67149
G01 X-1.74993 Y4.77784
G01 X-1.73827 Y4.79709
G01 X-1.72369 Y4.81424
G01 X-1.68666 Y4.85124
G01 X-1.66954 Y4.86582
G01 X-1.65031 Y4.87746
G01 X-1.56090 Y4.92219
G01 X-1.53045 Y4.93321
G01 X-1.49827 Y4.93697
G01 X-1.42626 Y4.93697
G01 X-1.39408 Y4.93321
G01 X-1.36365 Y4.92219
G01 X-1.27421 Y4.87746
G01 X-1.25496 Y4.86580
G01 X-1.23782 Y4.85124
G01 X-1.20083 Y4.81424
G01 X-1.18625 Y4.79709
G01 X-1.17459 Y4.77784
G01 X-1.12143 Y4.67149
G01 X-1.11082 Y4.64284
G01 X-1.04787 Y4.39100
G01 X-1.04368 Y4.35706
G01 X-1.04368 Y4.03684
G04 P0 ( dwell for no time -- G64 should not smooth over this point )
G00 Z2.00000 ( retract )

G00 X-2.45293 Y3.51841 ( rapid move to begin. )
G01 F250.00000
( Mill infeed pass 1/1 )
G01 Z-0.20000
G04 P0 ( dwell for no time -- G64 should not smooth over this point )
G01 F500.00000
G01 X-2.45293 Y3.51841
G01 X-2.45313 Y3.52021
G01 X-2.45364 Y3.52196
G01 X-2.45450 Y3.52356
G01 X-2.46006 Y3.53032
G01 X-2.52176 Y3.59201
G01 X-2.52852 Y3.59758
G01 X-2.53012 Y3.59844
G01 X-2.53187 Y3.59895
G01 X-2.53370 Y3.59915
G01 X-2.53550 Y3.59895
G01 X-2.53725 Y3.59844
G01 X-2.53885 Y3.59758
G01 X-2.54561 Y3.59201
G01 X-2.60731 Y3.53032
G01 X-2.61287 Y3.52356
G01 X-2.61373 Y3.52196
G01 X-2.61424 Y3.52021
G01 X-2.61444 Y3.51841
G01 X-2.61424 Y3.51658
G01 X-2.61373 Y3.51482
G01 X-2.61287 Y3.51322
G01 X-2.60733 Y3.50647
G01 X-2.54561 Y3.44475
G01 X-2.53931 Y3.43956
G01 X-2.53885 Y3.43918
G01 X-2.53725 Y3.43832
G01 X-2.53550 Y3.43781
G01 X-2.53370 Y3.43761
G01 X-2.53187 Y3.43781
G01 X-2.53012 Y3.43832
G01 X-2.52852 Y3.43918
G01 X-2.52176 Y3.44472
G01 X-2.46004 Y3.50647
G01 X-2.45450 Y3.51322
G01 X-2.45364 Y3.51482
G01 X-2.45313 Y3.51658
G01 X-2.45293 Y3.51841
G04 P0 ( dwell for no time -- G64 should not smooth over this point )
G00 Z2.00000 ( retract )

G00 X-3.16720 Y3.44693 ( rapid move to begin. )
G01 F250.00000
( Mill infeed pass 1/1 )
G01 Z-0.20000
G04 P0 ( dwell for no time -- G64 should not smooth over this point )
G01 F500.00000
G01 X-3.16720 Y3.44693
G01 X-3.16740 Y3.44876
G01 X-3.16791 Y3.45051
G01 X-3.16877 Y3.45211
G01 X-3.16994 Y3.45353
G01 X-3.17137 Y3.45470
G01 X-3.17297 Y3.45557
G01 X-3.17472 Y3.45607
G01 X-3.18340 Y3.45694
G01 X-3.45511 Y3.45694
G01 X-3.48241 Y3.45963
G01 X-3.50868 Y3.46761
G01 X-3.53288 Y3.48053
G01 X-3.55409 Y3.49796
G01 X-3.57152 Y3.51917
G01 X-3.58445 Y3.54337
G01 X-3.59242 Y3.56964
G01 X-3.59511 Y3.59694
G01 X-3.59511 Y4.94009
G01 X-3.59598 Y4.94878
G01 X-3.59648 Y4.95053
G01 X-3.59735 Y4.95213
G01 X-3.59852 Y4.95356
G01 X-3.59994 Y4.95472
G01 X-3.60154 Y4.95559
G01 X-3.60329 Y4.95610
G01 X-3.60512 Y4.95630
G01 X-3.60692 Y4.95610
G01 X-3.60868 Y4.95556
G01 X-3.61030 Y4.95470
G01 X-3.61170 Y4.95356
G01 X-3.61724 Y4.94680
G01 X-3.74807 Y4.75056
G01 X-3.76555 Y4.72922
G01 X-3.88069 Y4.61411
G01 X-3.89783 Y4.59953
G01 X-3.91708 Y4.58787
G01 X-4.03199 Y4.53042
G01 X-4.03941 Y4.52574
G01 X-4.04073 Y4.52450
G01 X-4.04177 Y4.52300
G01 X-4.04253 Y4.52135
G01 X-4.04294 Y4.51955
G01 X-4.04299 Y4.51772
G01 X-4.04266 Y4.51594
G01 X-4.04203 Y4.51421
G01 X-4.04104 Y4.51266
G01 X-4.03979 Y4.51134
G01 X-4.03829 Y4.51030
G01 X-4.03664 Y4.50954
G01 X-4.03484 Y4.50913
G01 X-4.03301 Y4.50908
G01 X-4.03123 Y4.50941
G01 X-4.02305 Y4.51251
G01 X-3.89140 Y4.57835
G01 X-3.88526 Y4.58208
G01 X-3.87977 Y4.58673
G01 X-3.85409 Y4.61241
G01 X-3.83288 Y4.62981
G01 X-3.80868 Y4.64276
G01 X-3.78241 Y4.65071
G01 X-3.75511 Y4.65340
G01 X-3.72780 Y4.65071
G01 X-3.70154 Y4.64276
G01 X-3.67733 Y4.62981
G01 X-3.65612 Y4.61241
G01 X-3.63870 Y4.59120
G01 X-3.62577 Y4.56699
G01 X-3.61780 Y4.54073
G01 X-3.61510 Y4.51340
G01 X-3.61510 Y3.59694
G01 X-3.61780 Y3.56964
G01 X-3.62577 Y3.54337
G01 X-3.63870 Y3.51917
G01 X-3.65612 Y3.49796
G01 X-3.67733 Y3.48053
G01 X-3.70154 Y3.46761
G01 X-3.72780 Y3.45963
G01 X-3.75511 Y3.45694
G01 X-4.02681 Y3.45694
G01 X-4.03550 Y3.45607
G01 X-4.03725 Y3.45557
G01 X-4.03885 Y3.45470
G01 X-4.04027 Y3.45353
G01 X-4.04144 Y3.45211
G01 X-4.04231 Y3.45051
G01 X-4.04281 Y3.44876
G01 X-4.04302 Y3.44693
G01 X-4.04281 Y3.44513
G01 X-4.04231 Y3.44337
G01 X-4.04144 Y3.44177
G01 X-4.04027 Y3.44035
G01 X-4.03885 Y3.43918
G01 X-4.03725 Y3.43832
G01 X-4.03550 Y3.43781
G01 X-4.02681 Y3.43695
G01 X-3.18340 Y3.43695
G01 X-3.17472 Y3.43781
G01 X-3.17297 Y3.43832
G01 X-3.17137 Y3.43918
G01 X-3.16994 Y3.44035
G01 X-3.16877 Y3.44177
G01 X-3.16791 Y3.44337
G01 X-3.16740 Y3.44513
G01 X-3.16720 Y3.44693
G04 P0 ( dwell for no time -- G64 should not smooth over this point )
G00 Z2.00000 ( retract )

G00 X-3.73799 Y2.10901 ( rapid move to begin. )
G01 F250.00000
( Mill infeed pass 1/1 )
G01 Z-0.20000
G04 P0 ( dwell for no time -- G64 should not smooth over this point )
G01 F500.00000
G01 X-3.73799 Y2.10901
G01 X-3.73799 Y2.23812
G01 X-3.73918 Y2.24830
G01 X-3.74266 Y2.25798
G01 X-3.80794 Y2.38854
G01 X-3.81167 Y2.39468
G01 X-3.81632 Y2.40017
G01 X-3.87977 Y2.46362
G01 X-3.88526 Y2.46827
G01 X-3.89140 Y2.47200
G01 X-4.02193 Y2.53728
G01 X-4.03161 Y2.54076
G01 X-4.04180 Y2.54195
G01 X-4.38272 Y2.54195
G01 X-4.39290 Y2.54076
G01 X-4.40258 Y2.53728
G01 X-4.53311 Y2.47200
G01 X-4.53926 Y2.46827
G01 X-4.54474 Y2.46362
G01 X-4.60730 Y2.40103
G01 X-4.61287 Y2.39428
G01 X-4.61373 Y2.39268
G01 X-4.61424 Y2.39092
G01 X-4.61444 Y2.38912
G01 X-4.61424 Y2.38729
G01 X-4.61373 Y2.38554
G01 X-4.61287 Y2.38394
G01 X-4.61170 Y2.38252
G01 X-4.61028 Y2.38135
G01 X-4.60867 Y2.38049
G01 X-4.60692 Y2.37998
G01 X-4.60512 Y2.37977
G01 X-4.60329 Y2.37998
G01 X-4.60154 Y2.38049
G01 X-4.59994 Y2.38135
G01 X-4.59318 Y2.38691
G01 X-4.54383 Y2.43624
G01 X-4.52668 Y2.45082
G01 X-4.50743 Y2.46248
G01 X-4.41802 Y2.50718
G01 X-4.38759 Y2.51820
G01 X-4.35541 Y2.52196
G01 X-4.06910 Y2.52196
G01 X-4.03692 Y2.51820
G01 X-4.00649 Y2.50718
G01 X-3.91708 Y2.46248
G01 X-3.89783 Y2.45082
G01 X-3.88069 Y2.43624
G01 X-3.84370 Y2.39926
G01 X-3.82912 Y2.38211
G01 X-3.81746 Y2.36286
G01 X-3.77276 Y2.27342
G01 X-3.76174 Y2.24299
G01 X-3.75798 Y2.21084
G01 X-3.75798 Y2.12773
G01 X-3.75978 Y2.10530
G01 X-3.76517 Y2.08346
G01 X-3.81769 Y1.92588
G01 X-3.83141 Y1.89654
G01 X-3.85153 Y1.87114
G01 X-4.67875 Y1.04389
G01 X-4.68432 Y1.03713
G01 X-4.68518 Y1.03553
G01 X-4.68569 Y1.03378
G01 X-4.68589 Y1.03195
G01 X-4.68569 Y1.03014
G01 X-4.68518 Y1.02839
G01 X-4.68432 Y1.02679
G01 X-4.68315 Y1.02537
G01 X-4.68173 Y1.02420
G01 X-4.68013 Y1.02334
G01 X-4.67837 Y1.02283
G01 X-4.66969 Y1.02197
G01 X-3.75485 Y1.02197
G01 X-3.74617 Y1.02283
G01 X-3.74441 Y1.02334
G01 X-3.74281 Y1.02420
G01 X-3.74139 Y1.02537
G01 X-3.74022 Y1.02679
G01 X-3.73936 Y1.02839
G01 X-3.73885 Y1.03014
G01 X-3.73865 Y1.03195
G01 X-3.73885 Y1.03378
G01 X-3.73936 Y1.03553
G01 X-3.74022 Y1.03713
G01 X-3.74139 Y1.03855
G01 X-3.74281 Y1.03972
G01 X-3.74441 Y1.04058
G01 X-3.74617 Y1.04109
G01 X-3.75485 Y1.04196
G01 X-4.31442 Y1.04196
G01 X-4.34175 Y1.04465
G01 X-4.36801 Y1.05262
G01 X-4.39222 Y1.06555
G01 X-4.41343 Y1.08298
G01 X-4.43082 Y1.10419
G01 X-4.44378 Y1.12839
G01 X-4.45173 Y1.15466
G01 X-4.45442 Y1.18196
G01 X-4.45173 Y1.20927
G01 X-4.44378 Y1.23553
G01 X-4.43082 Y1.25974
G01 X-4.41343 Y1.28094
G01 X-3.81807 Y1.87630
G01 X-3.81170 Y1.88435
G01 X-3.80736 Y1.89364
G01 X-3.74027 Y2.09489
G01 X-3.73857 Y2.10185
G01 X-3.73799 Y2.10901
G04 P0 ( dwell for no time -- G64 should not smooth over this point )
G00 Z2.00000 ( retract )

G00 X-5.16656 Y1.61196 ( rapid move to begin. )
G01 F250.00000
( Mill infeed pass 1/1 )
G01 Z-0.20000
G04 P0 ( dwell for no time -- G64 should not smooth over this point )
G01 F500.00000
G01 X-5.16656 Y1.61196
G01 X-5.16656 Y1.95196
G01 X-5.16895 Y1.97129
G01 X-5.23641 Y2.24122
G01 X-5.24246 Y2.25755
G01 X-5.30794 Y2.38854
G01 X-5.31167 Y2.39468
G01 X-5.31632 Y2.40017
G01 X-5.37977 Y2.46362
G01 X-5.38525 Y2.46827
G01 X-5.39140 Y2.47200
G01 X-5.52193 Y2.53728
G01 X-5.53161 Y2.54076
G01 X-5.54179 Y2.54195
G01 X-5.66844 Y2.54195
G01 X-5.67862 Y2.54076
G01 X-5.68830 Y2.53728
G01 X-5.81883 Y2.47200
G01 X-5.82498 Y2.46827
G01 X-5.83047 Y2.46362
G01 X-5.89391 Y2.40017
G01 X-5.89856 Y2.39468
G01 X-5.90230 Y2.38854
G01 X-5.96778 Y2.25755
G01 X-5.97382 Y2.24122
G01 X-6.04129 Y1.97129
G01 X-6.04367 Y1.95196
G01 X-6.04367 Y1.61196
G01 X-6.04129 Y1.59263
G01 X-5.97382 Y1.32268
G01 X-5.96778 Y1.30634
G01 X-5.90230 Y1.17538
G01 X-5.89856 Y1.16924
G01 X-5.89391 Y1.16375
G01 X-5.83047 Y1.10030
G01 X-5.82498 Y1.09565
G01 X-5.81883 Y1.09192
G01 X-5.68830 Y1.02664
G01 X-5.67862 Y1.02316
G01 X-5.66844 Y1.02197
G01 X-5.54179 Y1.02197
G01 X-5.53161 Y1.02316
G01 X-5.52193 Y1.02664
G01 X-5.39140 Y1.09192
G01 X-5.38525 Y1.09565
G01 X-5.37977 Y1.10030
G01 X-5.31632 Y1.16375
G01 X-5.31167 Y1.16924
G01 X-5.30794 Y1.17538
G01 X-5.24246 Y1.30634
G01 X-5.23641 Y1.32268
G01 X-5.16895 Y1.59263
G01 X-5.16656 Y1.61196
G04 P0 ( dwell for no time -- G64 should not smooth over this point )
G00 Z2.00000 ( retract )

G00 X-5.18655 Y1.62184 ( rapid move to begin. )
G01 F250.00000
( Mill infeed pass 1/1 )
G01 Z-0.20000
G04 P0 ( dwell for no time -- G64 should not smooth over this point )
G01 F500.00000
G01 X-5.18655 Y1.62184
G01 X-5.18655 Y1.94206
G01 X-5.19074 Y1.97602
G01 X-5.25368 Y2.22783
G01 X-5.26427 Y2.25648
G01 X-5.31746 Y2.36286
G01 X-5.32912 Y2.38211
G01 X-5.34370 Y2.39926
G01 X-5.38068 Y2.43624
G01 X-5.39783 Y2.45082
G01 X-5.41708 Y2.46248
G01 X-5.50649 Y2.50718
G01 X-5.53692 Y2.51820
G01 X-5.56910 Y2.52196
G01 X-5.64113 Y2.52196
G01 X-5.67332 Y2.51820
G01 X-5.70375 Y2.50718
G01 X-5.79315 Y2.46248
G01 X-5.81241 Y2.45082
G01 X-5.82955 Y2.43624
G01 X-5.86653 Y2.39926
G01 X-5.88111 Y2.38211
G01 X-5.89277 Y2.36286
G01 X-5.94596 Y2.25648
G01 X-5.95655 Y2.22783
G01 X-6.01949 Y1.97602
G01 X-6.02368 Y1.94206
G01 X-6.02368 Y1.62184
G01 X-6.01949 Y1.58790
G01 X-5.95655 Y1.33606
G01 X-5.94593 Y1.30741
G01 X-5.89277 Y1.20106
G01 X-5.88111 Y1.18181
G01 X-5.86653 Y1.16466
G01 X-5.82955 Y1.12768
G01 X-5.81241 Y1.11310
G01 X-5.79315 Y1.10144
G01 X-5.70375 Y1.05674
G01 X-5.67332 Y1.04572
G01 X-5.64113 Y1.04196
G01 X-5.56910 Y1.04196
G01 X-5.53692 Y1.04572
G01 X-5.50649 Y1.05674
G01 X-5.41708 Y1.10144
G01 X-5.39783 Y1.11310
G01 X-5.38068 Y1.12768
G01 X-5.34370 Y1.16466
G01 X-5.32912 Y1.18181
G01 X-5.31746 Y1.20106
G01 X-5.26430 Y1.30741
G01 X-5.25368 Y1.33606
G01 X-5.19074 Y1.58790
G01 X-5.18655 Y1.62184
G04 P0 ( dwell for no time -- G64 should not smooth over this point )
G00 Z2.00000 ( retract )

G00 X-6.59513 Y2.10901 ( rapid move to begin. )
G01 F250.00000
( Mill infeed pass 1/1 )
G01 Z-0.20000
G04 P0 ( dwell for no time -- G64 should not smooth over this point )
G01 F500.00000
G01 X-6.59513 Y2.10901
G01 X-6.59513 Y2.23812
G01 X-6.59633 Y2.24830
G01 X-6.59981 Y2.25798
G01 X-6.66508 Y2.38854
G01 X-6.66882 Y2.39468
G01 X-6.67347 Y2.40017
G01 X-6.73692 Y2.46362
G01 X-6.74240 Y2.46827
G01 X-6.74855 Y2.47200
G01 X-6.87908 Y2.53728
G01 X-6.88876 Y2.54076
G01 X-6.89894 Y2.54195
G01 X-7.23986 Y2.54195
G01 X-7.25005 Y2.54076
G01 X-7.25972 Y2.53728
G01 X-7.39025 Y2.47200
G01 X-7.39640 Y2.46827
G01 X-7.40189 Y2.46362
G01 X-7.46445 Y2.40103
G01 X-7.47001 Y2.39428
G01 X-7.47087 Y2.39268
G01 X-7.47138 Y2.39092
G01 X-7.47159 Y2.38910
G01 X-7.47138 Y2.38729
G01 X-7.47087 Y2.38554
G01 X-7.47001 Y2.38394
G01 X-7.46884 Y2.38252
G01 X-7.46742 Y2.38135
G01 X-7.46582 Y2.38049
G01 X-7.46407 Y2.37998
G01 X-7.46224 Y2.37977
G01 X-7.46043 Y2.37998
G01 X-7.45868 Y2.38049
G01 X-7.45708 Y2.38135
G01 X-7.45033 Y2.38691
G01 X-7.40097 Y2.43624
G01 X-7.38383 Y2.45082
G01 X-7.36457 Y2.46248
G01 X-7.27517 Y2.50718
G01 X-7.24474 Y2.51820
G01 X-7.21256 Y2.52196
G01 X-6.92625 Y2.52196
G01 X-6.89407 Y2.51820
G01 X-6.86364 Y2.50718
G01 X-6.77423 Y2.46248
G01 X-6.75497 Y2.45082
G01 X-6.73783 Y2.43624
G01 X-6.70085 Y2.39926
G01 X-6.68627 Y2.38211
G01 X-6.67461 Y2.36286
G01 X-6.62991 Y2.27342
G01 X-6.61888 Y2.24299
G01 X-6.61512 Y2.21084
G01 X-6.61512 Y2.12773
G01 X-6.61693 Y2.10530
G01 X-6.62231 Y2.08346
G01 X-6.67484 Y1.92588
G01 X-6.68855 Y1.89654
G01 X-6.70867 Y1.87114
G01 X-7.53590 Y1.04389
G01 X-7.54146 Y1.03713
G01 X-7.54232 Y1.03553
G01 X-7.54283 Y1.03378
G01 X-7.54304 Y1.03195
G01 X-7.54283 Y1.03014
G01 X-7.54232 Y1.02839
G01 X-7.54146 Y1.02679
G01 X-7.54029 Y1.02537
G01 X-7.53887 Y1.02420
G01 X-7.53727 Y1.02334
G01 X-7.53552 Y1.02283
G01 X-7.52683 Y1.02197
G01 X-6.61200 Y1.02197
G01 X-6.60331 Y1.02283
G01 X-6.60156 Y1.02334
G01 X-6.59996 Y1.02420
G01 X-6.59854 Y1.02537
G01 X-6.59737 Y1.02679
G01 X-6.59650 Y1.02839
G01 X-6.59600 Y1.03014
G01 X-6.59579 Y1.03195
G01 X-6.59600 Y1.03378
G01 X-6.59650 Y1.03553
G01 X-6.59737 Y1.03713
G01 X-6.59854 Y1.03855
G01 X-6.59996 Y1.03972
G01 X-6.60156 Y1.04058
G01 X-6.60331 Y1.04109
G01 X-6.61200 Y1.04196
G01 X-7.17156 Y1.04196
G01 X-7.19889 Y1.04465
G01 X-7.22515 Y1.05262
G01 X-7.24936 Y1.06555
G01 X-7.27057 Y1.08298
G01 X-7.28797 Y1.10419
G01 X-7.30092 Y1.12839
G01 X-7.30887 Y1.15466
G01 X-7.31157 Y1.18196
G01 X-7.30887 Y1.20927
G01 X-7.30092 Y1.23553
G01 X-7.28797 Y1.25974
G01 X-7.27057 Y1.28094
G01 X-6.67522 Y1.87630
G01 X-6.66884 Y1.88435
G01 X-6.66450 Y1.89364
G01 X-6.59742 Y2.09489
G01 X-6.59572 Y2.10185
G01 X-6.59513 Y2.10901
G04 P0 ( dwell for no time -- G64 should not smooth over this point )
G00 Z2.00000 ( retract )

G00 X-4.45295 Y4.94764 ( rapid move to begin. )
G01 F250.00000
( Mill infeed pass 1/1 )
G01 Z-0.20000
G04 P0 ( dwell for no time -- G64 should not smooth over this point )
G01 F500.00000
G01 X-4.45295 Y4.94764
G01 X-4.45328 Y4.94942
G01 X-4.45391 Y4.95114
G01 X-4.45490 Y4.95269
G01 X-4.45615 Y4.95401
G01 X-4.45765 Y4.95505
G01 X-4.45930 Y4.95582
G01 X-4.46110 Y4.95622
G01 X-4.46293 Y4.95627
G01 X-4.46471 Y4.95594
G01 X-4.46643 Y4.95531
G01 X-4.46798 Y4.95432
G01 X-4.46931 Y4.95307
G01 X-4.47035 Y4.95157
G01 X-4.47393 Y4.94360
G01 X-4.82945 Y3.87703
G01 X-4.84035 Y3.85247
G01 X-4.85572 Y3.83044
G01 X-4.87504 Y3.81178
G01 X-4.89755 Y3.79714
G01 X-4.92247 Y3.78706
G01 X-4.94883 Y3.78193
G01 X-4.97568 Y3.78193
G01 X-5.00204 Y3.78706
G01 X-5.02696 Y3.79714
G01 X-5.04947 Y3.81178
G01 X-5.06880 Y3.83044
G01 X-5.08416 Y3.85247
G01 X-5.09506 Y3.87703
G01 X-5.45058 Y4.94360
G01 X-5.45416 Y4.95157
G01 X-5.45521 Y4.95307
G01 X-5.45653 Y4.95432
G01 X-5.45808 Y4.95531
G01 X-5.45980 Y4.95594
G01 X-5.46158 Y4.95627
G01 X-5.46341 Y4.95622
G01 X-5.46521 Y4.95582
G01 X-5.46686 Y4.95505
G01 X-5.46836 Y4.95401
G01 X-5.46961 Y4.95269
G01 X-5.47060 Y4.95114
G01 X-5.47123 Y4.94942
G01 X-5.47156 Y4.94764
G01 X-5.47151 Y4.94581
G01 X-5.46956 Y4.93727
G01 X-4.97388 Y3.45016
G01 X-4.97040 Y3.44236
G01 X-4.96938 Y3.44088
G01 X-4.96808 Y3.43964
G01 X-4.96659 Y3.43865
G01 X-4.96491 Y3.43799
G01 X-4.96316 Y3.43763
G01 X-4.96135 Y3.43763
G01 X-4.95960 Y3.43799
G01 X-4.95792 Y3.43865
G01 X-4.95643 Y3.43964
G01 X-4.95513 Y3.44088
G01 X-4.95411 Y3.44236
G01 X-4.95064 Y3.45016
G01 X-4.45495 Y4.93727
G01 X-4.45300 Y4.94581
G01 X-4.45295 Y4.94764
G04 P0 ( dwell for no time -- G64 should not smooth over this point )
G00 Z2.00000 ( retract )

G00 X-7.02437 Y3.51907 ( rapid move to begin. )
G01 F250.00000
( Mill infeed pass 1/1 )
G01 Z-0.20000
G04 P0 ( dwell for no time -- G64 should not smooth over this point )
G01 F500.00000
G01 X-7.02437 Y3.51907
G01 X-7.02442 Y3.51724
G01 X-7.02482 Y3.51543
G01 X-7.02559 Y3.51378
G01 X-7.02663 Y3.51228
G01 X-7.02795 Y3.51104
G01 X-7.03537 Y3.50637
G01 X-7.16480 Y3.44162
G01 X-7.17448 Y3.43814
G01 X-7.18467 Y3.43695
G01 X-7.45414 Y3.43695
G01 X-7.46432 Y3.43814
G01 X-7.47400 Y3.44162
G01 X-7.60455 Y3.50692
G01 X-7.61070 Y3.51066
G01 X-7.61619 Y3.51531
G01 X-7.67964 Y3.57876
G01 X-7.68428 Y3.58424
G01 X-7.68802 Y3.59039
G01 X-7.75330 Y3.72092
G01 X-7.75678 Y3.73060
G01 X-7.75797 Y3.74078
G01 X-7.75797 Y4.15313
G01 X-7.75678 Y4.16331
G01 X-7.75330 Y4.17299
G01 X-7.68802 Y4.30352
G01 X-7.68428 Y4.30967
G01 X-7.67964 Y4.31515
G01 X-7.61619 Y4.37860
G01 X-7.61070 Y4.38325
G01 X-7.60455 Y4.38698
G01 X-7.47400 Y4.45229
G01 X-7.46432 Y4.45577
G01 X-7.45414 Y4.45696
G01 X-7.18467 Y4.45696
G01 X-7.17448 Y4.45577
G01 X-7.16480 Y4.45229
G01 X-7.03537 Y4.38754
G01 X-7.02795 Y4.38287
G01 X-7.02663 Y4.38162
G01 X-7.02559 Y4.38013
G01 X-7.02482 Y4.37847
G01 X-7.02442 Y4.37667
G01 X-7.02437 Y4.37484
G01 X-7.02470 Y4.37306
G01 X-7.02533 Y4.37134
G01 X-7.02632 Y4.36979
G01 X-7.02757 Y4.36847
G01 X-7.02907 Y4.36743
G01 X-7.03072 Y4.36666
G01 X-7.03252 Y4.36626
G01 X-7.03435 Y4.36621
G01 X-7.03613 Y4.36654
G01 X-7.04431 Y4.36964
G01 X-7.14936 Y4.42219
G01 X-7.17979 Y4.43321
G01 X-7.21197 Y4.43697
G01 X-7.42683 Y4.43697
G01 X-7.45901 Y4.43321
G01 X-7.48944 Y4.42219
G01 X-7.57887 Y4.37746
G01 X-7.59813 Y4.36580
G01 X-7.61527 Y4.35125
G01 X-7.65226 Y4.31424
G01 X-7.66683 Y4.29709
G01 X-7.67849 Y4.27784
G01 X-7.72320 Y4.18843
G01 X-7.73422 Y4.15800
G01 X-7.73798 Y4.12582
G01 X-7.73798 Y3.76809
G01 X-7.73422 Y3.73591
G01 X-7.72320 Y3.70548
G01 X-7.67849 Y3.61607
G01 X-7.66683 Y3.59681
G01 X-7.65226 Y3.57967
G01 X-7.61527 Y3.54266
G01 X-7.59813 Y3.52811
G01 X-7.57887 Y3.51645
G01 X-7.48944 Y3.47172
G01 X-7.45901 Y3.46070
G01 X-7.42683 Y3.45694
G01 X-7.21197 Y3.45694
G01 X-7.17979 Y3.46070
G01 X-7.14936 Y3.47172
G01 X-7.04431 Y3.52427
G01 X-7.03613 Y3.52737
G01 X-7.03435 Y3.52770
G01 X-7.03252 Y3.52765
G01 X-7.03072 Y3.52724
G01 X-7.02907 Y3.52648
G01 X-7.02757 Y3.52544
G01 X-7.02632 Y3.52412
G01 X-7.02533 Y3.52257
G01 X-7.02470 Y3.52084
G01 X-7.02437 Y3.51907
G04 P0 ( dwell for no time -- G64 should not smooth over this point )
G00 Z2.00000 ( retract )

G00 X-8.38083 Y3.45381 ( rapid move to begin. )
G01 F250.00000
( Mill infeed pass 1/1 )
G01 Z-0.20000
G04 P0 ( dwell for no time -- G64 should not smooth over this point )
G01 F500.00000
G01 X-8.38083 Y3.45381
G01 X-8.38083 Y4.22455
G01 X-8.38202 Y4.23474
G01 X-8.38550 Y4.24441
G01 X-8.44994 Y4.37327
G01 X-8.45510 Y4.38129
G01 X-8.45647 Y4.38267
G01 X-8.46450 Y4.38782
G01 X-8.59338 Y4.45229
G01 X-8.60305 Y4.45577
G01 X-8.61324 Y4.45696
G01 X-8.81128 Y4.45696
G01 X-8.82147 Y4.45577
G01 X-8.83597 Y4.45051
G01 X-8.86196 Y4.44383
G01 X-8.88873 Y4.44223
G01 X-8.91530 Y4.44576
G01 X-8.94075 Y4.45429
G01 X-8.96406 Y4.46750
G01 X-8.98446 Y4.48493
G01 X-9.00115 Y4.50593
G01 X-9.01352 Y4.52973
G01 X-9.02114 Y4.55544
G01 X-9.02370 Y4.58213
G01 X-9.02370 Y4.94009
G01 X-9.02457 Y4.94878
G01 X-9.02507 Y4.95053
G01 X-9.02594 Y4.95213
G01 X-9.02711 Y4.95356
G01 X-9.02853 Y4.95472
G01 X-9.03013 Y4.95559
G01 X-9.03188 Y4.95610
G01 X-9.03371 Y4.95630
G01 X-9.03551 Y4.95610
G01 X-9.03727 Y4.95559
G01 X-9.03887 Y4.95472
G01 X-9.04029 Y4.95356
G01 X-9.04146 Y4.95213
G01 X-9.04232 Y4.95053
G01 X-9.04283 Y4.94878
G01 X-9.04369 Y4.94009
G01 X-9.04369 Y3.45381
G01 X-9.04283 Y3.44513
G01 X-9.04232 Y3.44337
G01 X-9.04146 Y3.44177
G01 X-9.04029 Y3.44035
G01 X-9.03887 Y3.43918
G01 X-9.03727 Y3.43832
G01 X-9.03551 Y3.43781
G01 X-9.03371 Y3.43761
G01 X-9.03188 Y3.43781
G01 X-9.03013 Y3.43832
G01 X-9.02853 Y3.43918
G01 X-9.02711 Y3.44035
G01 X-9.02594 Y3.44177
G01 X-9.02507 Y3.44337
G01 X-9.02457 Y3.44513
G01 X-9.02370 Y3.45381
G01 X-9.02370 Y4.24195
G01 X-9.02101 Y4.26925
G01 X-9.01303 Y4.29552
G01 X-9.00008 Y4.31975
G01 X-8.98268 Y4.34096
G01 X-8.97237 Y4.35125
G01 X-8.95525 Y4.36583
G01 X-8.93602 Y4.37746
G01 X-8.84661 Y4.42219
G01 X-8.81616 Y4.43321
G01 X-8.78398 Y4.43697
G01 X-8.64054 Y4.43697
G01 X-8.60836 Y4.43321
G01 X-8.57793 Y4.42219
G01 X-8.51144 Y4.38894
G01 X-8.48621 Y4.37273
G01 X-8.46503 Y4.35155
G01 X-8.44882 Y4.32633
G01 X-8.41560 Y4.25986
G01 X-8.40458 Y4.22943
G01 X-8.40082 Y4.19725
G01 X-8.40082 Y3.45381
G01 X-8.39996 Y3.44513
G01 X-8.39945 Y3.44337
G01 X-8.39858 Y3.44177
G01 X-8.39742 Y3.44035
G01 X-8.39599 Y3.43918
G01 X-8.39439 Y3.43832
G01 X-8.39264 Y3.43781
G01 X-8.39084 Y3.43761
G01 X-8.38901 Y3.43781
G01 X-8.38726 Y3.43832
G01 X-8.38565 Y3.43918
G01 X-8.38423 Y3.44035
G01 X-8.38306 Y3.44177
G01 X-8.38220 Y3.44337
G01 X-8.38169 Y3.44513
G01 X-8.38083 Y3.45381
G04 P0 ( dwell for no time -- G64 should not smooth over this point )
G00 Z2.00000 ( retract )

G00 X-9.73798 Y3.45381 ( rapid move to begin. )
G01 F250.00000
( Mill infeed pass 1/1 )
G01 Z-0.20000
G04 P0 ( dwell for no time -- G64 should not smooth over this point )
G01 F500.00000
G01 X-9.73798 Y3.45381
G01 X-9.73798 Y4.44009
G01 X-9.73884 Y4.44878
G01 X-9.73935 Y4.45053
G01 X-9.74021 Y4.45213
G01 X-9.74138 Y4.45356
G01 X-9.74280 Y4.45473
G01 X-9.74440 Y4.45559
G01 X-9.74616 Y4.45610
G01 X-9.74798 Y4.45630
G01 X-9.74979 Y4.45610
G01 X-9.75154 Y4.45559
G01 X-9.75314 Y4.45473
G01 X-9.75456 Y4.45356
G01 X-9.75573 Y4.45213
G01 X-9.75659 Y4.45053
G01 X-9.75710 Y4.44878
G01 X-9.75797 Y4.44009
G01 X-9.75797 Y3.45381
G01 X-9.75710 Y3.44513
G01 X-9.75659 Y3.44337
G01 X-9.75573 Y3.44177
G01 X-9.75456 Y3.44035
G01 X-9.75314 Y3.43918
G01 X-9.75154 Y3.43832
G01 X-9.74979 Y3.43781
G01 X-9.74798 Y3.43761
G01 X-9.74616 Y3.43781
G01 X-9.74440 Y3.43832
G01 X-9.74280 Y3.43918
G01 X-9.74138 Y3.44035
G01 X-9.74021 Y3.44177
G01 X-9.73935 Y3.44337
G01 X-9.73884 Y3.44513
G01 X-9.73798 Y3.45381
G04 P0 ( dwell for no time -- G64 should not smooth over this point )
G00 Z2.00000 ( retract )

G00 X-9.95294 Y2.46052 ( rapid move to begin. )
G01 F250.00000
( Mill infeed pass 1/1 )
G01 Z-0.20000
G04 P0 ( dwell for no time -- G64 should not smooth over this point )
G01 F500.00000
G01 X-9.95294 Y2.46052
G01 X-9.95314 Y2.45872
G01 X-9.95365 Y2.45696
G01 X-9.95451 Y2.45536
G01 X-9.96007 Y2.44861
G01 X-10.02177 Y2.38691
G01 X-10.02853 Y2.38135
G01 X-10.03013 Y2.38049
G01 X-10.03188 Y2.37998
G01 X-10.03371 Y2.37977
G01 X-10.03551 Y2.37998
G01 X-10.03726 Y2.38049
G01 X-10.03886 Y2.38135
G01 X-10.04562 Y2.38691
G01 X-10.10732 Y2.44861
G01 X-10.11288 Y2.45536
G01 X-10.11374 Y2.45696
G01 X-10.11425 Y2.45872
G01 X-10.11446 Y2.46052
G01 X-10.11425 Y2.46235
G01 X-10.11374 Y2.46410
G01 X-10.11288 Y2.46570
G01 X-10.10732 Y2.47246
G01 X-10.04562 Y2.53416
G01 X-10.03886 Y2.53972
G01 X-10.03726 Y2.54058
G01 X-10.03551 Y2.54109
G01 X-10.03371 Y2.54129
G01 X-10.03188 Y2.54109
G01 X-10.03013 Y2.54058
G01 X-10.02853 Y2.53972
G01 X-10.02177 Y2.53416
G01 X-9.96007 Y2.47246
G01 X-9.95451 Y2.46570
G01 X-9.95365 Y2.46410
G01 X-9.95314 Y2.46235
G01 X-9.95294 Y2.46052
G04 P0 ( dwell for no time -- G64 should not smooth over this point )
G00 Z2.00000 ( retract )

G00 X-9.09581 Y1.03129 ( rapid move to begin. )
G01 F250.00000
( Mill infeed pass 1/1 )
G01 Z-0.20000
G04 P0 ( dwell for no time -- G64 should not smooth over this point )
G01 F500.00000
G01 X-9.09581 Y1.03129
G01 X-9.09614 Y1.02951
G01 X-9.09678 Y1.02778
G01 X-9.09777 Y1.02623
G01 X-9.09901 Y1.02491
G01 X-9.10051 Y1.02387
G01 X-9.10216 Y1.02311
G01 X-9.10397 Y1.02270
G01 X-9.10580 Y1.02265
G01 X-9.10757 Y1.02298
G01 X-9.11575 Y1.02608
G01 X-9.24572 Y1.09108
G01 X-9.25375 Y1.09624
G01 X-9.25512 Y1.09761
G01 X-9.26028 Y1.10563
G01 X-9.32472 Y1.23449
G01 X-9.32820 Y1.24417
G01 X-9.32939 Y1.25435
G01 X-9.32939 Y2.52509
G01 X-9.32853 Y2.53377
G01 X-9.32802 Y2.53553
G01 X-9.32716 Y2.53713
G01 X-9.32599 Y2.53855
G01 X-9.32457 Y2.53972
G01 X-9.32297 Y2.54058
G01 X-9.32121 Y2.54109
G01 X-9.31941 Y2.54129
G01 X-9.31758 Y2.54109
G01 X-9.31583 Y2.54058
G01 X-9.31423 Y2.53972
G01 X-9.31281 Y2.53855
G01 X-9.31164 Y2.53713
G01 X-9.31077 Y2.53553
G01 X-9.31027 Y2.53377
G01 X-9.30940 Y2.52509
G01 X-9.30940 Y1.28166
G01 X-9.30564 Y1.24947
G01 X-9.29462 Y1.21904
G01 X-9.26140 Y1.15257
G01 X-9.24519 Y1.12735
G01 X-9.22401 Y1.10617
G01 X-9.19879 Y1.08996
G01 X-9.10681 Y1.04399
G01 X-9.09939 Y1.03931
G01 X-9.09807 Y1.03807
G01 X-9.09703 Y1.03657
G01 X-9.09627 Y1.03492
G01 X-9.09586 Y1.03312
G01 X-9.09581 Y1.03129
G04 P0 ( dwell for no time -- G64 should not smooth over this point )
G00 Z2.00000 ( retract )

G00 X-10.02370 Y1.03883 ( rapid move to begin. )
G01 F250.00000
( Mill infeed pass 1/1 )
G01 Z-0.20000
G04 P0 ( dwell for no time -- G64 should not smooth over this point )
G01 F500.00000
G01 X-10.02370 Y1.03883
G01 X-10.02456 Y1.03014
G01 X-10.02507 Y1.02839
G01 X-10.02594 Y1.02679
G01 X-10.02710 Y1.02537
G01 X-10.02853 Y1.02420
G01 X-10.03013 Y1.02334
G01 X-10.03188 Y1.02283
G01 X-10.03371 Y1.02263
G01 X-10.03551 Y1.02283
G01 X-10.03726 Y1.02334
G01 X-10.03886 Y1.02420
G01 X-10.04029 Y1.02537
G01 X-10.04146 Y1.02679
G01 X-10.04232 Y1.02839
G01 X-10.04283 Y1.03014
G01 X-10.04369 Y1.03883
G01 X-10.04369 Y2.02509
G01 X-10.04283 Y2.03378
G01 X-10.04232 Y2.03553
G01 X-10.04146 Y2.03713
G01 X-10.04029 Y2.03855
G01 X-10.03886 Y2.03972
G01 X-10.03726 Y2.04058
G01 X-10.03551 Y2.04109
G01 X-10.03371 Y2.04129
G01 X-10.03188 Y2.04109
G01 X-10.03013 Y2.04058
G01 X-10.02853 Y2.03972
G01 X-10.02710 Y2.03855
G01 X-10.02594 Y2.03713
G01 X-10.02507 Y2.03553
G01 X-10.02456 Y2.03378
G01 X-10.02370 Y2.02509
G01 X-10.02370 Y1.03883
G04 P0 ( dwell for no time -- G64 should not smooth over this point )
G00 Z2.00000 ( retract )

G00 X-10.52436 Y2.03195 ( rapid move to begin. )
G01 F250.00000
( Mill infeed pass 1/1 )
G01 Z-0.20000
G04 P0 ( dwell for no time -- G64 should not smooth over this point )
G01 F500.00000
G01 X-10.52436 Y2.03195
G01 X-10.52456 Y2.03378
G01 X-10.52507 Y2.03553
G01 X-10.52594 Y2.03713
G01 X-10.52710 Y2.03855
G01 X-10.52853 Y2.03972
G01 X-10.53013 Y2.04058
G01 X-10.53188 Y2.04109
G01 X-10.54057 Y2.04195
G01 X-10.66843 Y2.04195
G01 X-10.67861 Y2.04076
G01 X-10.68829 Y2.03728
G01 X-10.77719 Y1.99280
G01 X-10.80229 Y1.98315
G01 X-10.82878 Y1.97848
G01 X-10.85568 Y1.97894
G01 X-10.88199 Y1.98455
G01 X-10.90676 Y1.99509
G01 X-10.92903 Y2.01015
G01 X-10.94803 Y2.02923
G01 X-10.95568 Y2.03855
G01 X-10.95710 Y2.03972
G01 X-10.95870 Y2.04058
G01 X-10.96045 Y2.04109
G01 X-10.96228 Y2.04129
G01 X-10.96409 Y2.04109
G01 X-10.96584 Y2.04058
G01 X-10.96744 Y2.03972
G01 X-10.96886 Y2.03855
G01 X-10.97003 Y2.03713
G01 X-10.97089 Y2.03553
G01 X-10.97140 Y2.03378
G01 X-10.97226 Y2.02509
G01 X-10.97226 Y1.03883
G01 X-10.97140 Y1.03014
G01 X-10.97089 Y1.02839
G01 X-10.97003 Y1.02679
G01 X-10.96886 Y1.02537
G01 X-10.96744 Y1.02420
G01 X-10.96584 Y1.02334
G01 X-10.96409 Y1.02283
G01 X-10.96228 Y1.02263
G01 X-10.96045 Y1.02283
G01 X-10.95870 Y1.02334
G01 X-10.95710 Y1.02420
G01 X-10.95568 Y1.02537
G01 X-10.95451 Y1.02679
G01 X-10.95365 Y1.02839
G01 X-10.95314 Y1.03014
G01 X-10.95227 Y1.03883
G01 X-10.95227 Y1.71084
G01 X-10.94851 Y1.74300
G01 X-10.93749 Y1.77343
G01 X-10.89279 Y1.86286
G01 X-10.88113 Y1.88211
G01 X-10.86655 Y1.89926
G01 X-10.82954 Y1.93626
G01 X-10.81240 Y1.95082
G01 X-10.79317 Y1.96248
G01 X-10.70374 Y2.00718
G01 X-10.67331 Y2.01820
G01 X-10.64112 Y2.02196
G01 X-10.54057 Y2.02196
G01 X-10.53188 Y2.02283
G01 X-10.53013 Y2.02334
G01 X-10.52853 Y2.02420
G01 X-10.52710 Y2.02537
G01 X-10.52594 Y2.02679
G01 X-10.52507 Y2.02839
G01 X-10.52456 Y2.03014
G01 X-10.52436 Y2.03195
G04 P0 ( dwell for no time -- G64 should not smooth over this point )
G00 Z2.00000 ( retract )

G00 X-11.59512 Y1.32578 ( rapid move to begin. )
G01 F250.00000
( Mill infeed pass 1/1 )
G01 Z-0.20000
G04 P0 ( dwell for no time -- G64 should not smooth over this point )
G01 F500.00000
G01 X-11.59512 Y1.32578
G01 X-11.59512 Y1.73812
G01 X-11.59632 Y1.74830
G01 X-11.59980 Y1.75798
G01 X-11.66507 Y1.88854
G01 X-11.66881 Y1.89468
G01 X-11.67346 Y1.90017
G01 X-11.73691 Y1.96362
G01 X-11.74239 Y1.96827
G01 X-11.74854 Y1.97200
G01 X-11.87909 Y2.03728
G01 X-11.88877 Y2.04076
G01 X-11.89896 Y2.04195
G01 X-12.16843 Y2.04195
G01 X-12.17861 Y2.04076
G01 X-12.19591 Y2.03451
G01 X-12.21112 Y2.02870
G01 X-12.23739 Y2.02397
G01 X-12.26408 Y2.02435
G01 X-12.29022 Y2.02976
G01 X-12.31483 Y2.04005
G01 X-12.31582 Y2.04058
G01 X-12.31757 Y2.04109
G01 X-12.31940 Y2.04129
G01 X-12.32121 Y2.04109
G01 X-12.32296 Y2.04058
G01 X-12.32456 Y2.03972
G01 X-12.32598 Y2.03855
G01 X-12.32715 Y2.03713
G01 X-12.32801 Y2.03553
G01 X-12.32852 Y2.03378
G01 X-12.32939 Y2.02509
G01 X-12.32939 Y0.53883
G01 X-12.32852 Y0.53015
G01 X-12.32801 Y0.52839
G01 X-12.32715 Y0.52679
G01 X-12.32598 Y0.52537
G01 X-12.32456 Y0.52420
G01 X-12.32296 Y0.52334
G01 X-12.32121 Y0.52283
G01 X-12.31940 Y0.52263
G01 X-12.31757 Y0.52283
G01 X-12.31582 Y0.52334
G01 X-12.31422 Y0.52420
G01 X-12.31280 Y0.52537
G01 X-12.31163 Y0.52679
G01 X-12.31077 Y0.52839
G01 X-12.31026 Y0.53015
G01 X-12.30940 Y0.53883
G01 X-12.30940 Y0.88196
G01 X-12.30670 Y0.90927
G01 X-12.29873 Y0.93553
G01 X-12.28580 Y0.95974
G01 X-12.26838 Y0.98095
G01 X-12.24717 Y0.99837
G01 X-12.22296 Y1.01130
G01 X-12.19670 Y1.01927
G01 X-12.16939 Y1.02197
G01 X-11.89896 Y1.02197
G01 X-11.88877 Y1.02316
G01 X-11.87909 Y1.02664
G01 X-11.74854 Y1.09192
G01 X-11.74239 Y1.09565
G01 X-11.73691 Y1.10030
G01 X-11.67346 Y1.16375
G01 X-11.66881 Y1.16924
G01 X-11.66507 Y1.17538
G01 X-11.59980 Y1.30591
G01 X-11.59632 Y1.31559
G01 X-11.59512 Y1.32578
G04 P0 ( dwell for no time -- G64 should not smooth over this point )
G00 Z2.00000 ( retract )

G00 X-11.61511 Y1.35308 ( rapid move to begin. )
G01 F250.00000
( Mill infeed pass 1/1 )
G01 Z-0.20000
G04 P0 ( dwell for no time -- G64 should not smooth over this point )
G01 F500.00000
G01 X-11.61511 Y1.35308
G01 X-11.61511 Y1.71084
G01 X-11.61887 Y1.74300
G01 X-11.62990 Y1.77343
G01 X-11.67460 Y1.86286
G01 X-11.68626 Y1.88211
G01 X-11.70084 Y1.89926
G01 X-11.73782 Y1.93624
G01 X-11.75496 Y1.95082
G01 X-11.77422 Y1.96248
G01 X-11.86365 Y2.00718
G01 X-11.89408 Y2.01820
G01 X-11.92624 Y2.02196
G01 X-12.14112 Y2.02196
G01 X-12.17330 Y2.01820
G01 X-12.20373 Y2.00718
G01 X-12.23200 Y1.99306
G01 X-12.25392 Y1.97944
G01 X-12.27295 Y1.96202
G01 X-12.28849 Y1.94142
G01 X-12.29997 Y1.91833
G01 X-12.30701 Y1.89352
G01 X-12.30940 Y1.86784
G01 X-12.30940 Y1.19608
G01 X-12.30701 Y1.17040
G01 X-12.29997 Y1.14559
G01 X-12.28849 Y1.12250
G01 X-12.27295 Y1.10190
G01 X-12.25392 Y1.08448
G01 X-12.23200 Y1.07086
G01 X-12.20373 Y1.05674
G01 X-12.17330 Y1.04572
G01 X-12.14112 Y1.04196
G01 X-11.92624 Y1.04196
G01 X-11.89408 Y1.04572
G01 X-11.86365 Y1.05674
G01 X-11.77422 Y1.10144
G01 X-11.75496 Y1.11310
G01 X-11.73782 Y1.12768
G01 X-11.70084 Y1.16466
G01 X-11.68626 Y1.18181
G01 X-11.67460 Y1.20106
G01 X-11.62990 Y1.29047
G01 X-11.61887 Y1.32090
G01 X-11.61511 Y1.35308
G04 P0 ( dwell for no time -- G64 should not smooth over this point )
G00 Z2.00000 ( retract )

G00 X-12.81011 Y1.03129 ( rapid move to begin. )
G01 F250.00000
( Mill infeed pass 1/1 )
G01 Z-0.20000
G04 P0 ( dwell for no time -- G64 should not smooth over this point )
G01 F500.00000
G01 X-12.81011 Y1.03129
G01 X-12.81016 Y1.03312
G01 X-12.81211 Y1.04165
G01 X-12.95278 Y1.46370
G01 X-13.30779 Y2.52874
G01 X-13.31127 Y2.53654
G01 X-13.31229 Y2.53802
G01 X-13.31359 Y2.53926
G01 X-13.31508 Y2.54025
G01 X-13.31676 Y2.54091
G01 X-13.31851 Y2.54127
G01 X-13.32032 Y2.54127
G01 X-13.32207 Y2.54091
G01 X-13.32375 Y2.54025
G01 X-13.32524 Y2.53926
G01 X-13.32654 Y2.53802
G01 X-13.32756 Y2.53654
G01 X-13.33103 Y2.52874
G01 X-13.68603 Y1.46370
G01 X-13.82672 Y1.04165
G01 X-13.82867 Y1.03312
G01 X-13.82872 Y1.03129
G01 X-13.82842 Y1.02951
G01 X-13.82776 Y1.02778
G01 X-13.82677 Y1.02623
G01 X-13.82552 Y1.02491
G01 X-13.82402 Y1.02387
G01 X-13.82237 Y1.02311
G01 X-13.82057 Y1.02270
G01 X-13.81874 Y1.02265
G01 X-13.81696 Y1.02296
G01 X-13.81524 Y1.02362
G01 X-13.81369 Y1.02461
G01 X-13.81236 Y1.02585
G01 X-13.81132 Y1.02735
G01 X-13.80774 Y1.03533
G01 X-13.70124 Y1.35481
G01 X-13.68923 Y1.38130
G01 X-13.67198 Y1.40474
G01 X-13.65029 Y1.42410
G01 X-13.62504 Y1.43858
G01 X-13.59735 Y1.44752
G01 X-13.56842 Y1.45054
G01 X-13.07038 Y1.45054
G01 X-13.04145 Y1.44752
G01 X-13.01376 Y1.43858
G01 X-12.98852 Y1.42410
G01 X-12.96682 Y1.40474
G01 X-12.94958 Y1.38130
G01 X-12.93756 Y1.35481
G01 X-12.83109 Y1.03533
G01 X-12.82751 Y1.02735
G01 X-12.82646 Y1.02585
G01 X-12.82514 Y1.02461
G01 X-12.82359 Y1.02362
G01 X-12.82187 Y1.02298
G01 X-12.82009 Y1.02265
G01 X-12.81826 Y1.02270
G01 X-12.81646 Y1.02311
G01 X-12.81481 Y1.02387
G01 X-12.81331 Y1.02491
G01 X-12.81206 Y1.02623
G01 X-12.81107 Y1.02778
G01 X-12.81044 Y1.02951
G01 X-12.81011 Y1.03129
G04 P0 ( dwell for no time -- G64 should not smooth over this point )
G00 Z2.00000 ( retract )

G00 X-13.03060 Y1.60258 ( rapid move to begin. )
G01 F250.00000
( Mill infeed pass 1/1 )
G01 Z-0.20000
G04 P0 ( dwell for no time -- G64 should not smooth over this point )
G01 F500.00000
G01 X-13.03060 Y1.60258
G01 X-13.03162 Y1.62903
G01 X-13.03756 Y1.65481
G01 X-13.18659 Y2.10187
G01 X-13.19748 Y2.12643
G01 X-13.21287 Y2.14846
G01 X-13.23220 Y2.16713
G01 X-13.25471 Y2.18176
G01 X-13.27963 Y2.19184
G01 X-13.30599 Y2.19697
G01 X-13.33284 Y2.19697
G01 X-13.35920 Y2.19184
G01 X-13.38412 Y2.18176
G01 X-13.40663 Y2.16713
G01 X-13.42593 Y2.14846
G01 X-13.44132 Y2.12643
G01 X-13.45222 Y2.10187
G01 X-13.60124 Y1.65481
G01 X-13.60721 Y1.62903
G01 X-13.60820 Y1.60258
G01 X-13.60421 Y1.57645
G01 X-13.59537 Y1.55151
G01 X-13.58201 Y1.52867
G01 X-13.56456 Y1.50878
G01 X-13.54371 Y1.49250
G01 X-13.52016 Y1.48044
G01 X-13.49476 Y1.47304
G01 X-13.46842 Y1.47053
G01 X-13.17038 Y1.47053
G01 X-13.14404 Y1.47304
G01 X-13.11864 Y1.48044
G01 X-13.09509 Y1.49250
G01 X-13.07424 Y1.50878
G01 X-13.05682 Y1.52867
G01 X-13.04343 Y1.55151
G01 X-13.03459 Y1.57645
G01 X-13.03060 Y1.60258
G04 P0 ( dwell for no time -- G64 should not smooth over this point )
G00 Z2.00000 ( retract )

G00 X-14.16654 Y3.74078 ( rapid move to begin. )
G01 F250.00000
( Mill infeed pass 1/1 )
G01 Z-0.20000
G04 P0 ( dwell for no time -- G64 should not smooth over this point )
G01 F500.00000
G01 X-14.16654 Y3.74078
G01 X-14.16654 Y4.15313
G01 X-14.16774 Y4.16331
G01 X-14.17122 Y4.17299
G01 X-14.23649 Y4.30352
G01 X-14.24023 Y4.30967
G01 X-14.24488 Y4.31515
G01 X-14.30835 Y4.37860
G01 X-14.31384 Y4.38325
G01 X-14.31998 Y4.38698
G01 X-14.45051 Y4.45229
G01 X-14.46019 Y4.45577
G01 X-14.47038 Y4.45696
G01 X-14.73987 Y4.45696
G01 X-14.75006 Y4.45577
G01 X-14.76735 Y4.44949
G01 X-14.78257 Y4.44370
G01 X-14.80883 Y4.43898
G01 X-14.83553 Y4.43936
G01 X-14.86164 Y4.44477
G01 X-14.88628 Y4.45506
G01 X-14.88727 Y4.45559
G01 X-14.88902 Y4.45610
G01 X-14.89085 Y4.45630
G01 X-14.89265 Y4.45610
G01 X-14.89440 Y4.45559
G01 X-14.89601 Y4.45473
G01 X-14.89743 Y4.45356
G01 X-14.89860 Y4.45213
G01 X-14.89946 Y4.45053
G01 X-14.89997 Y4.44878
G01 X-14.90083 Y4.44009
G01 X-14.90083 Y2.95381
G01 X-14.89997 Y2.94513
G01 X-14.89946 Y2.94337
G01 X-14.89860 Y2.94177
G01 X-14.89743 Y2.94035
G01 X-14.89601 Y2.93918
G01 X-14.89440 Y2.93832
G01 X-14.89265 Y2.93781
G01 X-14.89085 Y2.93761
G01 X-14.88902 Y2.93781
G01 X-14.88727 Y2.93832
G01 X-14.88567 Y2.93918
G01 X-14.88424 Y2.94035
G01 X-14.88308 Y2.94177
G01 X-14.88221 Y2.94337
G01 X-14.88170 Y2.94513
G01 X-14.88084 Y2.95381
G01 X-14.88084 Y3.29694
G01 X-14.87815 Y3.32425
G01 X-14.87017 Y3.35051
G01 X-14.85724 Y3.37472
G01 X-14.83982 Y3.39593
G01 X-14.81861 Y3.41335
G01 X-14.79441 Y3.42628
G01 X-14.76814 Y3.43425
G01 X-14.74084 Y3.43695
G01 X-14.47038 Y3.43695
G01 X-14.46019 Y3.43814
G01 X-14.45051 Y3.44162
G01 X-14.31998 Y3.50692
G01 X-14.31384 Y3.51066
G01 X-14.30835 Y3.51531
G01 X-14.24488 Y3.57876
G01 X-14.24023 Y3.58424
G01 X-14.23649 Y3.59039
G01 X-14.17122 Y3.72092
G01 X-14.16774 Y3.73060
G01 X-14.16654 Y3.74078
G04 P0 ( dwell for no time -- G64 should not smooth over this point )
G00 Z2.00000 ( retract )

G00 X-14.18653 Y3.76809 ( rapid move to begin. )
G01 F250.00000
( Mill infeed pass 1/1 )
G01 Z-0.20000
G04 P0 ( dwell for no time -- G64 should not smooth over this point )
G01 F500.00000
G01 X-14.18653 Y3.76809
G01 X-14.18653 Y4.12582
G01 X-14.19029 Y4.15800
G01 X-14.20132 Y4.18843
G01 X-14.24602 Y4.27784
G01 X-14.25768 Y4.29709
G01 X-14.27226 Y4.31424
G01 X-14.30929 Y4.35125
G01 X-14.32641 Y4.36583
G01 X-14.34564 Y4.37746
G01 X-14.43505 Y4.42219
G01 X-14.46550 Y4.43321
G01 X-14.49768 Y4.43697
G01 X-14.71257 Y4.43697
G01 X-14.74475 Y4.43321
G01 X-14.77520 Y4.42219
G01 X-14.80347 Y4.40804
G01 X-14.82537 Y4.39443
G01 X-14.84442 Y4.37703
G01 X-14.85994 Y4.35643
G01 X-14.87142 Y4.33331
G01 X-14.87845 Y4.30850
G01 X-14.88084 Y4.28282
G01 X-14.88084 Y3.61109
G01 X-14.87845 Y3.58541
G01 X-14.87142 Y3.56059
G01 X-14.85994 Y3.53748
G01 X-14.84442 Y3.51688
G01 X-14.82537 Y3.49948
G01 X-14.80347 Y3.48587
G01 X-14.77520 Y3.47172
G01 X-14.74475 Y3.46070
G01 X-14.71257 Y3.45694
G01 X-14.49768 Y3.45694
G01 X-14.46550 Y3.46070
G01 X-14.43505 Y3.47172
G01 X-14.34564 Y3.51645
G01 X-14.32641 Y3.52808
G01 X-14.30929 Y3.54266
G01 X-14.27226 Y3.57967
G01 X-14.25768 Y3.59681
G01 X-14.24602 Y3.61607
G01 X-14.20132 Y3.70548
G01 X-14.19029 Y3.73591
G01 X-14.18653 Y3.76809
G04 P0 ( dwell for no time -- G64 should not smooth over this point )
G00 Z2.00000 ( retract )

G00 X-12.88153 Y3.51907 ( rapid move to begin. )
G01 F250.00000
( Mill infeed pass 1/1 )
G01 Z-0.20000
G04 P0 ( dwell for no time -- G64 should not smooth over this point )
G01 F500.00000
G01 X-12.88153 Y3.51907
G01 X-12.88186 Y3.52084
G01 X-12.88250 Y3.52257
G01 X-12.88349 Y3.52412
G01 X-12.88473 Y3.52544
G01 X-12.88623 Y3.52648
G01 X-12.88788 Y3.52724
G01 X-12.88968 Y3.52765
G01 X-12.89151 Y3.52770
G01 X-12.89329 Y3.52737
G01 X-12.90147 Y3.52425
G01 X-13.00647 Y3.47172
G01 X-13.03693 Y3.46070
G01 X-13.06911 Y3.45694
G01 X-13.28399 Y3.45694
G01 X-13.31618 Y3.46070
G01 X-13.34663 Y3.47172
G01 X-13.43604 Y3.51645
G01 X-13.45527 Y3.52808
G01 X-13.47239 Y3.54266
G01 X-13.50939 Y3.57967
G01 X-13.52397 Y3.59681
G01 X-13.53563 Y3.61607
G01 X-13.58034 Y3.70548
G01 X-13.59136 Y3.73591
G01 X-13.59512 Y3.76809
G01 X-13.59512 Y4.12582
G01 X-13.59136 Y4.15800
G01 X-13.58034 Y4.18843
G01 X-13.53563 Y4.27784
G01 X-13.52397 Y4.29709
G01 X-13.50939 Y4.31424
G01 X-13.47239 Y4.35125
G01 X-13.45527 Y4.36583
G01 X-13.43604 Y4.37746
G01 X-13.34663 Y4.42219
G01 X-13.31618 Y4.43321
G01 X-13.28399 Y4.43697
G01 X-13.06911 Y4.43697
G01 X-13.03693 Y4.43321
G01 X-13.00647 Y4.42219
G01 X-12.90147 Y4.36966
G01 X-12.89329 Y4.36654
G01 X-12.89151 Y4.36621
G01 X-12.88968 Y4.36626
G01 X-12.88788 Y4.36666
G01 X-12.88623 Y4.36743
G01 X-12.88473 Y4.36847
G01 X-12.88349 Y4.36979
G01 X-12.88250 Y4.37134
G01 X-12.88186 Y4.37306
G01 X-12.88153 Y4.37484
G01 X-12.88158 Y4.37667
G01 X-12.88199 Y4.37847
G01 X-12.88275 Y4.38013
G01 X-12.88379 Y4.38162
G01 X-12.88511 Y4.38287
G01 X-12.89253 Y4.38754
G01 X-13.02194 Y4.45229
G01 X-13.03162 Y4.45577
G01 X-13.04181 Y4.45696
G01 X-13.31130 Y4.45696
G01 X-13.32148 Y4.45577
G01 X-13.33116 Y4.45229
G01 X-13.46169 Y4.38698
G01 X-13.46784 Y4.38325
G01 X-13.47333 Y4.37860
G01 X-13.53677 Y4.31515
G01 X-13.54142 Y4.30967
G01 X-13.54516 Y4.30352
G01 X-13.61043 Y4.17299
G01 X-13.61391 Y4.16331
G01 X-13.61511 Y4.15313
G01 X-13.61511 Y3.74078
G01 X-13.61391 Y3.73060
G01 X-13.61043 Y3.72092
G01 X-13.54516 Y3.59039
G01 X-13.54142 Y3.58424
G01 X-13.53677 Y3.57876
G01 X-13.47333 Y3.51531
G01 X-13.46784 Y3.51066
G01 X-13.46169 Y3.50692
G01 X-13.33116 Y3.44162
G01 X-13.32148 Y3.43814
G01 X-13.31130 Y3.43695
G01 X-13.04181 Y3.43695
G01 X-13.03162 Y3.43814
G01 X-13.02194 Y3.44162
G01 X-12.89253 Y3.50637
G01 X-12.88511 Y3.51104
G01 X-12.88379 Y3.51228
G01 X-12.88275 Y3.51378
G01 X-12.88199 Y3.51543
G01 X-12.88158 Y3.51724
G01 X-12.88153 Y3.51907
G04 P0 ( dwell for no time -- G64 should not smooth over this point )
G00 Z2.00000 ( retract )

G00 X-11.54369 Y3.76809 ( rapid move to begin. )
G01 F250.00000
( Mill infeed pass 1/1 )
G01 Z-0.20000
G04 P0 ( dwell for no time -- G64 should not smooth over this point )
G01 F500.00000
G01 X-11.54369 Y3.76809
G01 X-11.54369 Y4.12582
G01 X-11.54745 Y4.15800
G01 X-11.55847 Y4.18843
G01 X-11.60317 Y4.27784
G01 X-11.61483 Y4.29709
G01 X-11.62941 Y4.31424
G01 X-11.66642 Y4.35125
G01 X-11.68354 Y4.36583
G01 X-11.70277 Y4.37746
G01 X-11.79218 Y4.42219
G01 X-11.82263 Y4.43321
G01 X-11.85481 Y4.43697
G01 X-12.06970 Y4.43697
G01 X-12.10188 Y4.43321
G01 X-12.13233 Y4.42219
G01 X-12.16060 Y4.40804
G01 X-12.18250 Y4.39443
G01 X-12.20155 Y4.37703
G01 X-12.21707 Y4.35643
G01 X-12.22855 Y4.33331
G01 X-12.23558 Y4.30850
G01 X-12.23797 Y4.28282
G01 X-12.23797 Y3.61109
G01 X-12.23558 Y3.58541
G01 X-12.22855 Y3.56059
G01 X-12.21707 Y3.53748
G01 X-12.20155 Y3.51688
G01 X-12.18250 Y3.49948
G01 X-12.16060 Y3.48587
G01 X-12.13233 Y3.47172
G01 X-12.10188 Y3.46070
G01 X-12.06970 Y3.45694
G01 X-11.85481 Y3.45694
G01 X-11.82263 Y3.46070
G01 X-11.79218 Y3.47172
G01 X-11.70277 Y3.51645
G01 X-11.68354 Y3.52808
G01 X-11.66642 Y3.54266
G01 X-11.62941 Y3.57967
G01 X-11.61483 Y3.59681
G01 X-11.60317 Y3.61607
G01 X-11.55847 Y3.70548
G01 X-11.54745 Y3.73591
G01 X-11.54369 Y3.76809
G04 P0 ( dwell for no time -- G64 should not smooth over this point )
G00 Z2.00000 ( retract )

G00 X-11.52370 Y3.74078 ( rapid move to begin. )
G01 F250.00000
( Mill infeed pass 1/1 )
G01 Z-0.20000
G04 P0 ( dwell for no time -- G64 should not smooth over this point )
G01 F500.00000
G01 X-11.52370 Y3.74078
G01 X-11.52370 Y4.15313
G01 X-11.52489 Y4.16331
G01 X-11.52837 Y4.17299
G01 X-11.59365 Y4.30352
G01 X-11.59738 Y4.30967
G01 X-11.60203 Y4.31515
G01 X-11.66548 Y4.37860
G01 X-11.67097 Y4.38325
G01 X-11.67711 Y4.38698
G01 X-11.80764 Y4.45229
G01 X-11.81732 Y4.45577
G01 X-11.82751 Y4.45696
G01 X-12.09797 Y4.45696
G01 X-12.12527 Y4.45965
G01 X-12.15154 Y4.46763
G01 X-12.17574 Y4.48056
G01 X-12.19695 Y4.49798
G01 X-12.21437 Y4.51919
G01 X-12.22730 Y4.54340
G01 X-12.23528 Y4.56966
G01 X-12.23797 Y4.59697
G01 X-12.23797 Y4.94009
G01 X-12.23883 Y4.94878
G01 X-12.23934 Y4.95053
G01 X-12.24021 Y4.95213
G01 X-12.24137 Y4.95356
G01 X-12.24280 Y4.95472
G01 X-12.24440 Y4.95559
G01 X-12.24615 Y4.95610
G01 X-12.24798 Y4.95630
G01 X-12.24978 Y4.95610
G01 X-12.25153 Y4.95559
G01 X-12.25314 Y4.95472
G01 X-12.25456 Y4.95356
G01 X-12.25573 Y4.95213
G01 X-12.25659 Y4.95053
G01 X-12.25710 Y4.94878
G01 X-12.25796 Y4.94009
G01 X-12.25796 Y3.45381
G01 X-12.25710 Y3.44513
G01 X-12.25659 Y3.44337
G01 X-12.25573 Y3.44177
G01 X-12.25456 Y3.44035
G01 X-12.25314 Y3.43918
G01 X-12.25153 Y3.43832
G01 X-12.24978 Y3.43781
G01 X-12.24798 Y3.43761
G01 X-12.24615 Y3.43781
G01 X-12.24440 Y3.43832
G01 X-12.24341 Y3.43885
G01 X-12.21877 Y3.44914
G01 X-12.19266 Y3.45455
G01 X-12.16596 Y3.45493
G01 X-12.13970 Y3.45021
G01 X-12.12448 Y3.44441
G01 X-12.10719 Y3.43814
G01 X-12.09700 Y3.43695
G01 X-11.82751 Y3.43695
G01 X-11.81732 Y3.43814
G01 X-11.80764 Y3.44162
G01 X-11.67711 Y3.50692
G01 X-11.67097 Y3.51066
G01 X-11.66548 Y3.51531
G01 X-11.60203 Y3.57876
G01 X-11.59738 Y3.58424
G01 X-11.59365 Y3.59039
G01 X-11.52837 Y3.72092
G01 X-11.52489 Y3.73060
G01 X-11.52370 Y3.74078
G04 P0 ( dwell for no time -- G64 should not smooth over this point )
G00 Z2.00000 ( retract )

G00 X-9.66721 Y4.87550 ( rapid move to begin. )
G01 F250.00000
( Mill infeed pass 1/1 )
G01 Z-0.20000
G04 P0 ( dwell for no time -- G64 should not smooth over this point )
G01 F500.00000
G01 X-9.66721 Y4.87550
G01 X-9.66742 Y4.87370
G01 X-9.66792 Y4.87195
G01 X-9.66879 Y4.87035
G01 X-9.67435 Y4.86359
G01 X-9.73605 Y4.80189
G01 X-9.74280 Y4.79633
G01 X-9.74440 Y4.79547
G01 X-9.74616 Y4.79496
G01 X-9.74796 Y4.79476
G01 X-9.74979 Y4.79496
G01 X-9.75154 Y4.79547
G01 X-9.75314 Y4.79633
G01 X-9.75990 Y4.80189
G01 X-9.82159 Y4.86359
G01 X-9.82716 Y4.87035
G01 X-9.82802 Y4.87195
G01 X-9.82853 Y4.87370
G01 X-9.82873 Y4.87550
G01 X-9.82853 Y4.87733
G01 X-9.82802 Y4.87908
G01 X-9.82716 Y4.88068
G01 X-9.82162 Y4.88744
G01 X-9.75990 Y4.94919
G01 X-9.75317 Y4.95472
G01 X-9.75154 Y4.95559
G01 X-9.74979 Y4.95610
G01 X-9.74798 Y4.95630
G01 X-9.74616 Y4.95610
G01 X-9.74440 Y4.95559
G01 X-9.74280 Y4.95472
G01 X-9.73605 Y4.94916
G01 X-9.67432 Y4.88744
G01 X-9.66879 Y4.88068
G01 X-9.66792 Y4.87908
G01 X-9.66742 Y4.87733
G01 X-9.66721 Y4.87550

G04 P0 ( dwell for no time -- G64 should not smooth over this point )
G00 Z30.000000 ( retract )

M5 ( Spindle off. )
G04 P1.000000
M9 ( Coolant off. )
M2 ( Program end. )

