( pcb2gcode 2.4.0 )
( Software-independent Gcode )

G94 ( Millimeters per minute feed rate. )
G21 ( Units == Millimeters. )

G90 ( Absolute coordinates. )
G00 S20000 ( RPM spindle speed. )
G64 P0.05000 ( set maximum deviation from commanded toolpath )
G01 F300.00000 ( Feedrate. )


G00 Z40.00000 (Retract to tool change height)
T0
M5      (Spindle stop.)
G04 P1.00000 (Wait for spindle to stop)
(MSG, Change tool bit to mill diameter 0.24000mm)
M6      (Tool change.)
M0      (Temporary machine stop.)
M3 ( Spindle on clockwise. )
G04 P1.00000 (Wait for spindle to get up to speed)
G04 P0 ( dwell for no time -- G64 should not smooth over this point )
G00 Z5.00000 ( retract )

G00 X-7.00666 Y143.71347 ( rapid move to begin. )
G01 F150.00000
( Mill infeed pass 1/1 )
G01 Z-0.20000
G04 P0 ( dwell for no time -- G64 should not smooth over this point )
G01 F300.00000
G01 X-7.00666 Y143.71347
G01 X-7.00666 Y143.73856
G01 X-7.02632 Y143.92568
G01 X-7.03152 Y143.95022
G01 X-7.08966 Y144.12916
G01 X-7.09987 Y144.15207
G01 X-7.15598 Y144.24923
G01 X-7.15598 Y146.93401
G01 X-7.15654 Y146.94580
G01 X-7.17097 Y147.09210
G01 X-7.17554 Y147.11516
G01 X-7.21824 Y147.25588
G01 X-7.22723 Y147.27760
G01 X-7.29655 Y147.40726
G01 X-7.30960 Y147.42682
G01 X-7.40287 Y147.54049
G01 X-7.41080 Y147.54920
G01 X-12.10479 Y152.24319
G01 X-12.11350 Y152.25112
G01 X-12.22717 Y152.34439
G01 X-12.24673 Y152.35744
G01 X-12.37639 Y152.42676
G01 X-12.39811 Y152.43578
G01 X-12.53883 Y152.47845
G01 X-12.56189 Y152.48302
G01 X-12.70819 Y152.49747
G01 X-12.71998 Y152.49803
G01 X-20.40798 Y152.49803
G01 X-20.40798 Y158.12802
G01 X-20.41029 Y158.15144
G01 X-20.41712 Y158.17394
G01 X-20.42822 Y158.19469
G01 X-20.44313 Y158.21285
G01 X-20.46132 Y158.22779
G01 X-20.48207 Y158.23889
G01 X-20.50457 Y158.24570
G01 X-20.52799 Y158.24801
G01 X-22.02799 Y158.24801
G01 X-22.05141 Y158.24570
G01 X-22.07391 Y158.23889
G01 X-22.09466 Y158.22779
G01 X-22.11285 Y158.21285
G01 X-22.12776 Y158.19469
G01 X-22.13886 Y158.17394
G01 X-22.14569 Y158.15141
G01 X-22.14798 Y158.12802
G01 X-22.14798 Y155.12802
G01 X-22.14795 Y153.12823
G01 X-22.14798 Y150.12801
G01 X-22.14569 Y150.10459
G01 X-22.13886 Y150.08209
G01 X-22.12776 Y150.06133
G01 X-22.11285 Y150.04315
G01 X-22.09466 Y150.02824
G01 X-22.07391 Y150.01714
G01 X-22.05141 Y150.01033
G01 X-22.02799 Y150.00802
G01 X-20.52799 Y150.00802
G01 X-20.50457 Y150.01033
G01 X-20.48207 Y150.01714
G01 X-20.46132 Y150.02824
G01 X-20.44313 Y150.04315
G01 X-20.42822 Y150.06133
G01 X-20.41712 Y150.08209
G01 X-20.41029 Y150.10459
G01 X-20.40798 Y150.12801
G01 X-20.40798 Y150.75803
G01 X-13.08033 Y150.75803
G01 X-8.89596 Y146.57366
G01 X-8.89596 Y144.24931
G01 X-8.95209 Y144.15207
G01 X-8.96230 Y144.12916
G01 X-9.02045 Y143.95022
G01 X-9.02565 Y143.92568
G01 X-9.04534 Y143.73856
G01 X-9.04534 Y143.71347
G01 X-9.02565 Y143.52635
G01 X-9.02045 Y143.50181
G01 X-8.96230 Y143.32287
G01 X-8.95209 Y143.29996
G01 X-8.85804 Y143.13701
G01 X-8.84328 Y143.11672
G01 X-8.71737 Y142.97689
G01 X-8.69873 Y142.96010
G01 X-8.54653 Y142.84951
G01 X-8.52479 Y142.83696
G01 X-8.35291 Y142.76043
G01 X-8.32906 Y142.75269
G01 X-8.14501 Y142.71357
G01 X-8.12007 Y142.71095
G01 X-7.93190 Y142.71095
G01 X-7.90696 Y142.71357
G01 X-7.72291 Y142.75269
G01 X-7.69906 Y142.76043
G01 X-7.52718 Y142.83696
G01 X-7.50546 Y142.84951
G01 X-7.35324 Y142.96010
G01 X-7.33460 Y142.97689
G01 X-7.20869 Y143.11672
G01 X-7.19396 Y143.13701
G01 X-7.09987 Y143.29996
G01 X-7.08966 Y143.32287
G01 X-7.03152 Y143.50181
G01 X-7.02632 Y143.52635
G01 X-7.00666 Y143.71347
G04 P0 ( dwell for no time -- G64 should not smooth over this point )
G00 Z5.00000 ( retract )

G00 X-25.40799 Y150.87802 ( rapid move to begin. )
G01 F150.00000
( Mill infeed pass 1/1 )
G01 Z-0.20000
G04 P0 ( dwell for no time -- G64 should not smooth over this point )
G01 F300.00000
G01 X-25.40799 Y150.87802
G01 X-25.40865 Y150.86547
G01 X-25.42504 Y150.70954
G01 X-25.43024 Y150.68501
G01 X-25.47871 Y150.53588
G01 X-25.48892 Y150.51297
G01 X-25.56730 Y150.37718
G01 X-25.58206 Y150.35689
G01 X-25.68696 Y150.24035
G01 X-25.70560 Y150.22356
G01 X-25.83245 Y150.13141
G01 X-25.85417 Y150.11886
G01 X-25.99742 Y150.05509
G01 X-26.02127 Y150.04734
G01 X-26.17464 Y150.01475
G01 X-26.19958 Y150.01211
G01 X-26.35638 Y150.01211
G01 X-26.38135 Y150.01475
G01 X-26.53471 Y150.04734
G01 X-26.55856 Y150.05509
G01 X-26.60144 Y150.07419
G01 X-31.27999 Y145.39566
G01 X-31.27999 Y144.24926
G01 X-31.22388 Y144.15207
G01 X-31.21367 Y144.12916
G01 X-31.15553 Y143.95022
G01 X-31.15032 Y143.92568
G01 X-31.13064 Y143.73856
G01 X-31.13064 Y143.71347
G01 X-31.15032 Y143.52635
G01 X-31.15553 Y143.50181
G01 X-31.21367 Y143.32287
G01 X-31.22388 Y143.29996
G01 X-31.31794 Y143.13701
G01 X-31.33269 Y143.11672
G01 X-31.45860 Y142.97689
G01 X-31.47725 Y142.96010
G01 X-31.62944 Y142.84951
G01 X-31.65118 Y142.83696
G01 X-31.82307 Y142.76043
G01 X-31.84692 Y142.75269
G01 X-32.03097 Y142.71357
G01 X-32.05591 Y142.71095
G01 X-32.24407 Y142.71095
G01 X-32.26901 Y142.71357
G01 X-32.45306 Y142.75269
G01 X-32.47691 Y142.76043
G01 X-32.64880 Y142.83696
G01 X-32.67051 Y142.84951
G01 X-32.82273 Y142.96010
G01 X-32.84138 Y142.97689
G01 X-32.96729 Y143.11672
G01 X-32.98202 Y143.13701
G01 X-33.07610 Y143.29996
G01 X-33.08631 Y143.32287
G01 X-33.14445 Y143.50181
G01 X-33.14966 Y143.52635
G01 X-33.16932 Y143.71347
G01 X-33.16932 Y143.73856
G01 X-33.14966 Y143.92568
G01 X-33.14445 Y143.95022
G01 X-33.08631 Y144.12916
G01 X-33.07610 Y144.15207
G01 X-33.01997 Y144.24928
G01 X-33.01997 Y145.75601
G01 X-33.01941 Y145.76779
G01 X-33.00498 Y145.91410
G01 X-33.00041 Y145.93716
G01 X-32.95771 Y146.07788
G01 X-32.94872 Y146.09959
G01 X-32.87940 Y146.22926
G01 X-32.86635 Y146.24882
G01 X-32.77308 Y146.36248
G01 X-32.76515 Y146.37120
G01 X-27.14799 Y151.98838
G01 X-27.14797 Y152.37814
G01 X-27.14799 Y155.87801
G01 X-27.14799 Y157.37801
G01 X-27.14733 Y157.39055
G01 X-27.13095 Y157.54649
G01 X-27.12572 Y157.57102
G01 X-27.07728 Y157.72015
G01 X-27.06707 Y157.74306
G01 X-26.98868 Y157.87884
G01 X-26.97393 Y157.89914
G01 X-26.86903 Y158.01567
G01 X-26.85038 Y158.03246
G01 X-26.72353 Y158.12461
G01 X-26.70179 Y158.13716
G01 X-26.55856 Y158.20094
G01 X-26.53471 Y158.20869
G01 X-26.38135 Y158.24128
G01 X-26.35638 Y158.24389
G01 X-26.19958 Y158.24389
G01 X-26.17464 Y158.24128
G01 X-26.02127 Y158.20869
G01 X-25.99742 Y158.20094
G01 X-25.85417 Y158.13716
G01 X-25.83245 Y158.12461
G01 X-25.70560 Y158.03246
G01 X-25.68696 Y158.01567
G01 X-25.58206 Y157.89914
G01 X-25.56730 Y157.87884
G01 X-25.48892 Y157.74306
G01 X-25.47871 Y157.72015
G01 X-25.43024 Y157.57102
G01 X-25.42504 Y157.54649
G01 X-25.40865 Y157.39055
G01 X-25.40799 Y157.37801
G01 X-25.40799 Y150.87802
G04 P0 ( dwell for no time -- G64 should not smooth over this point )
G00 Z5.00000 ( retract )

G00 X-30.40798 Y150.87802 ( rapid move to begin. )
G01 F150.00000
( Mill infeed pass 1/1 )
G01 Z-0.20000
G04 P0 ( dwell for no time -- G64 should not smooth over this point )
G01 F300.00000
G01 X-30.40798 Y150.87802
G01 X-30.40864 Y150.86547
G01 X-30.42503 Y150.70954
G01 X-30.43026 Y150.68501
G01 X-30.47870 Y150.53588
G01 X-30.48891 Y150.51297
G01 X-30.56729 Y150.37718
G01 X-30.58205 Y150.35689
G01 X-30.68695 Y150.24035
G01 X-30.70559 Y150.22356
G01 X-30.83244 Y150.13141
G01 X-30.85418 Y150.11886
G01 X-30.99741 Y150.05509
G01 X-31.02126 Y150.04734
G01 X-31.17463 Y150.01475
G01 X-31.19960 Y150.01211
G01 X-31.35639 Y150.01211
G01 X-31.38134 Y150.01475
G01 X-31.53470 Y150.04734
G01 X-31.55855 Y150.05509
G01 X-31.60143 Y150.07419
G01 X-35.40980 Y146.26584
G01 X-35.41851 Y146.25791
G01 X-35.53218 Y146.16464
G01 X-35.55174 Y146.15159
G01 X-35.68140 Y146.08227
G01 X-35.70312 Y146.07328
G01 X-35.84384 Y146.03058
G01 X-35.86690 Y146.02601
G01 X-36.01320 Y146.01158
G01 X-36.02499 Y146.01102
G01 X-42.83861 Y146.01102
G01 X-45.38517 Y143.46447
G01 X-45.43767 Y143.30288
G01 X-45.44788 Y143.27994
G01 X-45.54194 Y143.11700
G01 X-45.55669 Y143.09670
G01 X-45.68260 Y142.95688
G01 X-45.70125 Y142.94009
G01 X-45.85344 Y142.82950
G01 X-45.87518 Y142.81697
G01 X-46.04707 Y142.74044
G01 X-46.07092 Y142.73267
G01 X-46.25497 Y142.69356
G01 X-46.27991 Y142.69094
G01 X-46.46807 Y142.69094
G01 X-46.49301 Y142.69356
G01 X-46.67706 Y142.73267
G01 X-46.70091 Y142.74044
G01 X-46.87280 Y142.81697
G01 X-46.89451 Y142.82950
G01 X-47.04673 Y142.94009
G01 X-47.06538 Y142.95688
G01 X-47.19129 Y143.09670
G01 X-47.20602 Y143.11700
G01 X-47.30010 Y143.27994
G01 X-47.31031 Y143.30288
G01 X-47.36845 Y143.48182
G01 X-47.37366 Y143.50636
G01 X-47.39332 Y143.69348
G01 X-47.39332 Y143.71855
G01 X-47.37366 Y143.90567
G01 X-47.36845 Y143.93021
G01 X-47.31031 Y144.10915
G01 X-47.30010 Y144.13209
G01 X-47.20602 Y144.29503
G01 X-47.19129 Y144.31532
G01 X-47.06538 Y144.45515
G01 X-47.04673 Y144.47194
G01 X-46.89451 Y144.58253
G01 X-46.87280 Y144.59505
G01 X-46.70091 Y144.67158
G01 X-46.67706 Y144.67935
G01 X-46.61859 Y144.69177
G01 X-43.81413 Y147.49619
G01 X-43.80542 Y147.50411
G01 X-43.69178 Y147.59738
G01 X-43.67222 Y147.61044
G01 X-43.54252 Y147.67975
G01 X-43.52083 Y147.68875
G01 X-43.38012 Y147.73144
G01 X-43.35705 Y147.73601
G01 X-43.21075 Y147.75044
G01 X-43.19899 Y147.75100
G01 X-36.38534 Y147.75100
G01 X-32.14798 Y151.98838
G01 X-32.14798 Y152.37802
G01 X-32.14796 Y152.37835
G01 X-32.14798 Y155.87801
G01 X-32.14798 Y157.37801
G01 X-32.14732 Y157.39055
G01 X-32.13094 Y157.54649
G01 X-32.12573 Y157.57102
G01 X-32.07727 Y157.72015
G01 X-32.06706 Y157.74306
G01 X-31.98867 Y157.87884
G01 X-31.97392 Y157.89914
G01 X-31.86902 Y158.01567
G01 X-31.85037 Y158.03246
G01 X-31.72352 Y158.12461
G01 X-31.70181 Y158.13716
G01 X-31.55855 Y158.20094
G01 X-31.53470 Y158.20869
G01 X-31.38134 Y158.24128
G01 X-31.35639 Y158.24389
G01 X-31.19960 Y158.24389
G01 X-31.17463 Y158.24128
G01 X-31.02126 Y158.20869
G01 X-30.99741 Y158.20094
G01 X-30.85418 Y158.13716
G01 X-30.83244 Y158.12461
G01 X-30.70559 Y158.03246
G01 X-30.68695 Y158.01567
G01 X-30.58205 Y157.89914
G01 X-30.56729 Y157.87884
G01 X-30.48891 Y157.74306
G01 X-30.47870 Y157.72015
G01 X-30.43026 Y157.57102
G01 X-30.42503 Y157.54649
G01 X-30.40864 Y157.39055
G01 X-30.40798 Y157.37801
G01 X-30.40798 Y150.87802
G04 P0 ( dwell for no time -- G64 should not smooth over this point )
G00 Z5.00000 ( retract )

G00 X-57.27199 Y151.64350 ( rapid move to begin. )
G01 F150.00000
( Mill infeed pass 1/1 )
G01 Z-0.20000
G04 P0 ( dwell for no time -- G64 should not smooth over this point )
G01 F300.00000
G01 X-57.27199 Y151.64350
G01 X-57.27430 Y151.62011
G01 X-57.28113 Y151.59760
G01 X-57.29221 Y151.57685
G01 X-57.30714 Y151.55866
G01 X-57.32533 Y151.54373
G01 X-57.34605 Y151.53265
G01 X-57.36858 Y151.52582
G01 X-57.39198 Y151.52351
G01 X-58.23411 Y151.52351
G01 X-59.00681 Y150.75084
G01 X-59.01552 Y150.74292
G01 X-59.12918 Y150.64965
G01 X-59.14874 Y150.63659
G01 X-59.27841 Y150.56728
G01 X-59.30013 Y150.55828
G01 X-59.44084 Y150.51559
G01 X-59.46391 Y150.51102
G01 X-59.61021 Y150.49659
G01 X-59.62200 Y150.49603
G01 X-66.15800 Y150.49603
G01 X-66.15800 Y144.85705
G01 X-66.14314 Y144.84486
G01 X-66.12820 Y144.82667
G01 X-66.11713 Y144.80595
G01 X-66.11030 Y144.78342
G01 X-66.10799 Y144.76002
G01 X-66.10799 Y144.59685
G01 X-66.10374 Y144.59170
G01 X-66.09069 Y144.57214
G01 X-65.99828 Y144.39927
G01 X-65.98927 Y144.37753
G01 X-65.93237 Y144.18995
G01 X-65.92777 Y144.16686
G01 X-65.90857 Y143.97179
G01 X-65.90857 Y143.94824
G01 X-65.92777 Y143.75317
G01 X-65.93237 Y143.73008
G01 X-65.98927 Y143.54250
G01 X-65.99828 Y143.52076
G01 X-66.09069 Y143.34789
G01 X-66.10374 Y143.32833
G01 X-66.10799 Y143.32317
G01 X-66.10799 Y143.16000
G01 X-66.11030 Y143.13661
G01 X-66.11713 Y143.11408
G01 X-66.12820 Y143.09335
G01 X-66.14314 Y143.07517
G01 X-66.16133 Y143.06023
G01 X-66.18205 Y143.04916
G01 X-66.20458 Y143.04232
G01 X-66.22798 Y143.04001
G01 X-66.36407 Y143.04001
G01 X-66.49003 Y142.91405
G01 X-66.49877 Y142.90615
G01 X-66.65030 Y142.78177
G01 X-66.66986 Y142.76871
G01 X-66.84273 Y142.67631
G01 X-66.86447 Y142.66729
G01 X-67.05205 Y142.61040
G01 X-67.07514 Y142.60580
G01 X-67.27021 Y142.58660
G01 X-67.28200 Y142.58601
G01 X-73.88262 Y142.58601
G01 X-74.06982 Y142.50268
G01 X-74.09367 Y142.49493
G01 X-74.32882 Y142.44494
G01 X-74.35379 Y142.44232
G01 X-74.59420 Y142.44232
G01 X-74.61915 Y142.44494
G01 X-74.85430 Y142.49493
G01 X-74.87817 Y142.50268
G01 X-75.09778 Y142.60046
G01 X-75.11953 Y142.61301
G01 X-75.31401 Y142.75431
G01 X-75.33266 Y142.77110
G01 X-75.49354 Y142.94977
G01 X-75.50827 Y142.97006
G01 X-75.62849 Y143.17826
G01 X-75.63870 Y143.20118
G01 X-75.71297 Y143.42983
G01 X-75.71820 Y143.45436
G01 X-75.74332 Y143.69348
G01 X-75.74332 Y143.71855
G01 X-75.71820 Y143.95766
G01 X-75.71297 Y143.98220
G01 X-75.63870 Y144.21085
G01 X-75.62849 Y144.23376
G01 X-75.50827 Y144.44197
G01 X-75.49354 Y144.46226
G01 X-75.33266 Y144.64092
G01 X-75.31401 Y144.65771
G01 X-75.11953 Y144.79901
G01 X-75.09778 Y144.81156
G01 X-74.87817 Y144.90935
G01 X-74.85430 Y144.91710
G01 X-74.61915 Y144.96708
G01 X-74.59420 Y144.96970
G01 X-74.35379 Y144.96970
G01 X-74.32882 Y144.96708
G01 X-74.09367 Y144.91710
G01 X-74.06982 Y144.90935
G01 X-73.88262 Y144.82601
G01 X-67.92813 Y144.82601
G01 X-67.92777 Y144.82667
G01 X-67.91283 Y144.84486
G01 X-67.89798 Y144.85705
G01 X-67.89798 Y151.08059
G01 X-67.92462 Y151.16260
G01 X-67.92985 Y151.18714
G01 X-67.94733 Y151.35346
G01 X-67.94733 Y151.37855
G01 X-67.92985 Y151.54490
G01 X-67.92462 Y151.56943
G01 X-67.87296 Y151.72849
G01 X-67.86275 Y151.75140
G01 X-67.77913 Y151.89623
G01 X-67.76437 Y151.91652
G01 X-67.65246 Y152.04083
G01 X-67.63382 Y152.05762
G01 X-67.49851 Y152.15592
G01 X-67.47679 Y152.16847
G01 X-67.32401 Y152.23649
G01 X-67.30016 Y152.24424
G01 X-67.13656 Y152.27901
G01 X-67.11162 Y152.28162
G01 X-66.94436 Y152.28162
G01 X-66.91941 Y152.27901
G01 X-66.75581 Y152.24424
G01 X-66.73196 Y152.23649
G01 X-66.73092 Y152.23601
G01 X-59.98234 Y152.23601
G01 X-59.51199 Y152.70639
G01 X-59.51199 Y153.54850
G01 X-59.50968 Y153.57192
G01 X-59.50284 Y153.59442
G01 X-59.49177 Y153.61517
G01 X-59.47683 Y153.63336
G01 X-59.45865 Y153.64830
G01 X-59.43792 Y153.65937
G01 X-59.41539 Y153.66620
G01 X-59.39200 Y153.66851
G01 X-57.39198 Y153.66851
G01 X-57.36858 Y153.66620
G01 X-57.34605 Y153.65937
G01 X-57.32533 Y153.64830
G01 X-57.30714 Y153.63336
G01 X-57.29221 Y153.61517
G01 X-57.28113 Y153.59442
G01 X-57.27430 Y153.57192
G01 X-57.27199 Y153.54850
G01 X-57.27199 Y151.64350
G04 P0 ( dwell for no time -- G64 should not smooth over this point )
G00 Z5.00000 ( retract )

G00 X-84.12395 Y153.38223 ( rapid move to begin. )
G01 F150.00000
( Mill infeed pass 1/1 )
G01 Z-0.20000
G04 P0 ( dwell for no time -- G64 should not smooth over this point )
G01 F300.00000
G01 X-84.12395 Y153.38223
G01 X-84.12398 Y155.38202
G01 X-84.12398 Y156.01205
G01 X-87.38399 Y156.01205
G01 X-87.38399 Y152.75203
G01 X-84.12398 Y152.75203
G01 X-84.12395 Y153.38223
G04 P0 ( dwell for no time -- G64 should not smooth over this point )
G00 Z5.00000 ( retract )

G00 X-94.12396 Y152.75218 ( rapid move to begin. )
G01 F150.00000
( Mill infeed pass 1/1 )
G01 Z-0.20000
G04 P0 ( dwell for no time -- G64 should not smooth over this point )
G01 F300.00000
G01 X-94.12396 Y152.75218
G01 X-97.38400 Y152.75203
G01 X-97.38400 Y156.01205
G01 X-94.12398 Y156.01205
G01 X-94.12396 Y152.75218
G04 P0 ( dwell for no time -- G64 should not smooth over this point )
G00 Z5.00000 ( retract )

G00 X-85.59398 Y140.50801 ( rapid move to begin. )
G01 F150.00000
( Mill infeed pass 1/1 )
G01 Z-0.20000
G04 P0 ( dwell for no time -- G64 should not smooth over this point )
G01 F300.00000
G01 X-85.59398 Y140.50801
G01 X-87.06997 Y140.50801
G01 X-87.06997 Y142.66803
G01 X-85.59398 Y142.66803
G01 X-85.59398 Y140.50801
G04 P0 ( dwell for no time -- G64 should not smooth over this point )
G00 Z5.00000 ( retract )

G00 X-83.20465 Y139.37548 ( rapid move to begin. )
G01 F150.00000
( Mill infeed pass 1/1 )
G01 Z-0.20000
G04 P0 ( dwell for no time -- G64 should not smooth over this point )
G01 F300.00000
G01 X-83.20465 Y139.37548
G01 X-83.22977 Y139.13636
G01 X-83.23500 Y139.11183
G01 X-83.30927 Y138.88317
G01 X-83.31948 Y138.86026
G01 X-83.43970 Y138.65206
G01 X-83.45443 Y138.63177
G01 X-83.61532 Y138.45310
G01 X-83.63396 Y138.43631
G01 X-83.82845 Y138.29501
G01 X-83.85019 Y138.28247
G01 X-84.06980 Y138.18467
G01 X-84.09368 Y138.17693
G01 X-84.32883 Y138.12694
G01 X-84.35377 Y138.12432
G01 X-84.59418 Y138.12432
G01 X-84.61915 Y138.12694
G01 X-84.85430 Y138.17693
G01 X-84.87815 Y138.18467
G01 X-85.06535 Y138.26801
G01 X-88.18998 Y138.26801
G01 X-88.20174 Y138.26860
G01 X-88.39682 Y138.28780
G01 X-88.41991 Y138.29240
G01 X-88.60748 Y138.34929
G01 X-88.62923 Y138.35831
G01 X-88.80210 Y138.45071
G01 X-88.82166 Y138.46377
G01 X-88.97319 Y138.58815
G01 X-88.98983 Y138.60479
G01 X-89.11421 Y138.75633
G01 X-89.12727 Y138.77589
G01 X-89.21968 Y138.94876
G01 X-89.22869 Y138.97050
G01 X-89.28559 Y139.15808
G01 X-89.29019 Y139.18117
G01 X-89.30939 Y139.37624
G01 X-89.30997 Y139.38800
G01 X-89.30997 Y143.78802
G01 X-89.30939 Y143.79980
G01 X-89.29019 Y143.99487
G01 X-89.28559 Y144.01796
G01 X-89.22869 Y144.20554
G01 X-89.21968 Y144.22728
G01 X-89.12727 Y144.40016
G01 X-89.11421 Y144.41971
G01 X-88.98983 Y144.57125
G01 X-88.97319 Y144.58789
G01 X-88.82166 Y144.71227
G01 X-88.80210 Y144.72533
G01 X-88.62923 Y144.81773
G01 X-88.60748 Y144.82675
G01 X-88.41991 Y144.88365
G01 X-88.39682 Y144.88824
G01 X-88.20174 Y144.90745
G01 X-88.18998 Y144.90803
G01 X-84.88113 Y144.90803
G01 X-84.87815 Y144.90935
G01 X-84.85430 Y144.91710
G01 X-84.61915 Y144.96708
G01 X-84.59418 Y144.96970
G01 X-84.35377 Y144.96970
G01 X-84.32883 Y144.96708
G01 X-84.09368 Y144.91710
G01 X-84.06980 Y144.90935
G01 X-83.85019 Y144.81156
G01 X-83.82845 Y144.79901
G01 X-83.63396 Y144.65771
G01 X-83.61532 Y144.64092
G01 X-83.45443 Y144.46226
G01 X-83.43970 Y144.44197
G01 X-83.31948 Y144.23376
G01 X-83.30927 Y144.21085
G01 X-83.23500 Y143.98220
G01 X-83.22977 Y143.95766
G01 X-83.20465 Y143.71855
G01 X-83.20465 Y143.69348
G01 X-83.22977 Y143.45436
G01 X-83.23500 Y143.42983
G01 X-83.30927 Y143.20118
G01 X-83.31948 Y143.17826
G01 X-83.35398 Y143.11852
G01 X-83.35398 Y139.97550
G01 X-83.31948 Y139.91576
G01 X-83.30927 Y139.89285
G01 X-83.23500 Y139.66420
G01 X-83.22977 Y139.63966
G01 X-83.20465 Y139.40055
G01 X-83.20465 Y139.37548
G04 P0 ( dwell for no time -- G64 should not smooth over this point )
G00 Z5.00000 ( retract )

G00 X-82.85797 Y118.30600 ( rapid move to begin. )
G01 F150.00000
( Mill infeed pass 1/1 )
G01 Z-0.20000
G04 P0 ( dwell for no time -- G64 should not smooth over this point )
G01 F300.00000
G01 X-82.85797 Y118.30600
G01 X-82.85855 Y118.29424
G01 X-82.89218 Y117.95284
G01 X-82.89678 Y117.92978
G01 X-82.99634 Y117.60148
G01 X-83.00536 Y117.57974
G01 X-83.16708 Y117.27720
G01 X-83.18014 Y117.25764
G01 X-83.39777 Y116.99244
G01 X-83.41440 Y116.97580
G01 X-83.67960 Y116.75817
G01 X-83.69916 Y116.74512
G01 X-84.00170 Y116.58340
G01 X-84.02344 Y116.57438
G01 X-84.35174 Y116.47481
G01 X-84.37480 Y116.47022
G01 X-84.71620 Y116.43659
G01 X-84.72799 Y116.43600
G01 X-85.72999 Y116.43600
G01 X-85.74175 Y116.43659
G01 X-86.08316 Y116.47022
G01 X-86.10622 Y116.47481
G01 X-86.43451 Y116.57438
G01 X-86.45626 Y116.58340
G01 X-86.75880 Y116.74512
G01 X-86.77835 Y116.75817
G01 X-87.04356 Y116.97580
G01 X-87.05227 Y116.98373
G01 X-89.63456 Y119.56602
G01 X-97.60998 Y119.56602
G01 X-97.62174 Y119.56660
G01 X-97.75489 Y119.57971
G01 X-97.87130 Y119.57971
G01 X-97.89626 Y119.58232
G01 X-97.99532 Y119.60338
G01 X-98.10945 Y119.61463
G01 X-98.13254 Y119.61923
G01 X-98.27937 Y119.66376
G01 X-98.40749 Y119.69099
G01 X-98.43134 Y119.69876
G01 X-98.50967 Y119.73363
G01 X-98.60152 Y119.76147
G01 X-98.62324 Y119.77049
G01 X-98.77673 Y119.85253
G01 X-98.90878 Y119.91133
G01 X-98.93053 Y119.92388
G01 X-98.98709 Y119.96495
G01 X-99.05547 Y120.00150
G01 X-99.07503 Y120.01458
G01 X-99.22664 Y120.13902
G01 X-99.35334 Y120.23107
G01 X-99.37198 Y120.24786
G01 X-99.40800 Y120.28786
G01 X-99.45387 Y120.32548
G01 X-99.47051 Y120.34211
G01 X-99.61079 Y120.51306
G01 X-99.72171 Y120.63625
G01 X-99.73644 Y120.65654
G01 X-99.75521 Y120.68905
G01 X-99.78140 Y120.72096
G01 X-99.79448 Y120.74051
G01 X-99.91348 Y120.96317
G01 X-99.99778 Y121.10917
G01 X-100.00797 Y121.13208
G01 X-100.01450 Y121.15217
G01 X-100.02550 Y121.17275
G01 X-100.03451 Y121.19446
G01 X-100.12242 Y121.48430
G01 X-100.16949 Y121.62916
G01 X-100.17470 Y121.65369
G01 X-100.17518 Y121.65822
G01 X-100.17675 Y121.66345
G01 X-100.18135 Y121.68654
G01 X-100.22908 Y122.17094
G01 X-100.22933 Y122.17348
G01 X-100.22933 Y122.19855
G01 X-100.22908 Y122.20101
G01 X-100.18135 Y122.68549
G01 X-100.17675 Y122.70858
G01 X-100.17518 Y122.71381
G01 X-100.17470 Y122.71834
G01 X-100.16949 Y122.74287
G01 X-100.12245 Y122.88765
G01 X-100.03451 Y123.17757
G01 X-100.02550 Y123.19928
G01 X-100.01450 Y123.21988
G01 X-100.00797 Y123.23992
G01 X-99.99778 Y123.26286
G01 X-99.91353 Y123.40878
G01 X-99.79448 Y123.63152
G01 X-99.78140 Y123.65107
G01 X-99.75521 Y123.68298
G01 X-99.73644 Y123.71546
G01 X-99.72171 Y123.73578
G01 X-99.61082 Y123.85892
G01 X-99.47051 Y124.02992
G01 X-99.45387 Y124.04655
G01 X-99.40800 Y124.08420
G01 X-99.37198 Y124.12417
G01 X-99.35334 Y124.14096
G01 X-99.22669 Y124.23299
G01 X-99.07503 Y124.35745
G01 X-99.05547 Y124.37053
G01 X-98.98707 Y124.40708
G01 X-98.93053 Y124.44815
G01 X-98.90878 Y124.46070
G01 X-98.77678 Y124.51948
G01 X-98.62324 Y124.60154
G01 X-98.60152 Y124.61056
G01 X-98.50965 Y124.63842
G01 X-98.43134 Y124.67327
G01 X-98.40749 Y124.68104
G01 X-98.27942 Y124.70825
G01 X-98.13254 Y124.75280
G01 X-98.10945 Y124.75740
G01 X-97.99530 Y124.76865
G01 X-97.89626 Y124.78971
G01 X-97.87130 Y124.79232
G01 X-97.75494 Y124.79232
G01 X-97.62174 Y124.80543
G01 X-97.60998 Y124.80601
G01 X-89.63456 Y124.80601
G01 X-87.31226 Y127.12831
G01 X-87.30355 Y127.13623
G01 X-87.03835 Y127.35386
G01 X-87.01879 Y127.36694
G01 X-86.71625 Y127.52864
G01 X-86.69451 Y127.53766
G01 X-86.36621 Y127.63722
G01 X-86.34315 Y127.64182
G01 X-86.00175 Y127.67545
G01 X-85.97820 Y127.67545
G01 X-85.63680 Y127.64182
G01 X-85.61374 Y127.63722
G01 X-85.35898 Y127.55996
G01 X-85.10421 Y127.63722
G01 X-85.08115 Y127.64182
G01 X-84.73975 Y127.67545
G01 X-84.71620 Y127.67545
G01 X-84.37480 Y127.64182
G01 X-84.35174 Y127.63722
G01 X-84.02344 Y127.53766
G01 X-84.00170 Y127.52864
G01 X-83.69916 Y127.36694
G01 X-83.67960 Y127.35386
G01 X-83.41440 Y127.13623
G01 X-83.39777 Y127.11960
G01 X-83.18014 Y126.85442
G01 X-83.16708 Y126.83484
G01 X-83.00536 Y126.53230
G01 X-82.99634 Y126.51056
G01 X-82.89678 Y126.18229
G01 X-82.89218 Y126.15920
G01 X-82.85855 Y125.81780
G01 X-82.85797 Y125.80601
G01 X-82.85797 Y118.30600
G04 P0 ( dwell for no time -- G64 should not smooth over this point )
G00 Z5.00000 ( retract )

G00 X-73.52799 Y117.80600 ( rapid move to begin. )
G01 F150.00000
( Mill infeed pass 1/1 )
G01 Z-0.20000
G04 P0 ( dwell for no time -- G64 should not smooth over this point )
G01 F300.00000
G01 X-73.52799 Y117.80600
G01 X-73.52865 Y117.79348
G01 X-73.55049 Y117.58555
G01 X-73.55572 Y117.56102
G01 X-73.62032 Y117.36219
G01 X-73.63053 Y117.33928
G01 X-73.73505 Y117.15822
G01 X-73.74981 Y117.13793
G01 X-73.88968 Y116.98258
G01 X-73.90833 Y116.96579
G01 X-74.07747 Y116.84291
G01 X-74.09918 Y116.83036
G01 X-74.29016 Y116.74532
G01 X-74.31402 Y116.73758
G01 X-74.51851 Y116.69412
G01 X-74.54345 Y116.69150
G01 X-74.75252 Y116.69150
G01 X-74.77746 Y116.69412
G01 X-74.98196 Y116.73758
G01 X-75.00581 Y116.74532
G01 X-75.19679 Y116.83036
G01 X-75.21851 Y116.84291
G01 X-75.38765 Y116.96579
G01 X-75.40629 Y116.98258
G01 X-75.54617 Y117.13793
G01 X-75.56093 Y117.15822
G01 X-75.66545 Y117.33928
G01 X-75.67566 Y117.36219
G01 X-75.74025 Y117.56102
G01 X-75.74548 Y117.58555
G01 X-75.76733 Y117.79348
G01 X-75.76799 Y117.80600
G01 X-75.76799 Y118.80602
G01 X-75.76733 Y118.81855
G01 X-75.74548 Y119.02647
G01 X-75.74025 Y119.05101
G01 X-75.67566 Y119.24984
G01 X-75.66545 Y119.27275
G01 X-75.56093 Y119.45380
G01 X-75.54617 Y119.47410
G01 X-75.51798 Y119.50541
G01 X-75.51798 Y124.60662
G01 X-75.54617 Y124.63794
G01 X-75.56093 Y124.65824
G01 X-75.66545 Y124.83929
G01 X-75.67566 Y124.86220
G01 X-75.74025 Y125.06105
G01 X-75.74548 Y125.08559
G01 X-75.76733 Y125.29346
G01 X-75.76799 Y125.30601
G01 X-75.76799 Y126.30601
G01 X-75.76733 Y126.31858
G01 X-75.74548 Y126.52646
G01 X-75.74025 Y126.55102
G01 X-75.67566 Y126.74982
G01 X-75.66545 Y126.77276
G01 X-75.56093 Y126.95379
G01 X-75.54617 Y126.97411
G01 X-75.40629 Y127.12945
G01 X-75.38765 Y127.14624
G01 X-75.21851 Y127.26913
G01 X-75.19679 Y127.28167
G01 X-75.00581 Y127.36669
G01 X-74.98196 Y127.37444
G01 X-74.77746 Y127.41795
G01 X-74.75252 Y127.42054
G01 X-74.54345 Y127.42054
G01 X-74.51851 Y127.41795
G01 X-74.31402 Y127.37444
G01 X-74.29016 Y127.36669
G01 X-74.09918 Y127.28167
G01 X-74.07747 Y127.26913
G01 X-73.90833 Y127.14624
G01 X-73.88968 Y127.12945
G01 X-73.74981 Y126.97411
G01 X-73.73505 Y126.95379
G01 X-73.63053 Y126.77276
G01 X-73.62032 Y126.74982
G01 X-73.55572 Y126.55102
G01 X-73.55049 Y126.52646
G01 X-73.52865 Y126.31858
G01 X-73.52799 Y126.30601
G01 X-73.52799 Y125.30601
G01 X-73.52865 Y125.29346
G01 X-73.55049 Y125.08559
G01 X-73.55572 Y125.06105
G01 X-73.62032 Y124.86220
G01 X-73.63053 Y124.83929
G01 X-73.73505 Y124.65824
G01 X-73.74981 Y124.63794
G01 X-73.77800 Y124.60662
G01 X-73.77800 Y119.50541
G01 X-73.74981 Y119.47410
G01 X-73.73505 Y119.45380
G01 X-73.63053 Y119.27275
G01 X-73.62032 Y119.24984
G01 X-73.55572 Y119.05101
G01 X-73.55049 Y119.02647
G01 X-73.52865 Y118.81855
G01 X-73.52799 Y118.80602
G01 X-73.52799 Y117.80600
G04 P0 ( dwell for no time -- G64 should not smooth over this point )
G00 Z5.00000 ( retract )

G00 X-82.89797 Y104.71700 ( rapid move to begin. )
G01 F150.00000
( Mill infeed pass 1/1 )
G01 Z-0.20000
G04 P0 ( dwell for no time -- G64 should not smooth over this point )
G01 F300.00000
G01 X-82.89797 Y104.71700
G01 X-82.89855 Y104.70524
G01 X-82.93218 Y104.36384
G01 X-82.93678 Y104.34078
G01 X-83.03635 Y104.01248
G01 X-83.04537 Y103.99074
G01 X-83.20709 Y103.68820
G01 X-83.22014 Y103.66864
G01 X-83.43777 Y103.40344
G01 X-83.45441 Y103.38680
G01 X-83.71961 Y103.16917
G01 X-83.73917 Y103.15612
G01 X-84.04171 Y102.99440
G01 X-84.06345 Y102.98538
G01 X-84.39174 Y102.88581
G01 X-84.41481 Y102.88122
G01 X-84.75621 Y102.84759
G01 X-84.76799 Y102.84700
G01 X-85.80000 Y102.84700
G01 X-85.81176 Y102.84759
G01 X-86.15316 Y102.88122
G01 X-86.17622 Y102.88581
G01 X-86.50452 Y102.98538
G01 X-86.52626 Y102.99440
G01 X-86.82880 Y103.15612
G01 X-86.84836 Y103.16917
G01 X-87.11356 Y103.38683
G01 X-87.12227 Y103.39473
G01 X-89.67456 Y105.94702
G01 X-97.64999 Y105.94702
G01 X-97.66175 Y105.94760
G01 X-97.79487 Y105.96071
G01 X-97.91130 Y105.96071
G01 X-97.93627 Y105.96333
G01 X-98.03535 Y105.98438
G01 X-98.14945 Y105.99564
G01 X-98.17254 Y106.00023
G01 X-98.31935 Y106.04476
G01 X-98.44747 Y106.07199
G01 X-98.47135 Y106.07974
G01 X-98.54970 Y106.11464
G01 X-98.64153 Y106.14247
G01 X-98.66324 Y106.15149
G01 X-98.81671 Y106.23351
G01 X-98.94879 Y106.29233
G01 X-98.97053 Y106.30486
G01 X-99.02707 Y106.34595
G01 X-99.09547 Y106.38250
G01 X-99.11503 Y106.39558
G01 X-99.26665 Y106.52002
G01 X-99.39334 Y106.61207
G01 X-99.41198 Y106.62886
G01 X-99.44800 Y106.66884
G01 X-99.49387 Y106.70648
G01 X-99.51051 Y106.72312
G01 X-99.65082 Y106.89408
G01 X-99.76172 Y107.01725
G01 X-99.77645 Y107.03754
G01 X-99.79522 Y107.07006
G01 X-99.82141 Y107.10196
G01 X-99.83449 Y107.12152
G01 X-99.95354 Y107.34427
G01 X-100.03776 Y107.49017
G01 X-100.04797 Y107.51308
G01 X-100.05450 Y107.53315
G01 X-100.06550 Y107.55375
G01 X-100.07452 Y107.57547
G01 X-100.16248 Y107.86551
G01 X-100.20949 Y108.01016
G01 X-100.21470 Y108.03470
G01 X-100.21518 Y108.03919
G01 X-100.21676 Y108.04445
G01 X-100.22136 Y108.06754
G01 X-100.26913 Y108.55268
G01 X-100.26934 Y108.55446
G01 X-100.26934 Y108.57955
G01 X-100.26916 Y108.58120
G01 X-100.22136 Y109.06650
G01 X-100.21676 Y109.08958
G01 X-100.21518 Y109.09484
G01 X-100.21470 Y109.09934
G01 X-100.20949 Y109.12387
G01 X-100.16253 Y109.26838
G01 X-100.07452 Y109.55857
G01 X-100.06550 Y109.58029
G01 X-100.05448 Y109.60091
G01 X-100.04797 Y109.62093
G01 X-100.03776 Y109.64386
G01 X-99.95361 Y109.78963
G01 X-99.83449 Y110.01252
G01 X-99.82141 Y110.03208
G01 X-99.79519 Y110.06400
G01 X-99.77645 Y110.09647
G01 X-99.76172 Y110.11676
G01 X-99.65090 Y110.23982
G01 X-99.51051 Y110.41092
G01 X-99.49387 Y110.42756
G01 X-99.44798 Y110.46522
G01 X-99.41198 Y110.50518
G01 X-99.39334 Y110.52197
G01 X-99.26675 Y110.61394
G01 X-99.11503 Y110.73845
G01 X-99.09547 Y110.75153
G01 X-99.02702 Y110.78811
G01 X-98.97053 Y110.82915
G01 X-98.94879 Y110.84170
G01 X-98.81684 Y110.90045
G01 X-98.66324 Y110.98255
G01 X-98.64153 Y110.99156
G01 X-98.54963 Y111.01943
G01 X-98.47135 Y111.05427
G01 X-98.44747 Y111.06202
G01 X-98.31948 Y111.08925
G01 X-98.17254 Y111.13380
G01 X-98.14945 Y111.13840
G01 X-98.03528 Y111.14965
G01 X-97.93627 Y111.17068
G01 X-97.91130 Y111.17332
G01 X-97.79497 Y111.17332
G01 X-97.66175 Y111.18643
G01 X-97.64999 Y111.18702
G01 X-89.67456 Y111.18702
G01 X-87.32227 Y113.53931
G01 X-87.31356 Y113.54721
G01 X-87.04836 Y113.76486
G01 X-87.02880 Y113.77792
G01 X-86.72626 Y113.93964
G01 X-86.70452 Y113.94866
G01 X-86.37622 Y114.04822
G01 X-86.35316 Y114.05282
G01 X-86.01176 Y114.08645
G01 X-86.00000 Y114.08703
G01 X-84.76799 Y114.08703
G01 X-84.75621 Y114.08645
G01 X-84.41481 Y114.05282
G01 X-84.39174 Y114.04822
G01 X-84.06345 Y113.94866
G01 X-84.04171 Y113.93964
G01 X-83.73917 Y113.77792
G01 X-83.71961 Y113.76486
G01 X-83.45441 Y113.54723
G01 X-83.43777 Y113.53060
G01 X-83.22014 Y113.26540
G01 X-83.20709 Y113.24584
G01 X-83.04537 Y112.94330
G01 X-83.03635 Y112.92156
G01 X-82.93678 Y112.59326
G01 X-82.93218 Y112.57020
G01 X-82.89855 Y112.22880
G01 X-82.89797 Y112.21701
G01 X-82.89797 Y104.71700
G04 P0 ( dwell for no time -- G64 should not smooth over this point )
G00 Z5.00000 ( retract )

G00 X-73.56799 Y104.21700 ( rapid move to begin. )
G01 F150.00000
( Mill infeed pass 1/1 )
G01 Z-0.20000
G04 P0 ( dwell for no time -- G64 should not smooth over this point )
G01 F300.00000
G01 X-73.56799 Y104.21700
G01 X-73.56865 Y104.20448
G01 X-73.59050 Y103.99655
G01 X-73.59570 Y103.97202
G01 X-73.66032 Y103.77319
G01 X-73.67051 Y103.75028
G01 X-73.77505 Y103.56922
G01 X-73.78978 Y103.54893
G01 X-73.92969 Y103.39358
G01 X-73.94833 Y103.37679
G01 X-74.11744 Y103.25391
G01 X-74.13919 Y103.24136
G01 X-74.33017 Y103.15632
G01 X-74.35402 Y103.14858
G01 X-74.55852 Y103.10512
G01 X-74.58346 Y103.10250
G01 X-74.79253 Y103.10250
G01 X-74.81747 Y103.10512
G01 X-75.02196 Y103.14858
G01 X-75.04581 Y103.15632
G01 X-75.23680 Y103.24136
G01 X-75.25851 Y103.25391
G01 X-75.42765 Y103.37679
G01 X-75.44630 Y103.39358
G01 X-75.58617 Y103.54893
G01 X-75.60093 Y103.56922
G01 X-75.70545 Y103.75028
G01 X-75.71566 Y103.77319
G01 X-75.78026 Y103.97202
G01 X-75.78549 Y103.99655
G01 X-75.80733 Y104.20448
G01 X-75.80799 Y104.21700
G01 X-75.80799 Y105.21702
G01 X-75.80733 Y105.22955
G01 X-75.78549 Y105.43747
G01 X-75.78026 Y105.46201
G01 X-75.71566 Y105.66084
G01 X-75.70545 Y105.68375
G01 X-75.60093 Y105.86480
G01 X-75.58617 Y105.88510
G01 X-75.55795 Y105.91644
G01 X-75.55795 Y111.01760
G01 X-75.58617 Y111.04894
G01 X-75.60093 Y111.06924
G01 X-75.70545 Y111.25029
G01 X-75.71566 Y111.27320
G01 X-75.78026 Y111.47203
G01 X-75.78549 Y111.49656
G01 X-75.80733 Y111.70446
G01 X-75.80799 Y111.71701
G01 X-75.80799 Y112.71701
G01 X-75.80733 Y112.72956
G01 X-75.78549 Y112.93746
G01 X-75.78026 Y112.96202
G01 X-75.71566 Y113.16082
G01 X-75.70545 Y113.18376
G01 X-75.60093 Y113.36479
G01 X-75.58617 Y113.38511
G01 X-75.44630 Y113.54045
G01 X-75.42765 Y113.55724
G01 X-75.25851 Y113.68013
G01 X-75.23680 Y113.69267
G01 X-75.04581 Y113.77769
G01 X-75.02196 Y113.78543
G01 X-74.81747 Y113.82892
G01 X-74.79253 Y113.83154
G01 X-74.58346 Y113.83154
G01 X-74.55852 Y113.82892
G01 X-74.35402 Y113.78543
G01 X-74.33017 Y113.77769
G01 X-74.13919 Y113.69267
G01 X-74.11744 Y113.68013
G01 X-73.94833 Y113.55724
G01 X-73.92969 Y113.54045
G01 X-73.78978 Y113.38511
G01 X-73.77505 Y113.36479
G01 X-73.67051 Y113.18376
G01 X-73.66032 Y113.16082
G01 X-73.59570 Y112.96202
G01 X-73.59050 Y112.93746
G01 X-73.56865 Y112.72956
G01 X-73.56799 Y112.71701
G01 X-73.56799 Y111.71701
G01 X-73.56865 Y111.70446
G01 X-73.59050 Y111.49656
G01 X-73.59570 Y111.47203
G01 X-73.66032 Y111.27320
G01 X-73.67051 Y111.25029
G01 X-73.77505 Y111.06924
G01 X-73.78978 Y111.04894
G01 X-73.81798 Y111.01765
G01 X-73.81798 Y105.91639
G01 X-73.78978 Y105.88510
G01 X-73.77505 Y105.86480
G01 X-73.67051 Y105.68375
G01 X-73.66032 Y105.66084
G01 X-73.59570 Y105.46201
G01 X-73.59050 Y105.43747
G01 X-73.56865 Y105.22955
G01 X-73.56799 Y105.21702
G01 X-73.56799 Y104.21700
G04 P0 ( dwell for no time -- G64 should not smooth over this point )
G00 Z5.00000 ( retract )

G00 X-82.89797 Y91.25500 ( rapid move to begin. )
G01 F150.00000
( Mill infeed pass 1/1 )
G01 Z-0.20000
G04 P0 ( dwell for no time -- G64 should not smooth over this point )
G01 F300.00000
G01 X-82.89797 Y91.25500
G01 X-82.89855 Y91.24324
G01 X-82.93218 Y90.90184
G01 X-82.93678 Y90.87878
G01 X-83.03635 Y90.55048
G01 X-83.04537 Y90.52874
G01 X-83.20709 Y90.22620
G01 X-83.22014 Y90.20664
G01 X-83.43777 Y89.94144
G01 X-83.45441 Y89.92480
G01 X-83.71961 Y89.70717
G01 X-83.73917 Y89.69412
G01 X-84.04171 Y89.53240
G01 X-84.06345 Y89.52338
G01 X-84.39174 Y89.42381
G01 X-84.41481 Y89.41922
G01 X-84.75621 Y89.38559
G01 X-84.76799 Y89.38500
G01 X-85.82999 Y89.38500
G01 X-85.84175 Y89.38559
G01 X-86.18316 Y89.41922
G01 X-86.20622 Y89.42381
G01 X-86.53451 Y89.52338
G01 X-86.55626 Y89.53240
G01 X-86.85880 Y89.69412
G01 X-86.87835 Y89.70717
G01 X-87.14356 Y89.92483
G01 X-87.15227 Y89.93273
G01 X-89.67456 Y92.45502
G01 X-97.64999 Y92.45502
G01 X-97.66175 Y92.45561
G01 X-97.79484 Y92.46871
G01 X-97.91130 Y92.46871
G01 X-97.93627 Y92.47133
G01 X-98.03538 Y92.49239
G01 X-98.14945 Y92.50364
G01 X-98.17254 Y92.50824
G01 X-98.31933 Y92.55276
G01 X-98.44747 Y92.57999
G01 X-98.47135 Y92.58774
G01 X-98.54970 Y92.62264
G01 X-98.64153 Y92.65048
G01 X-98.66324 Y92.65949
G01 X-98.81668 Y92.74151
G01 X-98.94879 Y92.80034
G01 X-98.97053 Y92.81286
G01 X-99.02710 Y92.85398
G01 X-99.09547 Y92.89051
G01 X-99.11503 Y92.90359
G01 X-99.26662 Y93.02800
G01 X-99.39334 Y93.12007
G01 X-99.41198 Y93.13686
G01 X-99.44800 Y93.17687
G01 X-99.49387 Y93.21448
G01 X-99.51051 Y93.23112
G01 X-99.65079 Y93.40206
G01 X-99.76172 Y93.52525
G01 X-99.77645 Y93.54555
G01 X-99.79522 Y93.57806
G01 X-99.82141 Y93.60996
G01 X-99.83449 Y93.62952
G01 X-99.95351 Y93.85223
G01 X-100.03776 Y93.99817
G01 X-100.04797 Y94.02109
G01 X-100.05450 Y94.04115
G01 X-100.06550 Y94.06175
G01 X-100.07452 Y94.08347
G01 X-100.16248 Y94.37346
G01 X-100.20949 Y94.51816
G01 X-100.21470 Y94.54270
G01 X-100.21518 Y94.54720
G01 X-100.21676 Y94.55245
G01 X-100.22136 Y94.57554
G01 X-100.26913 Y95.06063
G01 X-100.26934 Y95.06246
G01 X-100.26934 Y95.08756
G01 X-100.26916 Y95.08918
G01 X-100.22136 Y95.57450
G01 X-100.21676 Y95.59759
G01 X-100.21518 Y95.60285
G01 X-100.21470 Y95.60734
G01 X-100.20949 Y95.63188
G01 X-100.16255 Y95.77635
G01 X-100.07452 Y96.06657
G01 X-100.06550 Y96.08829
G01 X-100.05448 Y96.10891
G01 X-100.04797 Y96.12893
G01 X-100.03776 Y96.15187
G01 X-99.95364 Y96.29761
G01 X-99.83449 Y96.52052
G01 X-99.82141 Y96.54008
G01 X-99.79519 Y96.57201
G01 X-99.77645 Y96.60447
G01 X-99.76172 Y96.62476
G01 X-99.65092 Y96.74780
G01 X-99.51051 Y96.91892
G01 X-99.49387 Y96.93556
G01 X-99.44795 Y96.97323
G01 X-99.41198 Y97.01318
G01 X-99.39334 Y97.02997
G01 X-99.26680 Y97.12192
G01 X-99.11503 Y97.24645
G01 X-99.09547 Y97.25953
G01 X-99.02702 Y97.29611
G01 X-98.97053 Y97.33716
G01 X-98.94879 Y97.34970
G01 X-98.81686 Y97.40845
G01 X-98.66324 Y97.49055
G01 X-98.64153 Y97.49956
G01 X-98.54960 Y97.52743
G01 X-98.47135 Y97.56228
G01 X-98.44747 Y97.57002
G01 X-98.31950 Y97.59723
G01 X-98.17254 Y97.64180
G01 X-98.14945 Y97.64640
G01 X-98.03525 Y97.65765
G01 X-97.93627 Y97.67869
G01 X-97.91130 Y97.68133
G01 X-97.79499 Y97.68133
G01 X-97.66175 Y97.69443
G01 X-97.64999 Y97.69502
G01 X-89.67456 Y97.69502
G01 X-87.29227 Y100.07731
G01 X-87.28356 Y100.08521
G01 X-87.01836 Y100.30286
G01 X-86.99880 Y100.31592
G01 X-86.69626 Y100.47764
G01 X-86.67452 Y100.48666
G01 X-86.34622 Y100.58622
G01 X-86.32316 Y100.59082
G01 X-85.98176 Y100.62445
G01 X-85.97000 Y100.62503
G01 X-84.76799 Y100.62503
G01 X-84.75621 Y100.62445
G01 X-84.41481 Y100.59082
G01 X-84.39174 Y100.58622
G01 X-84.06345 Y100.48666
G01 X-84.04171 Y100.47764
G01 X-83.73917 Y100.31592
G01 X-83.71961 Y100.30286
G01 X-83.45441 Y100.08523
G01 X-83.43777 Y100.06860
G01 X-83.22014 Y99.80340
G01 X-83.20709 Y99.78384
G01 X-83.04537 Y99.48130
G01 X-83.03635 Y99.45956
G01 X-82.93678 Y99.13126
G01 X-82.93218 Y99.10820
G01 X-82.89855 Y98.76680
G01 X-82.89797 Y98.75501
G01 X-82.89797 Y91.25500
G04 P0 ( dwell for no time -- G64 should not smooth over this point )
G00 Z5.00000 ( retract )

G00 X-73.56799 Y90.75500 ( rapid move to begin. )
G01 F150.00000
( Mill infeed pass 1/1 )
G01 Z-0.20000
G04 P0 ( dwell for no time -- G64 should not smooth over this point )
G01 F300.00000
G01 X-73.56799 Y90.75500
G01 X-73.56865 Y90.74248
G01 X-73.59050 Y90.53455
G01 X-73.59570 Y90.51002
G01 X-73.66032 Y90.31119
G01 X-73.67051 Y90.28828
G01 X-73.77505 Y90.10722
G01 X-73.78978 Y90.08693
G01 X-73.92969 Y89.93158
G01 X-73.94833 Y89.91479
G01 X-74.11744 Y89.79191
G01 X-74.13919 Y89.77936
G01 X-74.33017 Y89.69432
G01 X-74.35402 Y89.68658
G01 X-74.55852 Y89.64312
G01 X-74.58346 Y89.64050
G01 X-74.79253 Y89.64050
G01 X-74.81747 Y89.64312
G01 X-75.02196 Y89.68658
G01 X-75.04581 Y89.69432
G01 X-75.23680 Y89.77936
G01 X-75.25851 Y89.79191
G01 X-75.42765 Y89.91479
G01 X-75.44630 Y89.93158
G01 X-75.58617 Y90.08693
G01 X-75.60093 Y90.10722
G01 X-75.70545 Y90.28828
G01 X-75.71566 Y90.31119
G01 X-75.78026 Y90.51002
G01 X-75.78549 Y90.53455
G01 X-75.80733 Y90.74248
G01 X-75.80799 Y90.75500
G01 X-75.80799 Y91.75502
G01 X-75.80733 Y91.76755
G01 X-75.78549 Y91.97547
G01 X-75.78026 Y92.00001
G01 X-75.71566 Y92.19884
G01 X-75.70545 Y92.22175
G01 X-75.60093 Y92.40280
G01 X-75.58617 Y92.42310
G01 X-75.55795 Y92.45444
G01 X-75.55795 Y97.55560
G01 X-75.58617 Y97.58694
G01 X-75.60093 Y97.60724
G01 X-75.70545 Y97.78829
G01 X-75.71566 Y97.81120
G01 X-75.78026 Y98.01003
G01 X-75.78549 Y98.03456
G01 X-75.80733 Y98.24246
G01 X-75.80799 Y98.25501
G01 X-75.80799 Y99.25501
G01 X-75.80733 Y99.26756
G01 X-75.78549 Y99.47546
G01 X-75.78026 Y99.50002
G01 X-75.71566 Y99.69882
G01 X-75.70545 Y99.72176
G01 X-75.60093 Y99.90279
G01 X-75.58617 Y99.92311
G01 X-75.44630 Y100.07845
G01 X-75.42765 Y100.09524
G01 X-75.25851 Y100.21813
G01 X-75.23680 Y100.23067
G01 X-75.04581 Y100.31569
G01 X-75.02196 Y100.32344
G01 X-74.81747 Y100.36692
G01 X-74.79253 Y100.36954
G01 X-74.58346 Y100.36954
G01 X-74.55852 Y100.36692
G01 X-74.35402 Y100.32344
G01 X-74.33017 Y100.31569
G01 X-74.13919 Y100.23067
G01 X-74.11744 Y100.21813
G01 X-73.94833 Y100.09524
G01 X-73.92969 Y100.07845
G01 X-73.78978 Y99.92311
G01 X-73.77505 Y99.90279
G01 X-73.67051 Y99.72176
G01 X-73.66032 Y99.69882
G01 X-73.59570 Y99.50002
G01 X-73.59050 Y99.47546
G01 X-73.56865 Y99.26756
G01 X-73.56799 Y99.25501
G01 X-73.56799 Y98.25501
G01 X-73.56865 Y98.24246
G01 X-73.59050 Y98.03456
G01 X-73.59570 Y98.01003
G01 X-73.66032 Y97.81120
G01 X-73.67051 Y97.78829
G01 X-73.77505 Y97.60724
G01 X-73.78978 Y97.58694
G01 X-73.81798 Y97.55565
G01 X-73.81798 Y92.45439
G01 X-73.78978 Y92.42310
G01 X-73.77505 Y92.40280
G01 X-73.67051 Y92.22175
G01 X-73.66032 Y92.19884
G01 X-73.59570 Y92.00001
G01 X-73.59050 Y91.97547
G01 X-73.56865 Y91.76755
G01 X-73.56799 Y91.75502
G01 X-73.56799 Y90.75500
G04 P0 ( dwell for no time -- G64 should not smooth over this point )
G00 Z5.00000 ( retract )

G00 X-82.89797 Y77.79300 ( rapid move to begin. )
G01 F150.00000
( Mill infeed pass 1/1 )
G01 Z-0.20000
G04 P0 ( dwell for no time -- G64 should not smooth over this point )
G01 F300.00000
G01 X-82.89797 Y77.79300
G01 X-82.89855 Y77.78124
G01 X-82.93218 Y77.43984
G01 X-82.93678 Y77.41678
G01 X-83.03635 Y77.08848
G01 X-83.04537 Y77.06674
G01 X-83.20709 Y76.76420
G01 X-83.22014 Y76.74464
G01 X-83.43777 Y76.47944
G01 X-83.45441 Y76.46280
G01 X-83.71961 Y76.24517
G01 X-83.73917 Y76.23212
G01 X-84.04171 Y76.07040
G01 X-84.06345 Y76.06138
G01 X-84.39174 Y75.96181
G01 X-84.41481 Y75.95721
G01 X-84.75621 Y75.92359
G01 X-84.76799 Y75.92300
G01 X-85.85999 Y75.92300
G01 X-85.87175 Y75.92359
G01 X-86.21315 Y75.95721
G01 X-86.23622 Y75.96181
G01 X-86.56451 Y76.06138
G01 X-86.58625 Y76.07040
G01 X-86.88879 Y76.23212
G01 X-86.90835 Y76.24517
G01 X-87.17355 Y76.46285
G01 X-87.18227 Y76.47073
G01 X-89.67456 Y78.96303
G01 X-97.64999 Y78.96303
G01 X-97.66175 Y78.96361
G01 X-97.79482 Y78.97672
G01 X-97.91130 Y78.97672
G01 X-97.93627 Y78.97933
G01 X-98.03541 Y79.00041
G01 X-98.14945 Y79.01164
G01 X-98.17254 Y79.01624
G01 X-98.31930 Y79.06074
G01 X-98.44747 Y79.08799
G01 X-98.47135 Y79.09574
G01 X-98.54973 Y79.13064
G01 X-98.64153 Y79.15848
G01 X-98.66324 Y79.16750
G01 X-98.81666 Y79.24949
G01 X-98.94879 Y79.30831
G01 X-98.97053 Y79.32086
G01 X-99.02710 Y79.36198
G01 X-99.09547 Y79.39851
G01 X-99.11503 Y79.41159
G01 X-99.26659 Y79.53597
G01 X-99.39334 Y79.62807
G01 X-99.41198 Y79.64486
G01 X-99.44803 Y79.68487
G01 X-99.49387 Y79.72249
G01 X-99.51051 Y79.73912
G01 X-99.65077 Y79.91004
G01 X-99.76172 Y80.03325
G01 X-99.77645 Y80.05355
G01 X-99.79522 Y80.08606
G01 X-99.82141 Y80.11796
G01 X-99.83449 Y80.13752
G01 X-99.95349 Y80.36020
G01 X-100.03776 Y80.50618
G01 X-100.04797 Y80.52909
G01 X-100.05450 Y80.54915
G01 X-100.06550 Y80.56975
G01 X-100.07452 Y80.59147
G01 X-100.16245 Y80.88144
G01 X-100.20949 Y81.02614
G01 X-100.21470 Y81.05070
G01 X-100.21518 Y81.05520
G01 X-100.21676 Y81.06046
G01 X-100.22136 Y81.08354
G01 X-100.26913 Y81.56858
G01 X-100.26934 Y81.57046
G01 X-100.26934 Y81.59556
G01 X-100.26916 Y81.59713
G01 X-100.22136 Y82.08250
G01 X-100.21676 Y82.10559
G01 X-100.21516 Y82.11085
G01 X-100.21470 Y82.11534
G01 X-100.20949 Y82.13988
G01 X-100.16255 Y82.28430
G01 X-100.07452 Y82.57458
G01 X-100.06550 Y82.59629
G01 X-100.05448 Y82.61692
G01 X-100.04797 Y82.63693
G01 X-100.03776 Y82.65984
G01 X-99.95364 Y82.80556
G01 X-99.83449 Y83.02852
G01 X-99.82141 Y83.04808
G01 X-99.79519 Y83.08004
G01 X-99.77645 Y83.11247
G01 X-99.76172 Y83.13277
G01 X-99.65095 Y83.25578
G01 X-99.51051 Y83.42692
G01 X-99.49387 Y83.44356
G01 X-99.44795 Y83.48123
G01 X-99.41198 Y83.52118
G01 X-99.39334 Y83.53795
G01 X-99.26682 Y83.62989
G01 X-99.11503 Y83.75446
G01 X-99.09547 Y83.76754
G01 X-99.02700 Y83.80411
G01 X-98.97053 Y83.84516
G01 X-98.94879 Y83.85771
G01 X-98.81689 Y83.91643
G01 X-98.66324 Y83.99855
G01 X-98.64153 Y84.00757
G01 X-98.54958 Y84.03543
G01 X-98.47135 Y84.07028
G01 X-98.44747 Y84.07803
G01 X-98.31953 Y84.10523
G01 X-98.17254 Y84.14981
G01 X-98.14945 Y84.15440
G01 X-98.03523 Y84.16566
G01 X-97.93627 Y84.18669
G01 X-97.91130 Y84.18933
G01 X-97.79502 Y84.18933
G01 X-97.66175 Y84.20244
G01 X-97.64999 Y84.20302
G01 X-89.67454 Y84.20302
G01 X-87.26225 Y86.61531
G01 X-87.25354 Y86.62323
G01 X-86.98834 Y86.84086
G01 X-86.96878 Y86.85392
G01 X-86.66624 Y87.01564
G01 X-86.64450 Y87.02466
G01 X-86.31620 Y87.12422
G01 X-86.29314 Y87.12882
G01 X-85.95174 Y87.16245
G01 X-85.93998 Y87.16303
G01 X-84.76799 Y87.16303
G01 X-84.75621 Y87.16245
G01 X-84.41481 Y87.12882
G01 X-84.39174 Y87.12422
G01 X-84.06345 Y87.02466
G01 X-84.04171 Y87.01564
G01 X-83.73917 Y86.85392
G01 X-83.71961 Y86.84086
G01 X-83.45441 Y86.62323
G01 X-83.43777 Y86.60660
G01 X-83.22014 Y86.34140
G01 X-83.20709 Y86.32184
G01 X-83.04537 Y86.01930
G01 X-83.03635 Y85.99756
G01 X-82.93678 Y85.66926
G01 X-82.93218 Y85.64620
G01 X-82.89855 Y85.30480
G01 X-82.89797 Y85.29301
G01 X-82.89797 Y77.79300
G04 P0 ( dwell for no time -- G64 should not smooth over this point )
G00 Z5.00000 ( retract )

G00 X-73.56799 Y77.29300 ( rapid move to begin. )
G01 F150.00000
( Mill infeed pass 1/1 )
G01 Z-0.20000
G04 P0 ( dwell for no time -- G64 should not smooth over this point )
G01 F300.00000
G01 X-73.56799 Y77.29300
G01 X-73.56865 Y77.28048
G01 X-73.59050 Y77.07255
G01 X-73.59570 Y77.04802
G01 X-73.66032 Y76.84919
G01 X-73.67051 Y76.82628
G01 X-73.77505 Y76.64525
G01 X-73.78978 Y76.62493
G01 X-73.92969 Y76.46958
G01 X-73.94833 Y76.45279
G01 X-74.11744 Y76.32991
G01 X-74.13919 Y76.31736
G01 X-74.33017 Y76.23232
G01 X-74.35402 Y76.22458
G01 X-74.55852 Y76.18112
G01 X-74.58346 Y76.17850
G01 X-74.79253 Y76.17850
G01 X-74.81747 Y76.18112
G01 X-75.02196 Y76.22458
G01 X-75.04581 Y76.23232
G01 X-75.23680 Y76.31736
G01 X-75.25851 Y76.32991
G01 X-75.42765 Y76.45279
G01 X-75.44630 Y76.46958
G01 X-75.58617 Y76.62493
G01 X-75.60093 Y76.64525
G01 X-75.70545 Y76.82628
G01 X-75.71566 Y76.84919
G01 X-75.78026 Y77.04802
G01 X-75.78549 Y77.07255
G01 X-75.80733 Y77.28048
G01 X-75.80799 Y77.29300
G01 X-75.80799 Y78.29302
G01 X-75.80733 Y78.30555
G01 X-75.78549 Y78.51347
G01 X-75.78026 Y78.53801
G01 X-75.71566 Y78.73684
G01 X-75.70545 Y78.75975
G01 X-75.60093 Y78.94080
G01 X-75.58617 Y78.96110
G01 X-75.55795 Y78.99244
G01 X-75.55795 Y84.09360
G01 X-75.58617 Y84.12494
G01 X-75.60093 Y84.14524
G01 X-75.70545 Y84.32629
G01 X-75.71566 Y84.34920
G01 X-75.78026 Y84.54803
G01 X-75.78549 Y84.57256
G01 X-75.80733 Y84.78046
G01 X-75.80799 Y84.79301
G01 X-75.80799 Y85.79301
G01 X-75.80733 Y85.80556
G01 X-75.78549 Y86.01346
G01 X-75.78026 Y86.03802
G01 X-75.71566 Y86.23682
G01 X-75.70545 Y86.25976
G01 X-75.60093 Y86.44079
G01 X-75.58617 Y86.46111
G01 X-75.44630 Y86.61645
G01 X-75.42765 Y86.63324
G01 X-75.25851 Y86.75613
G01 X-75.23680 Y86.76867
G01 X-75.04581 Y86.85369
G01 X-75.02196 Y86.86144
G01 X-74.81747 Y86.90492
G01 X-74.79253 Y86.90754
G01 X-74.58346 Y86.90754
G01 X-74.55852 Y86.90492
G01 X-74.35402 Y86.86144
G01 X-74.33017 Y86.85369
G01 X-74.13919 Y86.76867
G01 X-74.11744 Y86.75613
G01 X-73.94833 Y86.63324
G01 X-73.92969 Y86.61645
G01 X-73.78978 Y86.46111
G01 X-73.77505 Y86.44079
G01 X-73.67051 Y86.25976
G01 X-73.66032 Y86.23682
G01 X-73.59570 Y86.03802
G01 X-73.59050 Y86.01346
G01 X-73.56865 Y85.80556
G01 X-73.56799 Y85.79301
G01 X-73.56799 Y84.79301
G01 X-73.56865 Y84.78046
G01 X-73.59050 Y84.57256
G01 X-73.59570 Y84.54803
G01 X-73.66032 Y84.34920
G01 X-73.67051 Y84.32629
G01 X-73.77505 Y84.14524
G01 X-73.78978 Y84.12494
G01 X-73.81798 Y84.09365
G01 X-73.81798 Y78.99239
G01 X-73.78978 Y78.96110
G01 X-73.77505 Y78.94080
G01 X-73.67051 Y78.75975
G01 X-73.66032 Y78.73684
G01 X-73.59570 Y78.53801
G01 X-73.59050 Y78.51347
G01 X-73.56865 Y78.30555
G01 X-73.56799 Y78.29302
G01 X-73.56799 Y77.29300
G04 P0 ( dwell for no time -- G64 should not smooth over this point )
G00 Z5.00000 ( retract )

G00 X-82.89797 Y64.33100 ( rapid move to begin. )
G01 F150.00000
( Mill infeed pass 1/1 )
G01 Z-0.20000
G04 P0 ( dwell for no time -- G64 should not smooth over this point )
G01 F300.00000
G01 X-82.89797 Y64.33100
G01 X-82.89797 Y71.83101
G01 X-82.89855 Y71.84280
G01 X-82.93218 Y72.18422
G01 X-82.93678 Y72.20726
G01 X-83.03635 Y72.53558
G01 X-83.04537 Y72.55730
G01 X-83.20709 Y72.85984
G01 X-83.22014 Y72.87940
G01 X-83.43777 Y73.14460
G01 X-83.45441 Y73.16123
G01 X-83.71961 Y73.37889
G01 X-83.73917 Y73.39192
G01 X-84.04171 Y73.55364
G01 X-84.06345 Y73.56266
G01 X-84.39174 Y73.66222
G01 X-84.41481 Y73.66682
G01 X-84.75621 Y73.70045
G01 X-84.76799 Y73.70106
G01 X-85.90998 Y73.70106
G01 X-85.92174 Y73.70045
G01 X-86.26314 Y73.66682
G01 X-86.28620 Y73.66222
G01 X-86.61450 Y73.56266
G01 X-86.63624 Y73.55364
G01 X-86.93878 Y73.39192
G01 X-86.95834 Y73.37889
G01 X-87.22354 Y73.16123
G01 X-87.23225 Y73.15331
G01 X-89.67454 Y70.71102
G01 X-97.64999 Y70.71102
G01 X-97.66175 Y70.71044
G01 X-97.79505 Y70.69731
G01 X-97.91130 Y70.69731
G01 X-97.93627 Y70.69469
G01 X-98.03520 Y70.67366
G01 X-98.14945 Y70.66241
G01 X-98.17254 Y70.65781
G01 X-98.31956 Y70.61323
G01 X-98.44747 Y70.58603
G01 X-98.47135 Y70.57828
G01 X-98.54958 Y70.54346
G01 X-98.64153 Y70.51557
G01 X-98.66324 Y70.50655
G01 X-98.81691 Y70.42441
G01 X-98.94879 Y70.36571
G01 X-98.97053 Y70.35316
G01 X-99.02700 Y70.31214
G01 X-99.09547 Y70.27554
G01 X-99.11503 Y70.26246
G01 X-99.26685 Y70.13787
G01 X-99.39334 Y70.04595
G01 X-99.41198 Y70.02916
G01 X-99.44795 Y69.98926
G01 X-99.49387 Y69.95156
G01 X-99.51051 Y69.93493
G01 X-99.65097 Y69.76376
G01 X-99.76172 Y69.64077
G01 X-99.77645 Y69.62047
G01 X-99.79519 Y69.58804
G01 X-99.82141 Y69.55608
G01 X-99.83449 Y69.53653
G01 X-99.95366 Y69.31354
G01 X-100.03776 Y69.16785
G01 X-100.04797 Y69.14494
G01 X-100.05448 Y69.12492
G01 X-100.06550 Y69.10429
G01 X-100.07452 Y69.08258
G01 X-100.16255 Y68.79228
G01 X-100.20949 Y68.64788
G01 X-100.21470 Y68.62335
G01 X-100.21516 Y68.61885
G01 X-100.21676 Y68.61359
G01 X-100.22136 Y68.59050
G01 X-100.26916 Y68.10508
G01 X-100.26934 Y68.10356
G01 X-100.26934 Y68.07847
G01 X-100.26913 Y68.07656
G01 X-100.22136 Y67.59155
G01 X-100.21676 Y67.56846
G01 X-100.21518 Y67.56320
G01 X-100.21470 Y67.55868
G01 X-100.20949 Y67.53414
G01 X-100.16245 Y67.38939
G01 X-100.07452 Y67.09947
G01 X-100.06550 Y67.07776
G01 X-100.05450 Y67.05716
G01 X-100.04797 Y67.03709
G01 X-100.03776 Y67.01418
G01 X-99.95349 Y66.86818
G01 X-99.83449 Y66.64552
G01 X-99.82141 Y66.62597
G01 X-99.79524 Y66.59409
G01 X-99.77645 Y66.56155
G01 X-99.76172 Y66.54126
G01 X-99.65074 Y66.41802
G01 X-99.51051 Y66.24713
G01 X-99.49387 Y66.23049
G01 X-99.44803 Y66.19287
G01 X-99.41198 Y66.15287
G01 X-99.39334 Y66.13608
G01 X-99.26657 Y66.04395
G01 X-99.11503 Y65.91959
G01 X-99.09547 Y65.90651
G01 X-99.02712 Y65.86999
G01 X-98.97053 Y65.82886
G01 X-98.94879 Y65.81632
G01 X-98.81663 Y65.75749
G01 X-98.66324 Y65.67550
G01 X-98.64153 Y65.66648
G01 X-98.54976 Y65.63867
G01 X-98.47135 Y65.60374
G01 X-98.44747 Y65.59600
G01 X-98.31928 Y65.56874
G01 X-98.17254 Y65.52424
G01 X-98.14945 Y65.51964
G01 X-98.03543 Y65.50842
G01 X-97.93627 Y65.48734
G01 X-97.91130 Y65.48472
G01 X-97.79479 Y65.48472
G01 X-97.66175 Y65.47161
G01 X-97.64999 Y65.47103
G01 X-89.67454 Y65.47103
G01 X-87.21226 Y63.00873
G01 X-87.20355 Y63.00083
G01 X-86.93835 Y62.78317
G01 X-86.91879 Y62.77012
G01 X-86.61625 Y62.60840
G01 X-86.59451 Y62.59938
G01 X-86.26621 Y62.49981
G01 X-86.24315 Y62.49522
G01 X-85.90175 Y62.46159
G01 X-85.88999 Y62.46100
G01 X-84.76799 Y62.46100
G01 X-84.75621 Y62.46159
G01 X-84.41481 Y62.49522
G01 X-84.39174 Y62.49981
G01 X-84.06345 Y62.59938
G01 X-84.04171 Y62.60840
G01 X-83.73917 Y62.77012
G01 X-83.71961 Y62.78317
G01 X-83.45441 Y63.00080
G01 X-83.43777 Y63.01744
G01 X-83.22014 Y63.28264
G01 X-83.20709 Y63.30220
G01 X-83.04537 Y63.60474
G01 X-83.03635 Y63.62648
G01 X-82.93678 Y63.95478
G01 X-82.93218 Y63.97784
G01 X-82.89855 Y64.31924
G01 X-82.89797 Y64.33100
G04 P0 ( dwell for no time -- G64 should not smooth over this point )
G00 Z5.00000 ( retract )

G00 X-73.56799 Y63.83100 ( rapid move to begin. )
G01 F150.00000
( Mill infeed pass 1/1 )
G01 Z-0.20000
G04 P0 ( dwell for no time -- G64 should not smooth over this point )
G01 F300.00000
G01 X-73.56799 Y63.83100
G01 X-73.56799 Y64.83102
G01 X-73.56865 Y64.84355
G01 X-73.59050 Y65.05147
G01 X-73.59570 Y65.07601
G01 X-73.66032 Y65.27484
G01 X-73.67051 Y65.29775
G01 X-73.77505 Y65.47880
G01 X-73.78978 Y65.49910
G01 X-73.81798 Y65.53039
G01 X-73.81798 Y70.63165
G01 X-73.78978 Y70.66294
G01 X-73.77505 Y70.68324
G01 X-73.67051 Y70.86429
G01 X-73.66032 Y70.88720
G01 X-73.59570 Y71.08603
G01 X-73.59050 Y71.11056
G01 X-73.56865 Y71.31846
G01 X-73.56799 Y71.33101
G01 X-73.56799 Y72.33101
G01 X-73.56865 Y72.34356
G01 X-73.59050 Y72.55146
G01 X-73.59570 Y72.57602
G01 X-73.66032 Y72.77482
G01 X-73.67051 Y72.79776
G01 X-73.77505 Y72.97879
G01 X-73.78978 Y72.99913
G01 X-73.92969 Y73.15445
G01 X-73.94833 Y73.17124
G01 X-74.11744 Y73.29415
G01 X-74.13919 Y73.30667
G01 X-74.33017 Y73.39169
G01 X-74.35402 Y73.39943
G01 X-74.55852 Y73.44292
G01 X-74.58346 Y73.44556
G01 X-74.79253 Y73.44556
G01 X-74.81747 Y73.44292
G01 X-75.02196 Y73.39943
G01 X-75.04581 Y73.39169
G01 X-75.23680 Y73.30667
G01 X-75.25851 Y73.29415
G01 X-75.42765 Y73.17124
G01 X-75.44630 Y73.15445
G01 X-75.58617 Y72.99913
G01 X-75.60093 Y72.97879
G01 X-75.70545 Y72.79776
G01 X-75.71566 Y72.77482
G01 X-75.78026 Y72.57602
G01 X-75.78549 Y72.55146
G01 X-75.80733 Y72.34356
G01 X-75.80799 Y72.33101
G01 X-75.80799 Y71.33101
G01 X-75.80733 Y71.31846
G01 X-75.78549 Y71.11056
G01 X-75.78026 Y71.08603
G01 X-75.71566 Y70.88720
G01 X-75.70545 Y70.86429
G01 X-75.60093 Y70.68324
G01 X-75.58617 Y70.66294
G01 X-75.55795 Y70.63160
G01 X-75.55795 Y65.53044
G01 X-75.58617 Y65.49910
G01 X-75.60093 Y65.47880
G01 X-75.70545 Y65.29775
G01 X-75.71566 Y65.27484
G01 X-75.78026 Y65.07601
G01 X-75.78549 Y65.05147
G01 X-75.80733 Y64.84355
G01 X-75.80799 Y64.83102
G01 X-75.80799 Y63.83100
G01 X-75.80733 Y63.81848
G01 X-75.78549 Y63.61055
G01 X-75.78026 Y63.58602
G01 X-75.71566 Y63.38719
G01 X-75.70545 Y63.36428
G01 X-75.60093 Y63.18322
G01 X-75.58617 Y63.16293
G01 X-75.44630 Y63.00758
G01 X-75.42765 Y62.99079
G01 X-75.25851 Y62.86791
G01 X-75.23680 Y62.85536
G01 X-75.04581 Y62.77032
G01 X-75.02196 Y62.76258
G01 X-74.81747 Y62.71912
G01 X-74.79253 Y62.71650
G01 X-74.58346 Y62.71650
G01 X-74.55852 Y62.71912
G01 X-74.35402 Y62.76258
G01 X-74.33017 Y62.77032
G01 X-74.13919 Y62.85536
G01 X-74.11744 Y62.86791
G01 X-73.94833 Y62.99079
G01 X-73.92969 Y63.00758
G01 X-73.78978 Y63.16293
G01 X-73.77505 Y63.18322
G01 X-73.67051 Y63.36428
G01 X-73.66032 Y63.38719
G01 X-73.59570 Y63.58602
G01 X-73.59050 Y63.61055
G01 X-73.56865 Y63.81848
G01 X-73.56799 Y63.83100
G04 P0 ( dwell for no time -- G64 should not smooth over this point )
G00 Z5.00000 ( retract )

G00 X-82.89797 Y50.80202 ( rapid move to begin. )
G01 F150.00000
( Mill infeed pass 1/1 )
G01 Z-0.20000
G04 P0 ( dwell for no time -- G64 should not smooth over this point )
G01 F300.00000
G01 X-82.89797 Y50.80202
G01 X-82.89855 Y50.79026
G01 X-82.93218 Y50.44886
G01 X-82.93678 Y50.42580
G01 X-83.03635 Y50.09750
G01 X-83.04537 Y50.07576
G01 X-83.20709 Y49.77322
G01 X-83.22014 Y49.75366
G01 X-83.43777 Y49.48846
G01 X-83.45441 Y49.47182
G01 X-83.71961 Y49.25420
G01 X-83.73917 Y49.24114
G01 X-84.04171 Y49.07942
G01 X-84.06345 Y49.07040
G01 X-84.39174 Y48.97083
G01 X-84.41481 Y48.96624
G01 X-84.75621 Y48.93261
G01 X-84.77976 Y48.93261
G01 X-85.12116 Y48.96624
G01 X-85.14422 Y48.97083
G01 X-85.47251 Y49.07040
G01 X-85.49426 Y49.07942
G01 X-85.79680 Y49.24114
G01 X-85.81635 Y49.25420
G01 X-86.08156 Y49.47182
G01 X-86.09027 Y49.47975
G01 X-88.70416 Y52.09361
G01 X-88.75033 Y52.07961
G01 X-88.82864 Y52.04474
G01 X-88.85249 Y52.03699
G01 X-88.98053 Y52.00976
G01 X-89.12740 Y51.96524
G01 X-89.15049 Y51.96064
G01 X-89.26461 Y51.94939
G01 X-89.36372 Y51.92833
G01 X-89.38866 Y51.92572
G01 X-89.50512 Y51.92572
G01 X-89.63819 Y51.91261
G01 X-89.64998 Y51.91203
G01 X-97.64999 Y51.91203
G01 X-97.66175 Y51.91261
G01 X-97.79482 Y51.92572
G01 X-97.91130 Y51.92572
G01 X-97.93627 Y51.92833
G01 X-98.03541 Y51.94941
G01 X-98.14945 Y51.96064
G01 X-98.17254 Y51.96524
G01 X-98.31930 Y52.00974
G01 X-98.44747 Y52.03699
G01 X-98.47135 Y52.04474
G01 X-98.54973 Y52.07964
G01 X-98.64153 Y52.10748
G01 X-98.66324 Y52.11650
G01 X-98.81666 Y52.19849
G01 X-98.94879 Y52.25731
G01 X-98.97053 Y52.26986
G01 X-99.02710 Y52.31098
G01 X-99.09547 Y52.34751
G01 X-99.11503 Y52.36059
G01 X-99.26659 Y52.48497
G01 X-99.39334 Y52.57707
G01 X-99.41198 Y52.59386
G01 X-99.44803 Y52.63387
G01 X-99.49387 Y52.67149
G01 X-99.51051 Y52.68812
G01 X-99.65077 Y52.85904
G01 X-99.76172 Y52.98225
G01 X-99.77645 Y53.00255
G01 X-99.79522 Y53.03506
G01 X-99.82141 Y53.06696
G01 X-99.83449 Y53.08652
G01 X-99.95349 Y53.30920
G01 X-100.03776 Y53.45518
G01 X-100.04797 Y53.47809
G01 X-100.05450 Y53.49815
G01 X-100.06550 Y53.51875
G01 X-100.07452 Y53.54047
G01 X-100.16245 Y53.83044
G01 X-100.20949 Y53.97514
G01 X-100.21470 Y53.99970
G01 X-100.21518 Y54.00420
G01 X-100.21676 Y54.00946
G01 X-100.22136 Y54.03254
G01 X-100.26913 Y54.51758
G01 X-100.26934 Y54.51946
G01 X-100.26934 Y54.54456
G01 X-100.26916 Y54.54613
G01 X-100.22136 Y55.03150
G01 X-100.21676 Y55.05459
G01 X-100.21516 Y55.05985
G01 X-100.21470 Y55.06434
G01 X-100.20949 Y55.08888
G01 X-100.16255 Y55.23330
G01 X-100.07452 Y55.52358
G01 X-100.06550 Y55.54529
G01 X-100.05448 Y55.56592
G01 X-100.04797 Y55.58593
G01 X-100.03776 Y55.60884
G01 X-99.95364 Y55.75456
G01 X-99.83449 Y55.97752
G01 X-99.82141 Y55.99708
G01 X-99.79519 Y56.02904
G01 X-99.77645 Y56.06147
G01 X-99.76172 Y56.08177
G01 X-99.65095 Y56.20478
G01 X-99.51051 Y56.37592
G01 X-99.49387 Y56.39256
G01 X-99.44795 Y56.43023
G01 X-99.41198 Y56.47018
G01 X-99.39334 Y56.48695
G01 X-99.26682 Y56.57889
G01 X-99.11503 Y56.70346
G01 X-99.09547 Y56.71654
G01 X-99.02700 Y56.75311
G01 X-98.97053 Y56.79416
G01 X-98.94879 Y56.80671
G01 X-98.81689 Y56.86543
G01 X-98.66324 Y56.94755
G01 X-98.64153 Y56.95657
G01 X-98.54958 Y56.98443
G01 X-98.47135 Y57.01928
G01 X-98.44747 Y57.02703
G01 X-98.31953 Y57.05423
G01 X-98.17254 Y57.09881
G01 X-98.14945 Y57.10340
G01 X-98.03523 Y57.11466
G01 X-97.93627 Y57.13569
G01 X-97.91130 Y57.13833
G01 X-97.79502 Y57.13833
G01 X-97.66175 Y57.15144
G01 X-97.64999 Y57.15202
G01 X-89.64998 Y57.15202
G01 X-89.63819 Y57.15144
G01 X-89.50492 Y57.13833
G01 X-89.38866 Y57.13833
G01 X-89.36372 Y57.13569
G01 X-89.26479 Y57.11466
G01 X-89.15049 Y57.10340
G01 X-89.12740 Y57.09881
G01 X-88.98033 Y57.05420
G01 X-88.85249 Y57.02703
G01 X-88.82864 Y57.01928
G01 X-88.75046 Y56.98448
G01 X-88.73484 Y56.97973
G01 X-86.09027 Y59.62430
G01 X-86.08156 Y59.63223
G01 X-85.81635 Y59.84986
G01 X-85.79680 Y59.86291
G01 X-85.49426 Y60.02463
G01 X-85.47251 Y60.03365
G01 X-85.14422 Y60.13322
G01 X-85.12116 Y60.13782
G01 X-84.77976 Y60.17145
G01 X-84.75621 Y60.17145
G01 X-84.41481 Y60.13782
G01 X-84.39174 Y60.13322
G01 X-84.06345 Y60.03365
G01 X-84.04171 Y60.02463
G01 X-83.73917 Y59.86291
G01 X-83.71961 Y59.84986
G01 X-83.45441 Y59.63223
G01 X-83.43777 Y59.61559
G01 X-83.22014 Y59.35039
G01 X-83.20709 Y59.33083
G01 X-83.04537 Y59.02829
G01 X-83.03635 Y59.00655
G01 X-82.93678 Y58.67826
G01 X-82.93218 Y58.65519
G01 X-82.89855 Y58.31379
G01 X-82.89797 Y58.30201
G01 X-82.89797 Y50.80202
G04 P0 ( dwell for no time -- G64 should not smooth over this point )
G00 Z5.00000 ( retract )

G00 X-73.56799 Y50.30202 ( rapid move to begin. )
G01 F150.00000
( Mill infeed pass 1/1 )
G01 Z-0.20000
G04 P0 ( dwell for no time -- G64 should not smooth over this point )
G01 F300.00000
G01 X-73.56799 Y50.30202
G01 X-73.56865 Y50.28947
G01 X-73.59050 Y50.08155
G01 X-73.59570 Y50.05701
G01 X-73.66032 Y49.85818
G01 X-73.67051 Y49.83527
G01 X-73.77505 Y49.65422
G01 X-73.78978 Y49.63393
G01 X-73.92969 Y49.47858
G01 X-73.94833 Y49.46179
G01 X-74.11744 Y49.33890
G01 X-74.13919 Y49.32636
G01 X-74.33017 Y49.24134
G01 X-74.35402 Y49.23357
G01 X-74.55852 Y49.19011
G01 X-74.58346 Y49.18749
G01 X-74.79253 Y49.18749
G01 X-74.81747 Y49.19011
G01 X-75.02196 Y49.23357
G01 X-75.04581 Y49.24134
G01 X-75.23680 Y49.32636
G01 X-75.25851 Y49.33890
G01 X-75.42765 Y49.46179
G01 X-75.44630 Y49.47858
G01 X-75.58617 Y49.63393
G01 X-75.60093 Y49.65422
G01 X-75.70545 Y49.83527
G01 X-75.71566 Y49.85818
G01 X-75.78026 Y50.05701
G01 X-75.78549 Y50.08155
G01 X-75.80733 Y50.28947
G01 X-75.80799 Y50.30202
G01 X-75.80799 Y51.30202
G01 X-75.80733 Y51.31457
G01 X-75.78549 Y51.52247
G01 X-75.78026 Y51.54700
G01 X-75.71566 Y51.74583
G01 X-75.70545 Y51.76874
G01 X-75.60093 Y51.94980
G01 X-75.58617 Y51.97009
G01 X-75.55795 Y52.00143
G01 X-75.55795 Y57.10259
G01 X-75.58617 Y57.13394
G01 X-75.60093 Y57.15423
G01 X-75.70545 Y57.33528
G01 X-75.71566 Y57.35819
G01 X-75.78026 Y57.55702
G01 X-75.78549 Y57.58156
G01 X-75.80733 Y57.78946
G01 X-75.80799 Y57.80201
G01 X-75.80799 Y58.80200
G01 X-75.80733 Y58.81455
G01 X-75.78549 Y59.02248
G01 X-75.78026 Y59.04701
G01 X-75.71566 Y59.24584
G01 X-75.70545 Y59.26875
G01 X-75.60093 Y59.44981
G01 X-75.58617 Y59.47010
G01 X-75.44630 Y59.62545
G01 X-75.42765 Y59.64224
G01 X-75.25851 Y59.76512
G01 X-75.23680 Y59.77767
G01 X-75.04581 Y59.86268
G01 X-75.02196 Y59.87046
G01 X-74.81747 Y59.91391
G01 X-74.79253 Y59.91653
G01 X-74.58346 Y59.91653
G01 X-74.55852 Y59.91391
G01 X-74.35402 Y59.87046
G01 X-74.33017 Y59.86268
G01 X-74.13919 Y59.77767
G01 X-74.11744 Y59.76512
G01 X-73.94833 Y59.64224
G01 X-73.92969 Y59.62545
G01 X-73.78978 Y59.47010
G01 X-73.77505 Y59.44981
G01 X-73.67051 Y59.26875
G01 X-73.66032 Y59.24584
G01 X-73.59570 Y59.04701
G01 X-73.59050 Y59.02248
G01 X-73.56865 Y58.81455
G01 X-73.56799 Y58.80200
G01 X-73.56799 Y57.80201
G01 X-73.56865 Y57.78946
G01 X-73.59050 Y57.58156
G01 X-73.59570 Y57.55702
G01 X-73.66032 Y57.35819
G01 X-73.67051 Y57.33528
G01 X-73.77505 Y57.15423
G01 X-73.78978 Y57.13394
G01 X-73.81798 Y57.10264
G01 X-73.81798 Y52.00138
G01 X-73.78978 Y51.97009
G01 X-73.77505 Y51.94980
G01 X-73.67051 Y51.76874
G01 X-73.66032 Y51.74583
G01 X-73.59570 Y51.54700
G01 X-73.59050 Y51.52247
G01 X-73.56865 Y51.31457
G01 X-73.56799 Y51.30202
G01 X-73.56799 Y50.30202
G04 P0 ( dwell for no time -- G64 should not smooth over this point )
G00 Z5.00000 ( retract )

G00 X-82.89797 Y37.28000 ( rapid move to begin. )
G01 F150.00000
( Mill infeed pass 1/1 )
G01 Z-0.20000
G04 P0 ( dwell for no time -- G64 should not smooth over this point )
G01 F300.00000
G01 X-82.89797 Y37.28000
G01 X-82.89855 Y37.26824
G01 X-82.93218 Y36.92684
G01 X-82.93678 Y36.90378
G01 X-83.03635 Y36.57548
G01 X-83.04537 Y36.55374
G01 X-83.20709 Y36.25120
G01 X-83.22014 Y36.23164
G01 X-83.43780 Y35.96644
G01 X-83.45441 Y35.94980
G01 X-83.71961 Y35.73217
G01 X-83.73917 Y35.71912
G01 X-84.04173 Y35.55740
G01 X-84.06345 Y35.54838
G01 X-84.39174 Y35.44881
G01 X-84.41481 Y35.44422
G01 X-84.75623 Y35.41059
G01 X-84.77976 Y35.41059
G01 X-85.12116 Y35.44422
G01 X-85.14422 Y35.44881
G01 X-85.47251 Y35.54838
G01 X-85.49426 Y35.55740
G01 X-85.79680 Y35.71912
G01 X-85.81635 Y35.73217
G01 X-86.08156 Y35.94983
G01 X-86.09027 Y35.95773
G01 X-88.49257 Y38.36003
G01 X-97.64999 Y38.36003
G01 X-97.66175 Y38.36062
G01 X-97.79474 Y38.37370
G01 X-97.91130 Y38.37370
G01 X-97.93627 Y38.37634
G01 X-98.03546 Y38.39742
G01 X-98.14945 Y38.40865
G01 X-98.17254 Y38.41325
G01 X-98.31923 Y38.45772
G01 X-98.44747 Y38.48500
G01 X-98.47135 Y38.49275
G01 X-98.54978 Y38.52767
G01 X-98.64153 Y38.55549
G01 X-98.66324 Y38.56450
G01 X-98.81658 Y38.64644
G01 X-98.94879 Y38.70532
G01 X-98.97053 Y38.71787
G01 X-99.02715 Y38.75902
G01 X-99.09547 Y38.79552
G01 X-99.11503 Y38.80860
G01 X-99.26652 Y38.93293
G01 X-99.39334 Y39.02506
G01 X-99.41198 Y39.04185
G01 X-99.44805 Y39.08190
G01 X-99.49387 Y39.11949
G01 X-99.51051 Y39.13613
G01 X-99.65069 Y39.30695
G01 X-99.76172 Y39.43026
G01 X-99.77645 Y39.45056
G01 X-99.79524 Y39.48309
G01 X-99.82141 Y39.51497
G01 X-99.83449 Y39.53453
G01 X-99.95344 Y39.75711
G01 X-100.03776 Y39.90316
G01 X-100.04797 Y39.92610
G01 X-100.05450 Y39.94619
G01 X-100.06550 Y39.96676
G01 X-100.07452 Y39.98848
G01 X-100.16243 Y40.27832
G01 X-100.20949 Y40.42315
G01 X-100.21470 Y40.44768
G01 X-100.21518 Y40.45221
G01 X-100.21676 Y40.45746
G01 X-100.22136 Y40.48055
G01 X-100.26913 Y40.96546
G01 X-100.26934 Y40.96747
G01 X-100.26934 Y40.99257
G01 X-100.26918 Y40.99401
G01 X-100.22136 Y41.47951
G01 X-100.21676 Y41.50260
G01 X-100.21516 Y41.50786
G01 X-100.21470 Y41.51233
G01 X-100.20949 Y41.53686
G01 X-100.16258 Y41.68118
G01 X-100.07452 Y41.97158
G01 X-100.06550 Y41.99330
G01 X-100.05448 Y42.01393
G01 X-100.04797 Y42.03394
G01 X-100.03776 Y42.05685
G01 X-99.95369 Y42.20247
G01 X-99.83449 Y42.42553
G01 X-99.82141 Y42.44509
G01 X-99.79517 Y42.47704
G01 X-99.77645 Y42.50948
G01 X-99.76172 Y42.52977
G01 X-99.65102 Y42.65268
G01 X-99.51051 Y42.82393
G01 X-99.49387 Y42.84057
G01 X-99.44792 Y42.87826
G01 X-99.41198 Y42.91817
G01 X-99.39334 Y42.93495
G01 X-99.26690 Y43.02683
G01 X-99.11503 Y43.15146
G01 X-99.09547 Y43.16455
G01 X-99.02697 Y43.20115
G01 X-98.97053 Y43.24217
G01 X-98.94879 Y43.25469
G01 X-98.81696 Y43.31339
G01 X-98.66324 Y43.39556
G01 X-98.64153 Y43.40458
G01 X-98.54953 Y43.43246
G01 X-98.47135 Y43.46729
G01 X-98.44747 Y43.47503
G01 X-98.31961 Y43.50221
G01 X-98.17254 Y43.54682
G01 X-98.14945 Y43.55141
G01 X-98.03515 Y43.56266
G01 X-97.93627 Y43.58370
G01 X-97.91130 Y43.58631
G01 X-97.79510 Y43.58631
G01 X-97.66175 Y43.59944
G01 X-97.64999 Y43.60003
G01 X-88.59255 Y43.60003
G01 X-86.09027 Y46.10231
G01 X-86.08156 Y46.11023
G01 X-85.81635 Y46.32786
G01 X-85.79680 Y46.34092
G01 X-85.49426 Y46.50264
G01 X-85.47251 Y46.51166
G01 X-85.14422 Y46.61122
G01 X-85.12116 Y46.61582
G01 X-84.77976 Y46.64945
G01 X-84.75621 Y46.64945
G01 X-84.41481 Y46.61582
G01 X-84.39174 Y46.61122
G01 X-84.06345 Y46.51166
G01 X-84.04171 Y46.50264
G01 X-83.73917 Y46.34092
G01 X-83.71961 Y46.32786
G01 X-83.45441 Y46.11023
G01 X-83.43777 Y46.09360
G01 X-83.22014 Y45.82840
G01 X-83.20709 Y45.80884
G01 X-83.04537 Y45.50630
G01 X-83.03635 Y45.48456
G01 X-82.93678 Y45.15626
G01 X-82.93218 Y45.13320
G01 X-82.89855 Y44.79180
G01 X-82.89797 Y44.78001
G01 X-82.89797 Y37.28000
G04 P0 ( dwell for no time -- G64 should not smooth over this point )
G00 Z5.00000 ( retract )

G00 X-73.56799 Y36.78000 ( rapid move to begin. )
G01 F150.00000
( Mill infeed pass 1/1 )
G01 Z-0.20000
G04 P0 ( dwell for no time -- G64 should not smooth over this point )
G01 F300.00000
G01 X-73.56799 Y36.78000
G01 X-73.56865 Y36.76748
G01 X-73.59050 Y36.55955
G01 X-73.59570 Y36.53502
G01 X-73.66032 Y36.33619
G01 X-73.67051 Y36.31328
G01 X-73.77505 Y36.13222
G01 X-73.78978 Y36.11193
G01 X-73.92969 Y35.95658
G01 X-73.94833 Y35.93979
G01 X-74.11744 Y35.81691
G01 X-74.13919 Y35.80436
G01 X-74.33017 Y35.71932
G01 X-74.35402 Y35.71158
G01 X-74.55852 Y35.66812
G01 X-74.58346 Y35.66550
G01 X-74.79253 Y35.66550
G01 X-74.81747 Y35.66812
G01 X-75.02196 Y35.71158
G01 X-75.04581 Y35.71932
G01 X-75.23680 Y35.80436
G01 X-75.25851 Y35.81691
G01 X-75.42765 Y35.93979
G01 X-75.44630 Y35.95658
G01 X-75.58617 Y36.11193
G01 X-75.60093 Y36.13222
G01 X-75.70545 Y36.31328
G01 X-75.71566 Y36.33619
G01 X-75.78026 Y36.53502
G01 X-75.78549 Y36.55955
G01 X-75.80733 Y36.76748
G01 X-75.80799 Y36.78000
G01 X-75.80799 Y37.78002
G01 X-75.80733 Y37.79255
G01 X-75.78549 Y38.00047
G01 X-75.78026 Y38.02501
G01 X-75.71566 Y38.22384
G01 X-75.70545 Y38.24675
G01 X-75.60093 Y38.42780
G01 X-75.58617 Y38.44810
G01 X-75.55795 Y38.47944
G01 X-75.55795 Y43.58060
G01 X-75.58617 Y43.61194
G01 X-75.60093 Y43.63224
G01 X-75.70545 Y43.81329
G01 X-75.71566 Y43.83620
G01 X-75.78026 Y44.03503
G01 X-75.78549 Y44.05956
G01 X-75.80733 Y44.26746
G01 X-75.80799 Y44.28001
G01 X-75.80799 Y45.28001
G01 X-75.80733 Y45.29256
G01 X-75.78549 Y45.50046
G01 X-75.78026 Y45.52502
G01 X-75.71566 Y45.72382
G01 X-75.70545 Y45.74676
G01 X-75.60093 Y45.92779
G01 X-75.58617 Y45.94811
G01 X-75.44630 Y46.10345
G01 X-75.42765 Y46.12024
G01 X-75.25851 Y46.24313
G01 X-75.23680 Y46.25567
G01 X-75.04581 Y46.34069
G01 X-75.02196 Y46.34844
G01 X-74.81747 Y46.39192
G01 X-74.79253 Y46.39454
G01 X-74.58346 Y46.39454
G01 X-74.55852 Y46.39192
G01 X-74.35402 Y46.34844
G01 X-74.33017 Y46.34069
G01 X-74.13919 Y46.25567
G01 X-74.11744 Y46.24313
G01 X-73.94833 Y46.12024
G01 X-73.92969 Y46.10345
G01 X-73.78978 Y45.94811
G01 X-73.77505 Y45.92779
G01 X-73.67051 Y45.74676
G01 X-73.66032 Y45.72382
G01 X-73.59570 Y45.52502
G01 X-73.59050 Y45.50046
G01 X-73.56865 Y45.29256
G01 X-73.56799 Y45.28001
G01 X-73.56799 Y44.28001
G01 X-73.56865 Y44.26746
G01 X-73.59050 Y44.05956
G01 X-73.59570 Y44.03503
G01 X-73.66032 Y43.83620
G01 X-73.67051 Y43.81329
G01 X-73.77505 Y43.63224
G01 X-73.78978 Y43.61194
G01 X-73.81798 Y43.58065
G01 X-73.81798 Y38.47939
G01 X-73.78978 Y38.44810
G01 X-73.77505 Y38.42780
G01 X-73.67051 Y38.24675
G01 X-73.66032 Y38.22384
G01 X-73.59570 Y38.02501
G01 X-73.59050 Y38.00047
G01 X-73.56865 Y37.79255
G01 X-73.56799 Y37.78002
G01 X-73.56799 Y36.78000
G04 P0 ( dwell for no time -- G64 should not smooth over this point )
G00 Z5.00000 ( retract )

G00 X-82.88273 Y23.79578 ( rapid move to begin. )
G01 F150.00000
( Mill infeed pass 1/1 )
G01 Z-0.20000
G04 P0 ( dwell for no time -- G64 should not smooth over this point )
G01 F300.00000
G01 X-82.88273 Y23.79578
G01 X-82.88331 Y23.78401
G01 X-82.91694 Y23.44261
G01 X-82.92154 Y23.41955
G01 X-83.02111 Y23.09126
G01 X-83.03013 Y23.06951
G01 X-83.19185 Y22.76697
G01 X-83.20490 Y22.74742
G01 X-83.42253 Y22.48221
G01 X-83.43917 Y22.46558
G01 X-83.70437 Y22.24795
G01 X-83.72393 Y22.23489
G01 X-84.02647 Y22.07317
G01 X-84.04821 Y22.06416
G01 X-84.37650 Y21.96459
G01 X-84.39957 Y21.95999
G01 X-84.74097 Y21.92636
G01 X-84.76452 Y21.92636
G01 X-85.10592 Y21.95999
G01 X-85.12898 Y21.96459
G01 X-85.45727 Y22.06416
G01 X-85.47902 Y22.07317
G01 X-85.78156 Y22.23489
G01 X-85.80111 Y22.24795
G01 X-86.06632 Y22.46558
G01 X-86.07503 Y22.47350
G01 X-88.24731 Y24.64579
G01 X-97.74676 Y24.64579
G01 X-97.75852 Y24.64637
G01 X-97.89167 Y24.65948
G01 X-98.00808 Y24.65948
G01 X-98.03302 Y24.66209
G01 X-98.13210 Y24.68315
G01 X-98.24623 Y24.69440
G01 X-98.26931 Y24.69900
G01 X-98.41618 Y24.74353
G01 X-98.54424 Y24.77075
G01 X-98.56809 Y24.77850
G01 X-98.64643 Y24.81338
G01 X-98.73830 Y24.84124
G01 X-98.76002 Y24.85026
G01 X-98.91356 Y24.93232
G01 X-99.04556 Y24.99110
G01 X-99.06728 Y25.00365
G01 X-99.12382 Y25.04472
G01 X-99.19225 Y25.08127
G01 X-99.21181 Y25.09435
G01 X-99.36350 Y25.21884
G01 X-99.49011 Y25.31083
G01 X-99.50876 Y25.32762
G01 X-99.54475 Y25.36758
G01 X-99.59065 Y25.40525
G01 X-99.60728 Y25.42188
G01 X-99.74767 Y25.59298
G01 X-99.85847 Y25.71602
G01 X-99.87322 Y25.73631
G01 X-99.89197 Y25.76877
G01 X-99.91818 Y25.80072
G01 X-99.93126 Y25.82028
G01 X-100.05041 Y26.04324
G01 X-100.13454 Y26.18894
G01 X-100.14475 Y26.21185
G01 X-100.15125 Y26.23186
G01 X-100.16227 Y26.25251
G01 X-100.17129 Y26.27423
G01 X-100.25938 Y26.56465
G01 X-100.30624 Y26.70893
G01 X-100.31147 Y26.73346
G01 X-100.31193 Y26.73791
G01 X-100.31353 Y26.74322
G01 X-100.31813 Y26.76631
G01 X-100.36619 Y27.25401
G01 X-100.36608 Y27.27832
G01 X-100.36606 Y27.27878
G01 X-100.31813 Y27.76526
G01 X-100.31353 Y27.78835
G01 X-100.31193 Y27.79366
G01 X-100.31147 Y27.79810
G01 X-100.30624 Y27.82264
G01 X-100.25940 Y27.96679
G01 X-100.17129 Y28.25734
G01 X-100.16227 Y28.27905
G01 X-100.15125 Y28.29970
G01 X-100.14475 Y28.31969
G01 X-100.13454 Y28.34263
G01 X-100.05046 Y28.48822
G01 X-99.93126 Y28.71128
G01 X-99.91818 Y28.73084
G01 X-99.89194 Y28.76280
G01 X-99.87322 Y28.79523
G01 X-99.85847 Y28.81553
G01 X-99.74775 Y28.93851
G01 X-99.60728 Y29.10968
G01 X-99.59065 Y29.12632
G01 X-99.54472 Y29.16401
G01 X-99.50876 Y29.20394
G01 X-99.49011 Y29.22073
G01 X-99.36357 Y29.31266
G01 X-99.21181 Y29.43722
G01 X-99.19225 Y29.45030
G01 X-99.12377 Y29.48687
G01 X-99.06728 Y29.52792
G01 X-99.04556 Y29.54047
G01 X-98.91364 Y29.59922
G01 X-98.76002 Y29.68131
G01 X-98.73830 Y29.69033
G01 X-98.64638 Y29.71819
G01 X-98.56809 Y29.75304
G01 X-98.54424 Y29.76079
G01 X-98.41625 Y29.78802
G01 X-98.26931 Y29.83257
G01 X-98.24623 Y29.83717
G01 X-98.13203 Y29.84842
G01 X-98.03302 Y29.86947
G01 X-98.00808 Y29.87209
G01 X-97.89172 Y29.87209
G01 X-97.75852 Y29.88520
G01 X-97.74676 Y29.88578
G01 X-88.80733 Y29.88578
G01 X-86.07503 Y32.61808
G01 X-86.06632 Y32.62598
G01 X-85.80111 Y32.84364
G01 X-85.78156 Y32.85669
G01 X-85.47902 Y33.01841
G01 X-85.45727 Y33.02743
G01 X-85.12898 Y33.12700
G01 X-85.10592 Y33.13160
G01 X-84.76452 Y33.16523
G01 X-84.74099 Y33.16523
G01 X-84.39957 Y33.13160
G01 X-84.37650 Y33.12700
G01 X-84.04821 Y33.02743
G01 X-84.02649 Y33.01841
G01 X-83.72393 Y32.85669
G01 X-83.70437 Y32.84364
G01 X-83.43917 Y32.62601
G01 X-83.42256 Y32.60937
G01 X-83.20490 Y32.34417
G01 X-83.19185 Y32.32461
G01 X-83.03013 Y32.02207
G01 X-83.02111 Y32.00033
G01 X-82.92154 Y31.67204
G01 X-82.91694 Y31.64897
G01 X-82.88331 Y31.30757
G01 X-82.88273 Y31.29579
G01 X-82.88273 Y23.79578
G04 P0 ( dwell for no time -- G64 should not smooth over this point )
G00 Z5.00000 ( retract )

G00 X-73.55275 Y23.29578 ( rapid move to begin. )
G01 F150.00000
( Mill infeed pass 1/1 )
G01 Z-0.20000
G04 P0 ( dwell for no time -- G64 should not smooth over this point )
G01 F300.00000
G01 X-73.55275 Y23.29578
G01 X-73.55341 Y23.28323
G01 X-73.57526 Y23.07533
G01 X-73.58049 Y23.05079
G01 X-73.64508 Y22.85196
G01 X-73.65529 Y22.82905
G01 X-73.75981 Y22.64800
G01 X-73.77457 Y22.62771
G01 X-73.91445 Y22.47233
G01 X-73.93309 Y22.45554
G01 X-74.10223 Y22.33268
G01 X-74.12395 Y22.32014
G01 X-74.31493 Y22.23510
G01 X-74.33878 Y22.22735
G01 X-74.54328 Y22.18389
G01 X-74.56822 Y22.18125
G01 X-74.77729 Y22.18125
G01 X-74.80223 Y22.18389
G01 X-75.00672 Y22.22735
G01 X-75.03057 Y22.23510
G01 X-75.22156 Y22.32014
G01 X-75.24330 Y22.33268
G01 X-75.41241 Y22.45554
G01 X-75.43106 Y22.47233
G01 X-75.57096 Y22.62771
G01 X-75.58569 Y22.64800
G01 X-75.69021 Y22.82905
G01 X-75.70042 Y22.85196
G01 X-75.76502 Y23.05079
G01 X-75.77025 Y23.07533
G01 X-75.79209 Y23.28323
G01 X-75.79275 Y23.29578
G01 X-75.79275 Y24.29577
G01 X-75.79209 Y24.30832
G01 X-75.77025 Y24.51625
G01 X-75.76502 Y24.54078
G01 X-75.70042 Y24.73959
G01 X-75.69021 Y24.76252
G01 X-75.58569 Y24.94358
G01 X-75.57096 Y24.96387
G01 X-75.54274 Y24.99516
G01 X-75.54274 Y30.09637
G01 X-75.57096 Y30.12769
G01 X-75.58569 Y30.14798
G01 X-75.69021 Y30.32904
G01 X-75.70042 Y30.35197
G01 X-75.76502 Y30.55078
G01 X-75.77025 Y30.57531
G01 X-75.79209 Y30.78324
G01 X-75.79275 Y30.79579
G01 X-75.79275 Y31.79578
G01 X-75.79209 Y31.80833
G01 X-75.77025 Y32.01623
G01 X-75.76502 Y32.04077
G01 X-75.70042 Y32.23960
G01 X-75.69021 Y32.26251
G01 X-75.58569 Y32.44356
G01 X-75.57096 Y32.46386
G01 X-75.43106 Y32.61923
G01 X-75.41241 Y32.63602
G01 X-75.24330 Y32.75888
G01 X-75.22156 Y32.77142
G01 X-75.03057 Y32.85646
G01 X-75.00672 Y32.86421
G01 X-74.80223 Y32.90767
G01 X-74.77729 Y32.91031
G01 X-74.56822 Y32.91031
G01 X-74.54328 Y32.90767
G01 X-74.33878 Y32.86421
G01 X-74.31493 Y32.85646
G01 X-74.12395 Y32.77142
G01 X-74.10223 Y32.75888
G01 X-73.93309 Y32.63602
G01 X-73.91445 Y32.61923
G01 X-73.77457 Y32.46386
G01 X-73.75981 Y32.44356
G01 X-73.65529 Y32.26251
G01 X-73.64508 Y32.23960
G01 X-73.58049 Y32.04077
G01 X-73.57526 Y32.01623
G01 X-73.55341 Y31.80833
G01 X-73.55275 Y31.79578
G01 X-73.55275 Y30.79579
G01 X-73.55341 Y30.78324
G01 X-73.57526 Y30.57531
G01 X-73.58049 Y30.55078
G01 X-73.64508 Y30.35197
G01 X-73.65529 Y30.32904
G01 X-73.75981 Y30.14798
G01 X-73.77457 Y30.12769
G01 X-73.80276 Y30.09640
G01 X-73.80276 Y24.99516
G01 X-73.77457 Y24.96387
G01 X-73.75981 Y24.94358
G01 X-73.65529 Y24.76252
G01 X-73.64508 Y24.73959
G01 X-73.58049 Y24.54078
G01 X-73.57526 Y24.51625
G01 X-73.55341 Y24.30832
G01 X-73.55275 Y24.29577
G01 X-73.55275 Y23.29578
G04 P0 ( dwell for no time -- G64 should not smooth over this point )
G00 Z5.00000 ( retract )

G00 X-46.94247 Y15.02551 ( rapid move to begin. )
G01 F150.00000
( Mill infeed pass 1/1 )
G01 Z-0.20000
G04 P0 ( dwell for no time -- G64 should not smooth over this point )
G01 F300.00000
G01 X-46.94247 Y15.02551
G01 X-46.94305 Y15.01375
G01 X-46.97188 Y14.72109
G01 X-46.97645 Y14.69803
G01 X-47.06185 Y14.41662
G01 X-47.07084 Y14.39488
G01 X-47.11999 Y14.30293
G01 X-47.11999 Y9.84800
G01 X-47.12057 Y9.83624
G01 X-47.14938 Y9.54361
G01 X-47.15397 Y9.52054
G01 X-47.23934 Y9.23916
G01 X-47.24833 Y9.21742
G01 X-47.38694 Y8.95809
G01 X-47.40002 Y8.93853
G01 X-47.58656 Y8.71122
G01 X-47.60320 Y8.69459
G01 X-47.83050 Y8.50805
G01 X-47.85006 Y8.49497
G01 X-47.87000 Y8.48432
G01 X-47.87000 Y8.34800
G01 X-47.87229 Y8.32461
G01 X-47.87912 Y8.30208
G01 X-47.89022 Y8.28135
G01 X-47.90513 Y8.26317
G01 X-47.92331 Y8.24823
G01 X-47.94407 Y8.23716
G01 X-47.96657 Y8.23032
G01 X-47.98999 Y8.22801
G01 X-49.48999 Y8.22801
G01 X-49.51340 Y8.23032
G01 X-49.53591 Y8.23716
G01 X-49.55666 Y8.24823
G01 X-49.57485 Y8.26317
G01 X-49.58976 Y8.28135
G01 X-49.60086 Y8.30208
G01 X-49.60769 Y8.32461
G01 X-49.60998 Y8.34800
G01 X-49.60998 Y8.48432
G01 X-49.62991 Y8.49497
G01 X-49.64947 Y8.50805
G01 X-49.87678 Y8.69459
G01 X-49.89341 Y8.71122
G01 X-50.07995 Y8.93853
G01 X-50.09303 Y8.95809
G01 X-50.23164 Y9.21742
G01 X-50.24063 Y9.23916
G01 X-50.32600 Y9.52054
G01 X-50.33060 Y9.54361
G01 X-50.35940 Y9.83624
G01 X-50.35999 Y9.84800
G01 X-50.35999 Y14.84802
G01 X-50.35940 Y14.85980
G01 X-50.33057 Y15.15246
G01 X-50.32600 Y15.17552
G01 X-50.24061 Y15.45693
G01 X-50.23161 Y15.47867
G01 X-50.18247 Y15.57062
G01 X-50.18247 Y22.42100
G01 X-50.18188 Y22.43279
G01 X-50.16497 Y22.60469
G01 X-50.20558 Y22.73863
G01 X-50.21018 Y22.76169
G01 X-50.22938 Y22.95676
G01 X-50.22996 Y22.96852
G01 X-50.22996 Y25.65000
G01 X-50.22938 Y25.66179
G01 X-50.21018 Y25.85686
G01 X-50.20558 Y25.87995
G01 X-50.14868 Y26.06753
G01 X-50.13967 Y26.08927
G01 X-50.04726 Y26.26214
G01 X-50.03421 Y26.28170
G01 X-49.90982 Y26.43323
G01 X-49.89319 Y26.44987
G01 X-49.74165 Y26.57426
G01 X-49.72209 Y26.58731
G01 X-49.54922 Y26.67972
G01 X-49.52748 Y26.68873
G01 X-49.46540 Y26.70755
G01 X-49.45313 Y26.71302
G01 X-49.42928 Y26.72076
G01 X-49.40444 Y26.72605
G01 X-49.33990 Y26.74563
G01 X-49.31681 Y26.75023
G01 X-49.26819 Y26.75500
G01 X-49.23451 Y26.76216
G01 X-49.20954 Y26.76481
G01 X-49.16885 Y26.76481
G01 X-49.12174 Y26.76943
G01 X-49.09819 Y26.76943
G01 X-49.05107 Y26.76481
G01 X-49.01043 Y26.76481
G01 X-48.98547 Y26.76216
G01 X-48.95181 Y26.75503
G01 X-48.90312 Y26.75023
G01 X-48.88003 Y26.74563
G01 X-48.81539 Y26.72602
G01 X-48.79070 Y26.72076
G01 X-48.76685 Y26.71302
G01 X-48.75468 Y26.70761
G01 X-48.69245 Y26.68873
G01 X-48.67071 Y26.67972
G01 X-48.49784 Y26.58731
G01 X-48.47828 Y26.57426
G01 X-48.32674 Y26.44987
G01 X-48.31010 Y26.43323
G01 X-48.18572 Y26.28170
G01 X-48.17267 Y26.26214
G01 X-48.08026 Y26.08927
G01 X-48.07124 Y26.06753
G01 X-48.01435 Y25.87995
G01 X-48.00975 Y25.85686
G01 X-47.99055 Y25.66179
G01 X-47.98996 Y25.65000
G01 X-47.98996 Y23.93268
G01 X-47.95362 Y23.92166
G01 X-47.93187 Y23.91267
G01 X-47.67254 Y23.77406
G01 X-47.65298 Y23.76098
G01 X-47.42568 Y23.57444
G01 X-47.40904 Y23.55780
G01 X-47.22250 Y23.33050
G01 X-47.20942 Y23.31094
G01 X-47.07081 Y23.05161
G01 X-47.06182 Y23.02986
G01 X-46.97645 Y22.74848
G01 X-46.97186 Y22.72542
G01 X-46.94305 Y22.43279
G01 X-46.94247 Y22.42100
G01 X-46.94247 Y15.02551
G04 P0 ( dwell for no time -- G64 should not smooth over this point )
G00 Z5.00000 ( retract )

G00 X-41.35081 Y15.86717 ( rapid move to begin. )
G01 F150.00000
( Mill infeed pass 1/1 )
G01 Z-0.20000
G04 P0 ( dwell for no time -- G64 should not smooth over this point )
G01 F300.00000
G01 X-41.35081 Y15.86717
G01 X-41.35139 Y15.85540
G01 X-41.37542 Y15.61156
G01 X-41.38002 Y15.58848
G01 X-41.45111 Y15.35398
G01 X-41.46013 Y15.33227
G01 X-41.57565 Y15.11614
G01 X-41.58873 Y15.09658
G01 X-41.74418 Y14.90717
G01 X-41.75208 Y14.89843
G01 X-42.11995 Y14.53057
G01 X-42.11995 Y9.84800
G01 X-42.12056 Y9.83624
G01 X-42.14934 Y9.54361
G01 X-42.15396 Y9.52054
G01 X-42.23933 Y9.23916
G01 X-42.24832 Y9.21742
G01 X-42.38690 Y8.95809
G01 X-42.39998 Y8.93853
G01 X-42.58655 Y8.71122
G01 X-42.60318 Y8.69459
G01 X-42.83049 Y8.50805
G01 X-42.85004 Y8.49497
G01 X-43.10938 Y8.35636
G01 X-43.13110 Y8.34737
G01 X-43.41250 Y8.26200
G01 X-43.43557 Y8.25740
G01 X-43.61151 Y8.24008
G01 X-43.63661 Y8.23474
G01 X-43.66160 Y8.23213
G01 X-43.69236 Y8.23213
G01 X-43.72820 Y8.22860
G01 X-43.75174 Y8.22860
G01 X-43.78758 Y8.23213
G01 X-43.81839 Y8.23213
G01 X-43.84334 Y8.23474
G01 X-43.86848 Y8.24008
G01 X-44.04438 Y8.25740
G01 X-44.06744 Y8.26200
G01 X-44.34882 Y8.34737
G01 X-44.37056 Y8.35636
G01 X-44.62990 Y8.49497
G01 X-44.64946 Y8.50805
G01 X-44.87676 Y8.69459
G01 X-44.89340 Y8.71122
G01 X-45.07994 Y8.93853
G01 X-45.09302 Y8.95809
G01 X-45.23162 Y9.21742
G01 X-45.24062 Y9.23916
G01 X-45.32599 Y9.52054
G01 X-45.33058 Y9.54361
G01 X-45.35939 Y9.83624
G01 X-45.35997 Y9.84800
G01 X-45.35997 Y14.84802
G01 X-45.35939 Y14.85980
G01 X-45.33058 Y15.15243
G01 X-45.32599 Y15.17550
G01 X-45.24062 Y15.45688
G01 X-45.23162 Y15.47862
G01 X-45.09302 Y15.73796
G01 X-45.07994 Y15.75751
G01 X-44.89340 Y15.98482
G01 X-44.87676 Y16.00145
G01 X-44.64946 Y16.18799
G01 X-44.62990 Y16.20107
G01 X-44.37056 Y16.33968
G01 X-44.34882 Y16.34867
G01 X-44.10188 Y16.42360
G01 X-44.09083 Y16.43465
G01 X-44.09083 Y45.48486
G01 X-44.09025 Y45.49665
G01 X-44.06622 Y45.74049
G01 X-44.06162 Y45.76357
G01 X-43.99050 Y45.99807
G01 X-43.98151 Y46.01978
G01 X-43.95195 Y46.07508
G01 X-43.95195 Y46.56103
G01 X-43.95134 Y46.57282
G01 X-43.93214 Y46.76789
G01 X-43.92756 Y46.79095
G01 X-43.87064 Y46.97853
G01 X-43.86168 Y47.00025
G01 X-43.76927 Y47.17315
G01 X-43.75619 Y47.19271
G01 X-43.63186 Y47.34422
G01 X-43.62396 Y47.35295
G01 X-43.43597 Y47.54094
G01 X-43.42726 Y47.54884
G01 X-43.27572 Y47.67322
G01 X-43.25619 Y47.68628
G01 X-43.08332 Y47.77871
G01 X-43.06155 Y47.78773
G01 X-42.99924 Y47.80662
G01 X-42.98713 Y47.81201
G01 X-42.96325 Y47.81978
G01 X-42.93872 Y47.82499
G01 X-42.87400 Y47.84462
G01 X-42.85091 Y47.84922
G01 X-42.80204 Y47.85405
G01 X-42.76851 Y47.86118
G01 X-42.74354 Y47.86380
G01 X-42.70308 Y47.86380
G01 X-42.65581 Y47.86845
G01 X-42.63229 Y47.86845
G01 X-42.58495 Y47.86380
G01 X-42.54443 Y47.86380
G01 X-42.51946 Y47.86118
G01 X-42.48599 Y47.85405
G01 X-42.43722 Y47.84924
G01 X-42.41413 Y47.84467
G01 X-42.34928 Y47.82499
G01 X-42.32470 Y47.81978
G01 X-42.30085 Y47.81201
G01 X-42.28876 Y47.80665
G01 X-42.22655 Y47.78778
G01 X-42.20481 Y47.77876
G01 X-42.03191 Y47.68638
G01 X-42.01233 Y47.67330
G01 X-41.86082 Y47.54894
G01 X-41.84418 Y47.53233
G01 X-41.71980 Y47.38079
G01 X-41.70674 Y47.36123
G01 X-41.61431 Y47.18836
G01 X-41.60527 Y47.16662
G01 X-41.54840 Y46.97904
G01 X-41.54377 Y46.95595
G01 X-41.52457 Y46.76088
G01 X-41.52457 Y46.73733
G01 X-41.54377 Y46.54226
G01 X-41.54835 Y46.51917
G01 X-41.60524 Y46.33159
G01 X-41.61426 Y46.30985
G01 X-41.62178 Y46.29576
G01 X-41.58873 Y46.25547
G01 X-41.57565 Y46.23591
G01 X-41.46013 Y46.01978
G01 X-41.45111 Y45.99807
G01 X-41.38002 Y45.76357
G01 X-41.37542 Y45.74049
G01 X-41.35139 Y45.49665
G01 X-41.35081 Y45.48486
G01 X-41.35081 Y15.86717
G04 P0 ( dwell for no time -- G64 should not smooth over this point )
G00 Z5.00000 ( retract )

G00 X-28.02998 Y9.85001 ( rapid move to begin. )
G01 F150.00000
( Mill infeed pass 1/1 )
G01 Z-0.20000
G04 P0 ( dwell for no time -- G64 should not smooth over this point )
G01 F300.00000
G01 X-28.02998 Y9.85001
G01 X-28.03057 Y9.83825
G01 X-28.05937 Y9.54561
G01 X-28.06397 Y9.52255
G01 X-28.14934 Y9.24117
G01 X-28.15833 Y9.21943
G01 X-28.29694 Y8.96009
G01 X-28.31002 Y8.94053
G01 X-28.49656 Y8.71323
G01 X-28.51319 Y8.69659
G01 X-28.74050 Y8.51006
G01 X-28.76006 Y8.49697
G01 X-29.01939 Y8.35837
G01 X-29.04113 Y8.34937
G01 X-29.32251 Y8.26401
G01 X-29.34558 Y8.25941
G01 X-29.52145 Y8.24211
G01 X-29.54664 Y8.23675
G01 X-29.57159 Y8.23411
G01 X-29.60245 Y8.23411
G01 X-29.63821 Y8.23060
G01 X-29.66176 Y8.23060
G01 X-29.69752 Y8.23411
G01 X-29.72838 Y8.23411
G01 X-29.75332 Y8.23675
G01 X-29.77852 Y8.24211
G01 X-29.95439 Y8.25941
G01 X-29.97745 Y8.26401
G01 X-30.25883 Y8.34937
G01 X-30.28058 Y8.35837
G01 X-30.53991 Y8.49697
G01 X-30.55947 Y8.51006
G01 X-30.78677 Y8.69659
G01 X-30.80341 Y8.71323
G01 X-30.98995 Y8.94053
G01 X-31.00303 Y8.96009
G01 X-31.14164 Y9.21943
G01 X-31.15063 Y9.24117
G01 X-31.23600 Y9.52255
G01 X-31.24059 Y9.54561
G01 X-31.26940 Y9.83825
G01 X-31.26998 Y9.85001
G01 X-31.26998 Y14.85002
G01 X-31.26940 Y14.86181
G01 X-31.24059 Y15.15444
G01 X-31.23600 Y15.17750
G01 X-31.15063 Y15.45889
G01 X-31.14164 Y15.48063
G01 X-31.00303 Y15.73996
G01 X-30.98995 Y15.75952
G01 X-30.80341 Y15.98682
G01 X-30.78677 Y16.00346
G01 X-30.55947 Y16.19000
G01 X-30.53991 Y16.20308
G01 X-30.51997 Y16.21372
G01 X-30.51997 Y16.55967
G01 X-34.14033 Y20.18003
G01 X-35.62049 Y20.18003
G01 X-35.62946 Y20.17351
G01 X-35.65118 Y20.16096
G01 X-35.82306 Y20.08443
G01 X-35.84693 Y20.07668
G01 X-36.03096 Y20.03757
G01 X-36.05590 Y20.03495
G01 X-36.24406 Y20.03495
G01 X-36.26901 Y20.03757
G01 X-36.45305 Y20.07668
G01 X-36.47691 Y20.08443
G01 X-36.64879 Y20.16096
G01 X-36.67053 Y20.17351
G01 X-36.82273 Y20.28410
G01 X-36.84137 Y20.30089
G01 X-36.96728 Y20.44071
G01 X-36.98204 Y20.46101
G01 X-37.07609 Y20.62395
G01 X-37.08630 Y20.64686
G01 X-37.14444 Y20.82580
G01 X-37.14968 Y20.85034
G01 X-37.16933 Y21.03746
G01 X-37.16933 Y21.06256
G01 X-37.14968 Y21.24968
G01 X-37.14444 Y21.27422
G01 X-37.08630 Y21.45316
G01 X-37.07609 Y21.47607
G01 X-36.98204 Y21.63901
G01 X-36.96728 Y21.65930
G01 X-36.84137 Y21.79913
G01 X-36.82273 Y21.81592
G01 X-36.67053 Y21.92651
G01 X-36.64879 Y21.93906
G01 X-36.47691 Y22.01559
G01 X-36.45305 Y22.02334
G01 X-36.26901 Y22.06245
G01 X-36.24406 Y22.06507
G01 X-36.05590 Y22.06507
G01 X-36.03096 Y22.06245
G01 X-35.84693 Y22.02334
G01 X-35.82306 Y22.01559
G01 X-35.65118 Y21.93906
G01 X-35.62946 Y21.92651
G01 X-35.62052 Y21.92001
G01 X-33.77998 Y21.92001
G01 X-33.76820 Y21.91945
G01 X-33.62189 Y21.90502
G01 X-33.59883 Y21.90045
G01 X-33.45812 Y21.85776
G01 X-33.43640 Y21.84876
G01 X-33.30673 Y21.77945
G01 X-33.28717 Y21.76639
G01 X-33.17351 Y21.67312
G01 X-33.16480 Y21.66520
G01 X-29.03481 Y17.53521
G01 X-29.02688 Y17.52650
G01 X-28.93361 Y17.41283
G01 X-28.92056 Y17.39327
G01 X-28.85124 Y17.26361
G01 X-28.84225 Y17.24189
G01 X-28.79955 Y17.10117
G01 X-28.79498 Y17.07811
G01 X-28.78055 Y16.93181
G01 X-28.77999 Y16.92002
G01 X-28.77999 Y16.21372
G01 X-28.76006 Y16.20308
G01 X-28.74050 Y16.19000
G01 X-28.51319 Y16.00346
G01 X-28.49656 Y15.98682
G01 X-28.31002 Y15.75952
G01 X-28.29694 Y15.73996
G01 X-28.15833 Y15.48063
G01 X-28.14934 Y15.45889
G01 X-28.06397 Y15.17750
G01 X-28.05937 Y15.15444
G01 X-28.03057 Y14.86181
G01 X-28.02998 Y14.85002
G01 X-28.02998 Y9.85001
G04 P0 ( dwell for no time -- G64 should not smooth over this point )
G00 Z5.00000 ( retract )

G00 X-23.02997 Y9.85001 ( rapid move to begin. )
G01 F150.00000
( Mill infeed pass 1/1 )
G01 Z-0.20000
G04 P0 ( dwell for no time -- G64 should not smooth over this point )
G01 F300.00000
G01 X-23.02997 Y9.85001
G01 X-23.03055 Y9.83825
G01 X-23.05936 Y9.54561
G01 X-23.06395 Y9.52255
G01 X-23.14932 Y9.24117
G01 X-23.15831 Y9.21943
G01 X-23.29692 Y8.96009
G01 X-23.31000 Y8.94053
G01 X-23.49654 Y8.71323
G01 X-23.51318 Y8.69659
G01 X-23.74048 Y8.51006
G01 X-23.76004 Y8.49697
G01 X-24.01937 Y8.35837
G01 X-24.04112 Y8.34937
G01 X-24.32250 Y8.26401
G01 X-24.34556 Y8.25941
G01 X-24.52146 Y8.24209
G01 X-24.54665 Y8.23675
G01 X-24.57160 Y8.23411
G01 X-24.60243 Y8.23411
G01 X-24.63819 Y8.23060
G01 X-24.66174 Y8.23060
G01 X-24.69750 Y8.23411
G01 X-24.72839 Y8.23411
G01 X-24.75333 Y8.23675
G01 X-24.77855 Y8.24211
G01 X-24.95437 Y8.25941
G01 X-24.97744 Y8.26401
G01 X-25.25882 Y8.34937
G01 X-25.28056 Y8.35837
G01 X-25.53989 Y8.49697
G01 X-25.55945 Y8.51006
G01 X-25.78676 Y8.69659
G01 X-25.80339 Y8.71323
G01 X-25.98993 Y8.94053
G01 X-26.00301 Y8.96009
G01 X-26.14162 Y9.21943
G01 X-26.15061 Y9.24117
G01 X-26.23598 Y9.52255
G01 X-26.24058 Y9.54561
G01 X-26.26938 Y9.83825
G01 X-26.26997 Y9.85001
G01 X-26.26997 Y14.85002
G01 X-26.26938 Y14.86181
G01 X-26.24058 Y15.15444
G01 X-26.23598 Y15.17750
G01 X-26.15061 Y15.45889
G01 X-26.14162 Y15.48063
G01 X-26.00301 Y15.73996
G01 X-25.98993 Y15.75952
G01 X-25.80339 Y15.98682
G01 X-25.78676 Y16.00346
G01 X-25.55945 Y16.19000
G01 X-25.53989 Y16.20308
G01 X-25.51995 Y16.21372
G01 X-25.51995 Y16.68967
G01 X-28.89457 Y20.06426
G01 X-28.95304 Y20.07668
G01 X-28.97692 Y20.08443
G01 X-29.14880 Y20.16096
G01 X-29.17052 Y20.17351
G01 X-29.32274 Y20.28410
G01 X-29.34138 Y20.30089
G01 X-29.46727 Y20.44071
G01 X-29.48202 Y20.46101
G01 X-29.57611 Y20.62395
G01 X-29.58632 Y20.64686
G01 X-29.64446 Y20.82580
G01 X-29.64966 Y20.85034
G01 X-29.66932 Y21.03746
G01 X-29.66932 Y21.06256
G01 X-29.64966 Y21.24968
G01 X-29.64446 Y21.27422
G01 X-29.58632 Y21.45316
G01 X-29.57611 Y21.47607
G01 X-29.48202 Y21.63901
G01 X-29.46727 Y21.65930
G01 X-29.34138 Y21.79913
G01 X-29.32274 Y21.81592
G01 X-29.17052 Y21.92651
G01 X-29.14880 Y21.93906
G01 X-28.97692 Y22.01559
G01 X-28.95304 Y22.02334
G01 X-28.76902 Y22.06245
G01 X-28.74405 Y22.06507
G01 X-28.55592 Y22.06507
G01 X-28.53097 Y22.06245
G01 X-28.34692 Y22.02334
G01 X-28.32307 Y22.01559
G01 X-28.15117 Y21.93906
G01 X-28.12945 Y21.92651
G01 X-27.97723 Y21.81592
G01 X-27.95858 Y21.79913
G01 X-27.83270 Y21.65930
G01 X-27.81794 Y21.63901
G01 X-27.72386 Y21.47607
G01 X-27.71368 Y21.45316
G01 X-27.66118 Y21.29156
G01 X-24.03479 Y17.66521
G01 X-24.02687 Y17.65649
G01 X-23.93360 Y17.54283
G01 X-23.92054 Y17.52327
G01 X-23.85123 Y17.39360
G01 X-23.84223 Y17.37189
G01 X-23.79954 Y17.23117
G01 X-23.79496 Y17.20811
G01 X-23.78054 Y17.06180
G01 X-23.77998 Y17.05002
G01 X-23.77998 Y16.21372
G01 X-23.76004 Y16.20308
G01 X-23.74048 Y16.19000
G01 X-23.51318 Y16.00346
G01 X-23.49654 Y15.98682
G01 X-23.31000 Y15.75952
G01 X-23.29692 Y15.73996
G01 X-23.15831 Y15.48063
G01 X-23.14932 Y15.45889
G01 X-23.06395 Y15.17750
G01 X-23.05936 Y15.15444
G01 X-23.03055 Y14.86181
G01 X-23.02997 Y14.85002
G01 X-23.02997 Y9.85001
G04 P0 ( dwell for no time -- G64 should not smooth over this point )
G00 Z5.00000 ( retract )

G00 X-18.02998 Y9.85001 ( rapid move to begin. )
G01 F150.00000
( Mill infeed pass 1/1 )
G01 Z-0.20000
G04 P0 ( dwell for no time -- G64 should not smooth over this point )
G01 F300.00000
G01 X-18.02998 Y9.85001
G01 X-18.03056 Y9.83825
G01 X-18.05937 Y9.54561
G01 X-18.06396 Y9.52255
G01 X-18.14933 Y9.24117
G01 X-18.15832 Y9.21943
G01 X-18.29693 Y8.96009
G01 X-18.31001 Y8.94053
G01 X-18.49655 Y8.71323
G01 X-18.51319 Y8.69659
G01 X-18.74049 Y8.51006
G01 X-18.76005 Y8.49697
G01 X-19.01938 Y8.35837
G01 X-19.04113 Y8.34937
G01 X-19.32251 Y8.26401
G01 X-19.34557 Y8.25941
G01 X-19.52147 Y8.24209
G01 X-19.54664 Y8.23675
G01 X-19.57158 Y8.23411
G01 X-19.60244 Y8.23411
G01 X-19.63820 Y8.23060
G01 X-19.66175 Y8.23060
G01 X-19.69751 Y8.23411
G01 X-19.72837 Y8.23411
G01 X-19.75334 Y8.23675
G01 X-19.77854 Y8.24211
G01 X-19.95438 Y8.25941
G01 X-19.97745 Y8.26401
G01 X-20.25883 Y8.34937
G01 X-20.28057 Y8.35837
G01 X-20.53990 Y8.49697
G01 X-20.55946 Y8.51006
G01 X-20.78677 Y8.69659
G01 X-20.80340 Y8.71323
G01 X-20.98994 Y8.94053
G01 X-21.00302 Y8.96009
G01 X-21.14163 Y9.21943
G01 X-21.15062 Y9.24117
G01 X-21.23599 Y9.52255
G01 X-21.24059 Y9.54561
G01 X-21.26939 Y9.83825
G01 X-21.26998 Y9.85001
G01 X-21.26998 Y14.85002
G01 X-21.26939 Y14.86181
G01 X-21.24059 Y15.15444
G01 X-21.23599 Y15.17750
G01 X-21.15062 Y15.45889
G01 X-21.14163 Y15.48063
G01 X-21.00302 Y15.73996
G01 X-20.98994 Y15.75952
G01 X-20.80340 Y15.98682
G01 X-20.78677 Y16.00346
G01 X-20.55946 Y16.19000
G01 X-20.53990 Y16.20308
G01 X-20.51996 Y16.21372
G01 X-20.51996 Y19.28966
G01 X-21.29456 Y20.06426
G01 X-21.35306 Y20.07668
G01 X-21.37691 Y20.08443
G01 X-21.54879 Y20.16096
G01 X-21.57051 Y20.17351
G01 X-21.72273 Y20.28410
G01 X-21.74137 Y20.30089
G01 X-21.86728 Y20.44071
G01 X-21.88201 Y20.46101
G01 X-21.97610 Y20.62395
G01 X-21.98631 Y20.64686
G01 X-22.04445 Y20.82580
G01 X-22.04965 Y20.85034
G01 X-22.06934 Y21.03746
G01 X-22.06934 Y21.06256
G01 X-22.04965 Y21.24968
G01 X-22.04445 Y21.27422
G01 X-21.98631 Y21.45316
G01 X-21.97610 Y21.47607
G01 X-21.88201 Y21.63901
G01 X-21.86728 Y21.65930
G01 X-21.74137 Y21.79913
G01 X-21.72273 Y21.81592
G01 X-21.57051 Y21.92651
G01 X-21.54879 Y21.93906
G01 X-21.37691 Y22.01559
G01 X-21.35306 Y22.02334
G01 X-21.16901 Y22.06245
G01 X-21.14407 Y22.06507
G01 X-20.95591 Y22.06507
G01 X-20.93096 Y22.06245
G01 X-20.74691 Y22.02334
G01 X-20.72306 Y22.01559
G01 X-20.55118 Y21.93906
G01 X-20.52946 Y21.92651
G01 X-20.37724 Y21.81592
G01 X-20.35860 Y21.79913
G01 X-20.23269 Y21.65930
G01 X-20.21796 Y21.63901
G01 X-20.12388 Y21.47607
G01 X-20.11367 Y21.45316
G01 X-20.06116 Y21.29159
G01 X-19.03480 Y20.26520
G01 X-19.02688 Y20.25649
G01 X-18.93361 Y20.14282
G01 X-18.92055 Y20.12327
G01 X-18.85124 Y19.99360
G01 X-18.84224 Y19.97188
G01 X-18.79955 Y19.83117
G01 X-18.79497 Y19.80810
G01 X-18.78055 Y19.66180
G01 X-18.77999 Y19.65001
G01 X-18.77999 Y16.21372
G01 X-18.76005 Y16.20308
G01 X-18.74049 Y16.19000
G01 X-18.51319 Y16.00346
G01 X-18.49655 Y15.98682
G01 X-18.31001 Y15.75952
G01 X-18.29693 Y15.73996
G01 X-18.15832 Y15.48063
G01 X-18.14933 Y15.45889
G01 X-18.06396 Y15.17750
G01 X-18.05937 Y15.15444
G01 X-18.03056 Y14.86181
G01 X-18.02998 Y14.85002
G01 X-18.02998 Y9.85001
G04 P0 ( dwell for no time -- G64 should not smooth over this point )
G00 Z5.00000 ( retract )

G00 X-12.63065 Y21.03746 ( rapid move to begin. )
G01 F150.00000
( Mill infeed pass 1/1 )
G01 Z-0.20000
G04 P0 ( dwell for no time -- G64 should not smooth over this point )
G01 F300.00000
G01 X-12.63065 Y21.03746
G01 X-12.65031 Y20.85034
G01 X-12.65552 Y20.82580
G01 X-12.71368 Y20.64686
G01 X-12.72387 Y20.62395
G01 X-12.81795 Y20.46101
G01 X-12.83271 Y20.44071
G01 X-12.95859 Y20.30089
G01 X-12.97723 Y20.28410
G01 X-13.12945 Y20.17351
G01 X-13.15117 Y20.16096
G01 X-13.32305 Y20.08443
G01 X-13.34693 Y20.07668
G01 X-13.40537 Y20.06426
G01 X-13.78000 Y19.68966
G01 X-13.78000 Y16.21372
G01 X-13.76006 Y16.20308
G01 X-13.74050 Y16.19000
G01 X-13.51320 Y16.00346
G01 X-13.49656 Y15.98682
G01 X-13.31002 Y15.75952
G01 X-13.29694 Y15.73996
G01 X-13.15833 Y15.48063
G01 X-13.14934 Y15.45889
G01 X-13.06397 Y15.17750
G01 X-13.05938 Y15.15444
G01 X-13.03057 Y14.86181
G01 X-13.02999 Y14.85002
G01 X-13.02999 Y9.85001
G01 X-13.03057 Y9.83825
G01 X-13.05938 Y9.54561
G01 X-13.06397 Y9.52255
G01 X-13.14934 Y9.24117
G01 X-13.15833 Y9.21943
G01 X-13.29694 Y8.96009
G01 X-13.31002 Y8.94053
G01 X-13.49656 Y8.71323
G01 X-13.51320 Y8.69659
G01 X-13.74050 Y8.51006
G01 X-13.76006 Y8.49697
G01 X-14.01939 Y8.35837
G01 X-14.04114 Y8.34937
G01 X-14.32252 Y8.26401
G01 X-14.34558 Y8.25941
G01 X-14.52145 Y8.24211
G01 X-14.54665 Y8.23675
G01 X-14.57159 Y8.23411
G01 X-14.60245 Y8.23411
G01 X-14.63821 Y8.23060
G01 X-14.66176 Y8.23060
G01 X-14.69752 Y8.23411
G01 X-14.72838 Y8.23411
G01 X-14.75333 Y8.23675
G01 X-14.77852 Y8.24211
G01 X-14.95439 Y8.25941
G01 X-14.97746 Y8.26401
G01 X-15.25884 Y8.34937
G01 X-15.28058 Y8.35837
G01 X-15.53991 Y8.49697
G01 X-15.55947 Y8.51006
G01 X-15.78678 Y8.69659
G01 X-15.80341 Y8.71323
G01 X-15.98995 Y8.94053
G01 X-16.00303 Y8.96009
G01 X-16.14164 Y9.21943
G01 X-16.15063 Y9.24117
G01 X-16.23600 Y9.52255
G01 X-16.24060 Y9.54561
G01 X-16.26940 Y9.83825
G01 X-16.26999 Y9.85001
G01 X-16.26999 Y14.85002
G01 X-16.26940 Y14.86181
G01 X-16.24060 Y15.15444
G01 X-16.23600 Y15.17750
G01 X-16.15063 Y15.45889
G01 X-16.14164 Y15.48063
G01 X-16.00303 Y15.73996
G01 X-15.98995 Y15.75952
G01 X-15.80341 Y15.98682
G01 X-15.78678 Y16.00346
G01 X-15.55947 Y16.19000
G01 X-15.53991 Y16.20308
G01 X-15.51997 Y16.21372
G01 X-15.51997 Y20.05001
G01 X-15.51942 Y20.06180
G01 X-15.50499 Y20.20810
G01 X-15.50042 Y20.23119
G01 X-15.45772 Y20.37188
G01 X-15.44873 Y20.39360
G01 X-15.37941 Y20.52326
G01 X-15.36636 Y20.54285
G01 X-15.27306 Y20.65649
G01 X-15.26516 Y20.66522
G01 X-14.63882 Y21.29154
G01 X-14.58630 Y21.45316
G01 X-14.57611 Y21.47607
G01 X-14.48203 Y21.63901
G01 X-14.46727 Y21.65930
G01 X-14.34139 Y21.79913
G01 X-14.32275 Y21.81592
G01 X-14.17052 Y21.92651
G01 X-14.14881 Y21.93906
G01 X-13.97690 Y22.01559
G01 X-13.95305 Y22.02334
G01 X-13.76900 Y22.06245
G01 X-13.74406 Y22.06507
G01 X-13.55592 Y22.06507
G01 X-13.53095 Y22.06245
G01 X-13.34693 Y22.02334
G01 X-13.32305 Y22.01559
G01 X-13.15117 Y21.93906
G01 X-13.12945 Y21.92651
G01 X-12.97723 Y21.81592
G01 X-12.95859 Y21.79913
G01 X-12.83271 Y21.65930
G01 X-12.81795 Y21.63901
G01 X-12.72387 Y21.47607
G01 X-12.71368 Y21.45316
G01 X-12.65552 Y21.27422
G01 X-12.65031 Y21.24968
G01 X-12.63065 Y21.06256
G01 X-12.63065 Y21.03746
G04 P0 ( dwell for no time -- G64 should not smooth over this point )
G00 Z5.00000 ( retract )

G00 X-5.03064 Y21.03746 ( rapid move to begin. )
G01 F150.00000
( Mill infeed pass 1/1 )
G01 Z-0.20000
G04 P0 ( dwell for no time -- G64 should not smooth over this point )
G01 F300.00000
G01 X-5.03064 Y21.03746
G01 X-5.05032 Y20.85034
G01 X-5.05553 Y20.82580
G01 X-5.11367 Y20.64686
G01 X-5.12388 Y20.62395
G01 X-5.21794 Y20.46101
G01 X-5.23270 Y20.44071
G01 X-5.35860 Y20.30089
G01 X-5.37725 Y20.28410
G01 X-5.52944 Y20.17351
G01 X-5.55119 Y20.16096
G01 X-5.72307 Y20.08443
G01 X-5.74692 Y20.07668
G01 X-5.80536 Y20.06426
G01 X-8.77998 Y17.08967
G01 X-8.77998 Y16.21372
G01 X-8.76004 Y16.20308
G01 X-8.74049 Y16.19000
G01 X-8.51318 Y16.00346
G01 X-8.49654 Y15.98682
G01 X-8.31001 Y15.75952
G01 X-8.29693 Y15.73996
G01 X-8.15832 Y15.48063
G01 X-8.14933 Y15.45889
G01 X-8.06396 Y15.17750
G01 X-8.05936 Y15.15444
G01 X-8.03056 Y14.86181
G01 X-8.02997 Y14.85002
G01 X-8.02997 Y9.85001
G01 X-8.03056 Y9.83825
G01 X-8.05936 Y9.54561
G01 X-8.06396 Y9.52255
G01 X-8.14933 Y9.24117
G01 X-8.15832 Y9.21943
G01 X-8.29693 Y8.96009
G01 X-8.31001 Y8.94053
G01 X-8.49654 Y8.71323
G01 X-8.51318 Y8.69659
G01 X-8.74049 Y8.51006
G01 X-8.76004 Y8.49697
G01 X-9.01938 Y8.35837
G01 X-9.04112 Y8.34937
G01 X-9.32250 Y8.26401
G01 X-9.34557 Y8.25941
G01 X-9.52146 Y8.24209
G01 X-9.54663 Y8.23675
G01 X-9.57160 Y8.23411
G01 X-9.60244 Y8.23411
G01 X-9.63820 Y8.23060
G01 X-9.66174 Y8.23060
G01 X-9.69751 Y8.23411
G01 X-9.72839 Y8.23411
G01 X-9.75334 Y8.23675
G01 X-9.77853 Y8.24211
G01 X-9.95438 Y8.25941
G01 X-9.97744 Y8.26401
G01 X-10.25882 Y8.34937
G01 X-10.28056 Y8.35837
G01 X-10.53990 Y8.49697
G01 X-10.55946 Y8.51006
G01 X-10.78676 Y8.69659
G01 X-10.80340 Y8.71323
G01 X-10.98994 Y8.94053
G01 X-11.00302 Y8.96009
G01 X-11.14162 Y9.21943
G01 X-11.15062 Y9.24117
G01 X-11.23599 Y9.52255
G01 X-11.24058 Y9.54561
G01 X-11.26939 Y9.83825
G01 X-11.26997 Y9.85001
G01 X-11.26997 Y14.85002
G01 X-11.26939 Y14.86181
G01 X-11.24058 Y15.15444
G01 X-11.23599 Y15.17750
G01 X-11.15062 Y15.45889
G01 X-11.14162 Y15.48063
G01 X-11.00302 Y15.73996
G01 X-10.98994 Y15.75952
G01 X-10.80340 Y15.98682
G01 X-10.78676 Y16.00346
G01 X-10.55946 Y16.19000
G01 X-10.53990 Y16.20308
G01 X-10.51996 Y16.21372
G01 X-10.51996 Y17.45002
G01 X-10.51940 Y17.46180
G01 X-10.50497 Y17.60811
G01 X-10.50040 Y17.63117
G01 X-10.45770 Y17.77189
G01 X-10.44871 Y17.79360
G01 X-10.37940 Y17.92327
G01 X-10.36634 Y17.94283
G01 X-10.27307 Y18.05649
G01 X-10.26515 Y18.06520
G01 X-7.03881 Y21.29156
G01 X-6.98631 Y21.45316
G01 X-6.97610 Y21.47607
G01 X-6.88202 Y21.63901
G01 X-6.86729 Y21.65930
G01 X-6.74138 Y21.79913
G01 X-6.72274 Y21.81592
G01 X-6.57051 Y21.92651
G01 X-6.54880 Y21.93906
G01 X-6.37691 Y22.01559
G01 X-6.35306 Y22.02334
G01 X-6.16902 Y22.06245
G01 X-6.14407 Y22.06507
G01 X-5.95591 Y22.06507
G01 X-5.93097 Y22.06245
G01 X-5.74692 Y22.02334
G01 X-5.72307 Y22.01559
G01 X-5.55119 Y21.93906
G01 X-5.52944 Y21.92651
G01 X-5.37725 Y21.81592
G01 X-5.35860 Y21.79913
G01 X-5.23270 Y21.65930
G01 X-5.21794 Y21.63901
G01 X-5.12388 Y21.47607
G01 X-5.11367 Y21.45316
G01 X-5.05553 Y21.27422
G01 X-5.05032 Y21.24968
G01 X-5.03064 Y21.06256
G01 X-5.03064 Y21.03746
G04 P0 ( dwell for no time -- G64 should not smooth over this point )
G00 Z5.00000 ( retract )

G00 X-8.60863 Y26.09148 ( rapid move to begin. )
G01 F150.00000
( Mill infeed pass 1/1 )
G01 Z-0.20000
G04 P0 ( dwell for no time -- G64 should not smooth over this point )
G01 F300.00000
G01 X-8.60863 Y26.09148
G01 X-8.63378 Y25.85236
G01 X-8.63899 Y25.82783
G01 X-8.71328 Y25.59918
G01 X-8.72349 Y25.57626
G01 X-8.84369 Y25.36806
G01 X-8.85844 Y25.34777
G01 X-9.01930 Y25.16910
G01 X-9.03795 Y25.15231
G01 X-9.23246 Y25.01101
G01 X-9.25418 Y24.99847
G01 X-9.47381 Y24.90068
G01 X-9.49766 Y24.89293
G01 X-9.73284 Y24.84294
G01 X-9.75778 Y24.84032
G01 X-9.99819 Y24.84032
G01 X-10.02314 Y24.84294
G01 X-10.25831 Y24.89293
G01 X-10.28216 Y24.90068
G01 X-10.50180 Y24.99847
G01 X-10.52352 Y25.01101
G01 X-10.71803 Y25.15231
G01 X-10.73667 Y25.16910
G01 X-10.79512 Y25.23402
G01 X-16.53285 Y25.23402
G01 X-16.59132 Y25.16910
G01 X-16.60997 Y25.15231
G01 X-16.80445 Y25.01101
G01 X-16.82617 Y24.99847
G01 X-17.04580 Y24.90068
G01 X-17.06968 Y24.89293
G01 X-17.30483 Y24.84294
G01 X-17.32978 Y24.84032
G01 X-17.57019 Y24.84032
G01 X-17.59515 Y24.84294
G01 X-17.83031 Y24.89293
G01 X-17.85416 Y24.90068
G01 X-18.07379 Y24.99847
G01 X-18.09551 Y25.01101
G01 X-18.29002 Y25.15231
G01 X-18.30867 Y25.16910
G01 X-18.36711 Y25.23402
G01 X-23.94686 Y25.23402
G01 X-24.00530 Y25.16910
G01 X-24.02395 Y25.15231
G01 X-24.21846 Y25.01101
G01 X-24.24018 Y24.99847
G01 X-24.45981 Y24.90068
G01 X-24.48366 Y24.89293
G01 X-24.71884 Y24.84294
G01 X-24.74378 Y24.84032
G01 X-24.98419 Y24.84032
