( pcb2gcode 2.4.0 )
( Software-independent Gcode )

G94 ( Millimeters per minute feed rate. )
G21 ( Units == Millimeters. )

G90 ( Absolute coordinates. )
G00 S20000 ( RPM spindle speed. )
G64 P0.05000 ( set maximum deviation from commanded toolpath )
G01 F300.00000 ( Feedrate. )


G00 Z40.00000 (Retract to tool change height)
T0
M5      (Spindle stop.)
G04 P1.00000 (Wait for spindle to stop)
(MSG, Change tool bit to mill diameter 0.24000mm)
M6      (Tool change.)
M0      (Temporary machine stop.)
M3 ( Spindle on clockwise. )
G04 P1.00000 (Wait for spindle to get up to speed)
G04 P0 ( dwell for no time -- G64 should not smooth over this point )
G00 Z5.00000 ( retract )

G00 X-7.24590 Y157.29934 ( rapid move to begin. )
G01 F150.00000
( Mill infeed pass 1/1 )
G01 Z-0.20000
G04 P0 ( dwell for no time -- G64 should not smooth over this point )
G01 F300.00000
G01 X-7.24590 Y157.29934
G01 X-7.26924 Y157.25266
G01 X-7.27872 Y157.24318
G01 X-7.32535 Y157.21987
G01 X-7.62644 Y157.21987
G01 X-7.67310 Y157.24321
G01 X-7.68258 Y157.25268
G01 X-7.70592 Y157.29934
G01 X-7.70592 Y157.39419
G01 X-7.24590 Y157.39419
G01 X-7.24590 Y157.29934
G04 P0 ( dwell for no time -- G64 should not smooth over this point )
G00 Z5.00000 ( retract )

G00 X-7.24590 Y158.65647 ( rapid move to begin. )
G01 F150.00000
( Mill infeed pass 1/1 )
G01 Z-0.20000
G04 P0 ( dwell for no time -- G64 should not smooth over this point )
G01 F300.00000
G01 X-7.24590 Y158.65647
G01 X-7.26924 Y158.60981
G01 X-7.27869 Y158.60036
G01 X-7.32535 Y158.57701
G01 X-7.62644 Y158.57701
G01 X-7.67313 Y158.60036
G01 X-7.68258 Y158.60983
G01 X-7.70592 Y158.65647
G01 X-7.70592 Y158.74328
G01 X-7.68258 Y158.78994
G01 X-7.67310 Y158.79942
G01 X-7.62644 Y158.82276
G01 X-7.32535 Y158.82276
G01 X-7.27872 Y158.79944
G01 X-7.26924 Y158.78997
G01 X-7.24590 Y158.74328
G01 X-7.24590 Y158.65647
G04 P0 ( dwell for no time -- G64 should not smooth over this point )
G00 Z5.00000 ( retract )

G00 X-9.12146 Y159.22383 ( rapid move to begin. )
G01 F150.00000
( Mill infeed pass 1/1 )
G01 Z-0.20000
G04 P0 ( dwell for no time -- G64 should not smooth over this point )
G01 F300.00000
G01 X-9.12146 Y159.22383
G01 X-9.12436 Y159.19456
G01 X-9.12893 Y159.17150
G01 X-9.13749 Y159.14336
G01 X-9.14648 Y159.12162
G01 X-9.16035 Y159.09571
G01 X-9.17340 Y159.07612
G01 X-9.19207 Y159.05342
G01 X-9.20871 Y159.03678
G01 X-9.23142 Y159.01811
G01 X-9.25100 Y159.00505
G01 X-9.27691 Y158.99119
G01 X-9.29865 Y158.98220
G01 X-9.32679 Y158.97364
G01 X-9.34986 Y158.96906
G01 X-9.37912 Y158.96617
G01 X-9.39090 Y158.96561
G01 X-10.89093 Y158.96561
G01 X-10.90269 Y158.96617
G01 X-10.93195 Y158.96906
G01 X-10.95501 Y158.97364
G01 X-10.98315 Y158.98220
G01 X-11.00490 Y158.99119
G01 X-11.03080 Y159.00505
G01 X-11.05039 Y159.01811
G01 X-11.07310 Y159.03678
G01 X-11.08973 Y159.05342
G01 X-11.10840 Y159.07612
G01 X-11.12146 Y159.09571
G01 X-11.13533 Y159.12162
G01 X-11.14432 Y159.14336
G01 X-11.15288 Y159.17150
G01 X-11.15745 Y159.19456
G01 X-11.16034 Y159.22383
G01 X-11.16034 Y159.24737
G01 X-11.15745 Y159.27663
G01 X-11.15288 Y159.29969
G01 X-11.14432 Y159.32784
G01 X-11.13533 Y159.34958
G01 X-11.12146 Y159.37549
G01 X-11.10840 Y159.39507
G01 X-11.08973 Y159.41778
G01 X-11.07310 Y159.43442
G01 X-11.05039 Y159.45309
G01 X-11.03080 Y159.46614
G01 X-11.00490 Y159.48001
G01 X-10.98315 Y159.48900
G01 X-10.95501 Y159.49756
G01 X-10.93195 Y159.50213
G01 X-10.90269 Y159.50503
G01 X-10.89093 Y159.50559
G01 X-9.39090 Y159.50559
G01 X-9.37912 Y159.50503
G01 X-9.34986 Y159.50213
G01 X-9.32679 Y159.49756
G01 X-9.29865 Y159.48900
G01 X-9.27691 Y159.48001
G01 X-9.25100 Y159.46614
G01 X-9.23142 Y159.45309
G01 X-9.20871 Y159.43442
G01 X-9.19207 Y159.41778
G01 X-9.17340 Y159.39507
G01 X-9.16035 Y159.37549
G01 X-9.14648 Y159.34958
G01 X-9.13749 Y159.32784
G01 X-9.12893 Y159.29969
G01 X-9.12436 Y159.27663
G01 X-9.12146 Y159.24737
G01 X-9.12146 Y159.22383
G01 X-9.12123 Y160.80752
G01 X-9.12298 Y160.83766
G01 X-9.12679 Y160.86152
G01 X-9.13454 Y160.89073
G01 X-9.14308 Y160.91333
G01 X-9.15651 Y160.94038
G01 X-9.16939 Y160.96083
G01 X-9.18798 Y160.98463
G01 X-9.20470 Y161.00210
G01 X-9.22768 Y161.02169
G01 X-9.24757 Y161.03543
G01 X-9.27401 Y161.05003
G01 X-9.29624 Y161.05953
G01 X-9.32507 Y161.06853
G01 X-9.34877 Y161.07338
G01 X-9.37881 Y161.07640
G01 X-9.39090 Y161.07701
G01 X-10.89093 Y161.07701
G01 X-10.90269 Y161.07645
G01 X-10.93195 Y161.07355
G01 X-10.95501 Y161.06898
G01 X-10.98315 Y161.06042
G01 X-11.00490 Y161.05143
G01 X-11.03080 Y161.03756
G01 X-11.05039 Y161.02451
G01 X-11.07310 Y161.00584
G01 X-11.08973 Y160.98920
G01 X-11.10840 Y160.96649
G01 X-11.12146 Y160.94691
G01 X-11.13533 Y160.92100
G01 X-11.14432 Y160.89926
G01 X-11.15288 Y160.87112
G01 X-11.15745 Y160.84805
G01 X-11.16034 Y160.81879
G01 X-11.16034 Y160.79525
G01 X-11.15745 Y160.76599
G01 X-11.15288 Y160.74292
G01 X-11.14432 Y160.71478
G01 X-11.13533 Y160.69304
G01 X-11.12146 Y160.66713
G01 X-11.10840 Y160.64755
G01 X-11.08973 Y160.62484
G01 X-11.07310 Y160.60820
G01 X-11.05039 Y160.58953
G01 X-11.03080 Y160.57648
G01 X-11.00490 Y160.56261
G01 X-10.98315 Y160.55362
G01 X-10.95501 Y160.54506
G01 X-10.93195 Y160.54048
G01 X-10.90269 Y160.53759
G01 X-10.89093 Y160.53703
G01 X-10.40759 Y160.53703
G01 X-11.02486 Y160.18430
G01 X-11.03507 Y160.17777
G01 X-11.05963 Y160.16022
G01 X-11.07779 Y160.14427
G01 X-11.09837 Y160.12215
G01 X-11.11295 Y160.10289
G01 X-11.12867 Y160.07709
G01 X-11.13911 Y160.05529
G01 X-11.14935 Y160.02687
G01 X-11.15521 Y160.00343
G01 X-11.15953 Y159.97353
G01 X-11.16057 Y159.94938
G01 X-11.15882 Y159.91923
G01 X-11.15501 Y159.89538
G01 X-11.14726 Y159.86617
G01 X-11.13873 Y159.84356
G01 X-11.12529 Y159.81651
G01 X-11.11241 Y159.79606
G01 X-11.09382 Y159.77226
G01 X-11.07711 Y159.75479
G01 X-11.05412 Y159.73520
G01 X-11.03423 Y159.72146
G01 X-11.00779 Y159.70686
G01 X-10.98557 Y159.69736
G01 X-10.95674 Y159.68837
G01 X-10.93304 Y159.68351
G01 X-10.90299 Y159.68049
G01 X-10.89093 Y159.67988
G01 X-9.39090 Y159.67988
G01 X-9.37912 Y159.68044
G01 X-9.34986 Y159.68334
G01 X-9.32679 Y159.68791
G01 X-9.29865 Y159.69647
G01 X-9.27691 Y159.70546
G01 X-9.25100 Y159.71933
G01 X-9.23142 Y159.73238
G01 X-9.20871 Y159.75105
G01 X-9.19207 Y159.76769
G01 X-9.17340 Y159.79040
G01 X-9.16035 Y159.80998
G01 X-9.14648 Y159.83589
G01 X-9.13749 Y159.85763
G01 X-9.12893 Y159.88577
G01 X-9.12436 Y159.90884
G01 X-9.12146 Y159.93810
G01 X-9.12146 Y159.96164
G01 X-9.12436 Y159.99091
G01 X-9.12893 Y160.01397
G01 X-9.13749 Y160.04211
G01 X-9.14648 Y160.06385
G01 X-9.16035 Y160.08976
G01 X-9.17340 Y160.10935
G01 X-9.19207 Y160.13205
G01 X-9.20871 Y160.14869
G01 X-9.23142 Y160.16736
G01 X-9.25100 Y160.18041
G01 X-9.27691 Y160.19428
G01 X-9.29865 Y160.20327
G01 X-9.32679 Y160.21183
G01 X-9.34986 Y160.21641
G01 X-9.37912 Y160.21930
G01 X-9.39090 Y160.21986
G01 X-9.87422 Y160.21986
G01 X-9.25694 Y160.57259
G01 X-9.24673 Y160.57912
G01 X-9.22217 Y160.59667
G01 X-9.20401 Y160.61262
G01 X-9.18344 Y160.63474
G01 X-9.16886 Y160.65400
G01 X-9.15313 Y160.67980
G01 X-9.14270 Y160.70160
G01 X-9.13246 Y160.73002
G01 X-9.12659 Y160.75346
G01 X-9.12227 Y160.78336
G01 X-9.12123 Y160.80752
G04 P0 ( dwell for no time -- G64 should not smooth over this point )
G00 Z5.00000 ( retract )

G00 X-6.70648 Y161.29525 ( rapid move to begin. )
G01 F150.00000
( Mill infeed pass 1/1 )
G01 Z-0.20000
G04 P0 ( dwell for no time -- G64 should not smooth over this point )
G01 F300.00000
G01 X-6.70648 Y161.29525
G01 X-6.70938 Y161.26599
G01 X-6.71395 Y161.24292
G01 X-6.72251 Y161.21478
G01 X-6.73150 Y161.19304
G01 X-6.74537 Y161.16713
G01 X-6.75842 Y161.14755
G01 X-6.77709 Y161.12484
G01 X-6.79373 Y161.10820
G01 X-6.81644 Y161.08953
G01 X-6.83602 Y161.07648
G01 X-6.86193 Y161.06261
G01 X-6.88367 Y161.05362
G01 X-6.91181 Y161.04506
G01 X-6.93488 Y161.04048
G01 X-6.96414 Y161.03759
G01 X-6.97592 Y161.03703
G01 X-7.97592 Y161.03703
G01 X-7.98768 Y161.03759
G01 X-8.01694 Y161.04048
G01 X-8.04001 Y161.04506
G01 X-8.06815 Y161.05362
G01 X-8.08989 Y161.06261
G01 X-8.11580 Y161.07648
G01 X-8.12324 Y161.08143
G01 X-8.13538 Y161.08953
G01 X-8.15809 Y161.10820
G01 X-8.17473 Y161.12484
G01 X-8.19340 Y161.14755
G01 X-8.20645 Y161.16713
G01 X-8.22032 Y161.19304
G01 X-8.22931 Y161.21478
G01 X-8.23787 Y161.24292
G01 X-8.24244 Y161.26599
G01 X-8.24534 Y161.29525
G01 X-8.24534 Y161.31879
G01 X-8.24244 Y161.34805
G01 X-8.23787 Y161.37112
G01 X-8.22931 Y161.39926
G01 X-8.22316 Y161.41412
G01 X-8.23472 Y161.44597
G01 X-8.24110 Y161.47300
G01 X-8.24511 Y161.50744
G01 X-8.24590 Y161.52131
G01 X-8.24590 Y161.73558
G01 X-8.24511 Y161.74947
G01 X-8.24110 Y161.78394
G01 X-8.23472 Y161.81094
G01 X-8.22289 Y161.84356
G01 X-8.21740 Y161.85633
G01 X-8.14597 Y161.99918
G01 X-8.13962 Y162.01036
G01 X-8.12228 Y162.03738
G01 X-8.10615 Y162.05740
G01 X-8.08344 Y162.08011
G01 X-8.06345 Y162.09621
G01 X-8.03642 Y162.11356
G01 X-8.02525 Y162.11993
G01 X-7.88237 Y162.19138
G01 X-7.86960 Y162.19687
G01 X-7.83698 Y162.20871
G01 X-7.80996 Y162.21508
G01 X-7.77549 Y162.21909
G01 X-7.76162 Y162.21988
G01 X-6.97592 Y162.21988
G01 X-6.96414 Y162.21932
G01 X-6.93488 Y162.21643
G01 X-6.91181 Y162.21186
G01 X-6.88367 Y162.20330
G01 X-6.86193 Y162.19430
G01 X-6.83602 Y162.18044
G01 X-6.81644 Y162.16738
G01 X-6.79373 Y162.14871
G01 X-6.77709 Y162.13207
G01 X-6.75842 Y162.10937
G01 X-6.74537 Y162.08978
G01 X-6.73150 Y162.06388
G01 X-6.72251 Y162.04213
G01 X-6.71395 Y162.01399
G01 X-6.70938 Y161.99093
G01 X-6.70648 Y161.96167
G01 X-6.70648 Y161.93812
G01 X-6.70938 Y161.90886
G01 X-6.71395 Y161.88580
G01 X-6.72251 Y161.85765
G01 X-6.73150 Y161.83591
G01 X-6.74537 Y161.81000
G01 X-6.75842 Y161.79042
G01 X-6.77709 Y161.76771
G01 X-6.79373 Y161.75107
G01 X-6.81644 Y161.73241
G01 X-6.83602 Y161.71935
G01 X-6.86193 Y161.70548
G01 X-6.88367 Y161.69649
G01 X-6.91181 Y161.68793
G01 X-6.93488 Y161.68336
G01 X-6.96414 Y161.68046
G01 X-6.97592 Y161.67990
G01 X-7.69787 Y161.67990
G01 X-7.70323 Y161.67721
G01 X-7.70592 Y161.67185
G01 X-7.70592 Y161.58503
G01 X-7.70191 Y161.57701
G01 X-6.97592 Y161.57701
G01 X-6.96414 Y161.57645
G01 X-6.93488 Y161.57355
G01 X-6.91181 Y161.56898
G01 X-6.88367 Y161.56042
G01 X-6.86193 Y161.55143
G01 X-6.83602 Y161.53756
G01 X-6.81644 Y161.52451
G01 X-6.79373 Y161.50584
G01 X-6.77709 Y161.48920
G01 X-6.75842 Y161.46649
G01 X-6.74537 Y161.44691
G01 X-6.73150 Y161.42100
G01 X-6.72251 Y161.39926
G01 X-6.71395 Y161.37112
G01 X-6.70938 Y161.34805
G01 X-6.70648 Y161.31879
G01 X-6.70648 Y161.29525
G01 X-6.70623 Y159.87897
G01 X-6.70767 Y159.85039
G01 X-6.71103 Y159.82776
G01 X-6.71788 Y159.80000
G01 X-6.72545 Y159.77841
G01 X-6.73747 Y159.75245
G01 X-6.74900 Y159.73269
G01 X-6.76571 Y159.70947
G01 X-6.78080 Y159.69225
G01 X-6.80160 Y159.67264
G01 X-6.81969 Y159.65860
G01 X-6.84384 Y159.64331
G01 X-6.86426 Y159.63294
G01 X-6.89088 Y159.62250
G01 X-6.90173 Y159.61885
G01 X-7.90173 Y159.33315
G01 X-7.91321 Y159.33045
G01 X-7.94214 Y159.32520
G01 X-7.96558 Y159.32327
G01 X-7.99497 Y159.32375
G01 X-8.01834 Y159.32644
G01 X-8.04709 Y159.33264
G01 X-8.04841 Y159.33307
G01 X-8.06949 Y159.33983
G01 X-8.09647 Y159.35151
G01 X-8.11704 Y159.36294
G01 X-8.14122 Y159.37968
G01 X-8.15916 Y159.39489
G01 X-8.17960 Y159.41603
G01 X-8.19423 Y159.43444
G01 X-8.21019 Y159.45916
G01 X-8.22093 Y159.48009
G01 X-8.23172 Y159.50742
G01 X-8.23820 Y159.53005
G01 X-8.24346 Y159.55898
G01 X-8.24539 Y159.58242
G01 X-8.24491 Y159.61181
G01 X-8.24221 Y159.63518
G01 X-8.23602 Y159.66393
G01 X-8.22883 Y159.68633
G01 X-8.21714 Y159.71331
G01 X-8.20571 Y159.73388
G01 X-8.18898 Y159.75806
G01 X-8.17376 Y159.77600
G01 X-8.15263 Y159.79644
G01 X-8.13421 Y159.81107
G01 X-8.10950 Y159.82702
G01 X-8.08857 Y159.83777
G01 X-8.06124 Y159.84856
G01 X-8.05009 Y159.85235
G01 X-7.80747 Y159.92166
G01 X-7.82764 Y159.93216
G01 X-7.84752 Y159.94516
G01 X-7.87066 Y159.96380
G01 X-7.88761 Y159.98047
G01 X-7.90660 Y160.00330
G01 X-7.91994 Y160.02299
G01 X-7.93406 Y160.04910
G01 X-7.94326 Y160.07102
G01 X-7.95197 Y160.09941
G01 X-7.95664 Y160.12273
G01 X-7.95959 Y160.15230
G01 X-7.95959 Y160.17605
G01 X-7.95664 Y160.20561
G01 X-7.95197 Y160.22893
G01 X-7.94326 Y160.25733
G01 X-7.93406 Y160.27925
G01 X-7.91994 Y160.30536
G01 X-7.90660 Y160.32504
G01 X-7.88761 Y160.34788
G01 X-7.87066 Y160.36454
G01 X-7.84752 Y160.38318
G01 X-7.82764 Y160.39619
G01 X-7.80747 Y160.40668
G01 X-8.05009 Y160.47599
G01 X-8.06124 Y160.47978
G01 X-8.08857 Y160.49057
G01 X-8.10950 Y160.50132
G01 X-8.13421 Y160.51727
G01 X-8.15263 Y160.53190
G01 X-8.17376 Y160.55235
G01 X-8.18898 Y160.57028
G01 X-8.20571 Y160.59446
G01 X-8.21714 Y160.61503
G01 X-8.22883 Y160.64201
G01 X-8.23602 Y160.66441
G01 X-8.24221 Y160.69316
G01 X-8.24491 Y160.71653
G01 X-8.24539 Y160.74592
G01 X-8.24346 Y160.76936
G01 X-8.23820 Y160.79829
G01 X-8.23172 Y160.82093
G01 X-8.22093 Y160.84826
G01 X-8.21019 Y160.86919
G01 X-8.19423 Y160.89390
G01 X-8.17960 Y160.91232
G01 X-8.15916 Y160.93345
G01 X-8.14122 Y160.94866
G01 X-8.11704 Y160.96540
G01 X-8.09647 Y160.97683
G01 X-8.06949 Y160.98852
G01 X-8.04709 Y160.99570
G01 X-8.01834 Y161.00190
G01 X-7.99497 Y161.00459
G01 X-7.96558 Y161.00508
G01 X-7.94214 Y161.00315
G01 X-7.91321 Y160.99789
G01 X-7.90173 Y160.99520
G01 X-6.90173 Y160.70950
G01 X-6.89088 Y160.70584
G01 X-6.86426 Y160.69540
G01 X-6.84384 Y160.68504
G01 X-6.81969 Y160.66975
G01 X-6.80160 Y160.65570
G01 X-6.78080 Y160.63609
G01 X-6.76571 Y160.61887
G01 X-6.74900 Y160.59565
G01 X-6.73747 Y160.57589
G01 X-6.72545 Y160.54993
G01 X-6.71788 Y160.52834
G01 X-6.71103 Y160.50058
G01 X-6.70767 Y160.47795
G01 X-6.70623 Y160.44938
G01 X-6.70724 Y160.42652
G01 X-6.71123 Y160.39819
G01 X-6.71656 Y160.37594
G01 X-6.72583 Y160.34889
G01 X-6.73531 Y160.32804
G01 X-6.74956 Y160.30325
G01 X-6.76282 Y160.28458
G01 X-6.78151 Y160.26296
G01 X-6.79807 Y160.24714
G01 X-6.82055 Y160.22946
G01 X-6.83978 Y160.21707
G01 X-6.86520 Y160.20396
G01 X-6.87562 Y160.19921
G01 X-6.96322 Y160.16416
G01 X-6.87562 Y160.12913
G01 X-6.86520 Y160.12438
G01 X-6.83978 Y160.11128
G01 X-6.82055 Y160.09888
G01 X-6.79807 Y160.08120
G01 X-6.78151 Y160.06538
G01 X-6.76282 Y160.04376
G01 X-6.74956 Y160.02509
G01 X-6.73531 Y160.00030
G01 X-6.72583 Y159.97945
G01 X-6.71656 Y159.95240
G01 X-6.71123 Y159.93015
G01 X-6.70724 Y159.90183
G01 X-6.70623 Y159.87897
G01 X-6.70592 Y158.59274
G01 X-6.70671 Y158.57887
G01 X-6.71072 Y158.54443
G01 X-6.71710 Y158.51740
G01 X-6.72893 Y158.48479
G01 X-6.73439 Y158.47201
G01 X-6.80582 Y158.32914
G01 X-6.81049 Y158.32070
G01 X-6.82296 Y158.30005
G01 X-6.83424 Y158.28441
G01 X-6.84986 Y158.26604
G01 X-6.85642 Y158.25896
G01 X-6.92784 Y158.18753
G01 X-6.93493 Y158.18098
G01 X-6.95329 Y158.16536
G01 X-6.96894 Y158.15408
G01 X-6.98956 Y158.14161
G01 X-6.99802 Y158.13696
G01 X-7.14087 Y158.06553
G01 X-7.15365 Y158.06005
G01 X-7.18626 Y158.04821
G01 X-7.21326 Y158.04184
G01 X-7.24773 Y158.03782
G01 X-7.26162 Y158.03704
G01 X-7.69020 Y158.03704
G01 X-7.70406 Y158.03782
G01 X-7.73853 Y158.04184
G01 X-7.76553 Y158.04821
G01 X-7.77706 Y158.05240
G01 X-7.79815 Y158.06005
G01 X-7.81092 Y158.06553
G01 X-7.95377 Y158.13696
G01 X-7.96223 Y158.14161
G01 X-7.98283 Y158.15408
G01 X-7.99848 Y158.16536
G01 X-8.01684 Y158.18095
G01 X-8.02393 Y158.18751
G01 X-8.09538 Y158.25893
G01 X-8.10193 Y158.26602
G01 X-8.11755 Y158.28438
G01 X-8.12883 Y158.30005
G01 X-8.14133 Y158.32068
G01 X-8.14600 Y158.32914
G01 X-8.21742 Y158.47201
G01 X-8.22289 Y158.48479
G01 X-8.23472 Y158.51740
G01 X-8.24110 Y158.54443
G01 X-8.24511 Y158.57887
G01 X-8.24590 Y158.59274
G01 X-8.24590 Y158.80701
G01 X-8.24511 Y158.82091
G01 X-8.24110 Y158.85537
G01 X-8.23472 Y158.88237
G01 X-8.22289 Y158.91499
G01 X-8.21740 Y158.92776
G01 X-8.14597 Y159.07061
G01 X-8.14133 Y159.07907
G01 X-8.12885 Y159.09970
G01 X-8.11758 Y159.11534
G01 X-8.10196 Y159.13371
G01 X-8.09540 Y159.14079
G01 X-8.02395 Y159.21224
G01 X-8.01913 Y159.21669
G01 X-8.01687 Y159.21880
G01 X-7.99850 Y159.23442
G01 X-7.98286 Y159.24569
G01 X-7.96223 Y159.25817
G01 X-7.95377 Y159.26281
G01 X-7.81092 Y159.33424
G01 X-7.79815 Y159.33973
G01 X-7.76553 Y159.35156
G01 X-7.73853 Y159.35794
G01 X-7.70406 Y159.36195
G01 X-7.69020 Y159.36274
G01 X-7.26162 Y159.36274
G01 X-7.24773 Y159.36195
G01 X-7.21326 Y159.35794
G01 X-7.18626 Y159.35156
G01 X-7.15365 Y159.33973
G01 X-7.14087 Y159.33424
G01 X-6.99802 Y159.26281
G01 X-6.98956 Y159.25817
G01 X-6.96891 Y159.24567
G01 X-6.95327 Y159.23439
G01 X-6.93490 Y159.21875
G01 X-6.92782 Y159.21222
G01 X-6.85639 Y159.14077
G01 X-6.84984 Y159.13368
G01 X-6.83424 Y159.11532
G01 X-6.82296 Y159.09967
G01 X-6.81049 Y159.07907
G01 X-6.80584 Y159.07061
G01 X-6.73442 Y158.92776
G01 X-6.72893 Y158.91499
G01 X-6.71710 Y158.88237
G01 X-6.71072 Y158.85537
G01 X-6.70671 Y158.82091
G01 X-6.70592 Y158.80701
G01 X-6.70592 Y157.23559
G01 X-6.70592 Y157.52129
G01 X-6.70671 Y157.53518
G01 X-6.71072 Y157.56962
G01 X-6.71618 Y157.59274
G01 X-6.71395 Y157.60008
G01 X-6.70938 Y157.62314
G01 X-6.70648 Y157.65240
G01 X-6.70648 Y157.67595
G01 X-6.70938 Y157.70521
G01 X-6.71395 Y157.72827
G01 X-6.72251 Y157.75642
G01 X-6.73150 Y157.77816
G01 X-6.74537 Y157.80407
G01 X-6.75842 Y157.82365
G01 X-6.77709 Y157.84636
G01 X-6.79373 Y157.86299
G01 X-6.81644 Y157.88166
G01 X-6.83602 Y157.89472
G01 X-6.86193 Y157.90859
G01 X-6.88367 Y157.91758
G01 X-6.91181 Y157.92614
G01 X-6.93488 Y157.93071
G01 X-6.96414 Y157.93361
G01 X-6.97592 Y157.93417
G01 X-8.47592 Y157.93417
G01 X-8.48768 Y157.93361
G01 X-8.51694 Y157.93071
G01 X-8.54000 Y157.92614
G01 X-8.56815 Y157.91758
G01 X-8.58989 Y157.90859
G01 X-8.61580 Y157.89472
G01 X-8.63538 Y157.88166
G01 X-8.65809 Y157.86299
G01 X-8.67473 Y157.84636
G01 X-8.69339 Y157.82365
G01 X-8.70645 Y157.80407
G01 X-8.72032 Y157.77816
G01 X-8.72931 Y157.75642
G01 X-8.73787 Y157.72827
G01 X-8.74244 Y157.70521
G01 X-8.74534 Y157.67595
G01 X-8.74534 Y157.65240
G01 X-8.74244 Y157.62314
G01 X-8.73787 Y157.60008
G01 X-8.72931 Y157.57194
G01 X-8.72032 Y157.55019
G01 X-8.70645 Y157.52429
G01 X-8.69339 Y157.50470
G01 X-8.67473 Y157.48199
G01 X-8.65809 Y157.46536
G01 X-8.63538 Y157.44669
G01 X-8.61580 Y157.43363
G01 X-8.58989 Y157.41976
G01 X-8.56815 Y157.41077
G01 X-8.54000 Y157.40221
G01 X-8.51694 Y157.39764
G01 X-8.48768 Y157.39475
G01 X-8.47592 Y157.39419
G01 X-8.24590 Y157.39419
G01 X-8.24590 Y157.23559
G01 X-8.24511 Y157.22172
G01 X-8.24110 Y157.18725
G01 X-8.23472 Y157.16025
G01 X-8.22289 Y157.12764
G01 X-8.21740 Y157.11486
G01 X-8.14597 Y156.97201
G01 X-8.14133 Y156.96356
G01 X-8.12885 Y156.94293
G01 X-8.11758 Y156.92728
G01 X-8.10196 Y156.90892
G01 X-8.09540 Y156.90183
G01 X-8.02395 Y156.83038
G01 X-8.01687 Y156.82383
G01 X-7.99850 Y156.80821
G01 X-7.98286 Y156.79693
G01 X-7.96223 Y156.78446
G01 X-7.95377 Y156.77981
G01 X-7.81092 Y156.70839
G01 X-7.79815 Y156.70290
G01 X-7.76553 Y156.69106
G01 X-7.73853 Y156.68469
G01 X-7.70406 Y156.68068
G01 X-7.69020 Y156.67989
G01 X-7.26162 Y156.67989
G01 X-7.24773 Y156.68068
G01 X-7.21326 Y156.68469
G01 X-7.18626 Y156.69106
G01 X-7.15365 Y156.70290
G01 X-7.14087 Y156.70839
G01 X-6.99802 Y156.77981
G01 X-6.98956 Y156.78446
G01 X-6.96891 Y156.79696
G01 X-6.95327 Y156.80823
G01 X-6.93490 Y156.82388
G01 X-6.93274 Y156.82586
G01 X-6.92782 Y156.83041
G01 X-6.85639 Y156.90186
G01 X-6.84984 Y156.90895
G01 X-6.83424 Y156.92731
G01 X-6.82296 Y156.94296
G01 X-6.81049 Y156.96356
G01 X-6.80584 Y156.97201
G01 X-6.73442 Y157.11486
G01 X-6.72893 Y157.12764
G01 X-6.71710 Y157.16025
G01 X-6.71072 Y157.18725
G01 X-6.70671 Y157.22172
G01 X-6.70592 Y157.23559
G01 X-6.70633 Y156.44250
G01 X-6.70800 Y156.41906
G01 X-6.71296 Y156.39005
G01 X-6.71915 Y156.36737
G01 X-6.72967 Y156.33991
G01 X-6.73442 Y156.32914
G01 X-6.80584 Y156.18629
G01 X-6.81219 Y156.17509
G01 X-6.82954 Y156.14809
G01 X-6.84567 Y156.12807
G01 X-6.86838 Y156.10537
G01 X-6.88839 Y156.08924
G01 X-6.91539 Y156.07189
G01 X-6.92660 Y156.06554
G01 X-7.06945 Y155.99411
G01 X-7.08222 Y155.98863
G01 X-7.11484 Y155.97679
G01 X-7.14184 Y155.97042
G01 X-7.17630 Y155.96640
G01 X-7.19020 Y155.96561
G01 X-8.47592 Y155.96561
G01 X-8.48768 Y155.96617
G01 X-8.51694 Y155.96907
G01 X-8.54000 Y155.97364
G01 X-8.56815 Y155.98220
G01 X-8.58989 Y155.99119
G01 X-8.61580 Y156.00506
G01 X-8.63538 Y156.01812
G01 X-8.65809 Y156.03679
G01 X-8.67473 Y156.05342
G01 X-8.69339 Y156.07613
G01 X-8.70645 Y156.09571
G01 X-8.72032 Y156.12162
G01 X-8.72931 Y156.14336
G01 X-8.73787 Y156.17151
G01 X-8.74244 Y156.19457
G01 X-8.74534 Y156.22383
G01 X-8.74534 Y156.24738
G01 X-8.74244 Y156.27664
G01 X-8.73787 Y156.29970
G01 X-8.72931 Y156.32784
G01 X-8.72032 Y156.34959
G01 X-8.70645 Y156.37549
G01 X-8.69339 Y156.39508
G01 X-8.67473 Y156.41779
G01 X-8.65809 Y156.43442
G01 X-8.63538 Y156.45309
G01 X-8.61580 Y156.46615
G01 X-8.58989 Y156.48002
G01 X-8.56815 Y156.48901
G01 X-8.54000 Y156.49757
G01 X-8.51694 Y156.50214
G01 X-8.48768 Y156.50503
G01 X-8.47592 Y156.50559
G01 X-7.25393 Y156.50559
G01 X-7.24859 Y156.50829
G01 X-7.21740 Y156.57062
G01 X-7.21163 Y156.58088
G01 X-7.19596 Y156.60577
G01 X-7.18154 Y156.62436
G01 X-7.16132 Y156.64570
G01 X-7.14356 Y156.66112
G01 X-7.11956 Y156.67811
G01 X-7.09911 Y156.68977
G01 X-7.07227 Y156.70176
G01 X-7.04994 Y156.70920
G01 X-7.02129 Y156.71570
G01 X-6.99794 Y156.71865
G01 X-6.96853 Y156.71946
G01 X-6.94509 Y156.71779
G01 X-6.91608 Y156.71283
G01 X-6.90363 Y156.70943
G01 X-6.89340 Y156.70663
G01 X-6.86594 Y156.69612
G01 X-6.84491 Y156.68560
G01 X-6.82002 Y156.66993
G01 X-6.80143 Y156.65550
G01 X-6.78009 Y156.63529
G01 X-6.76467 Y156.61753
G01 X-6.74768 Y156.59353
G01 X-6.73602 Y156.57308
G01 X-6.72403 Y156.54623
G01 X-6.71659 Y156.52391
G01 X-6.71009 Y156.49526
G01 X-6.70714 Y156.47191
G01 X-6.70633 Y156.44250
G01 X-6.70633 Y155.65683
G01 X-6.70800 Y155.63336
G01 X-6.71296 Y155.60438
G01 X-6.71915 Y155.58169
G01 X-6.72967 Y155.55424
G01 X-6.73439 Y155.54344
G01 X-6.80582 Y155.40057
G01 X-6.81219 Y155.38939
G01 X-6.82954 Y155.36236
G01 X-6.84567 Y155.34235
G01 X-6.86838 Y155.31964
G01 X-6.88837 Y155.30354
G01 X-6.91539 Y155.28616
G01 X-6.92660 Y155.27981
G01 X-7.06945 Y155.20839
G01 X-7.08222 Y155.20290
G01 X-7.11484 Y155.19107
G01 X-7.14184 Y155.18469
G01 X-7.17630 Y155.18068
G01 X-7.19020 Y155.17989
G01 X-8.47592 Y155.17989
G01 X-8.48768 Y155.18045
G01 X-8.51694 Y155.18335
G01 X-8.54000 Y155.18792
G01 X-8.56815 Y155.19648
G01 X-8.58989 Y155.20547
G01 X-8.61580 Y155.21934
G01 X-8.63538 Y155.23239
G01 X-8.65809 Y155.25106
G01 X-8.67473 Y155.26770
G01 X-8.69339 Y155.29041
G01 X-8.70645 Y155.30999
G01 X-8.72032 Y155.33590
G01 X-8.72931 Y155.35764
G01 X-8.73787 Y155.38578
G01 X-8.74244 Y155.40885
G01 X-8.74534 Y155.43811
G01 X-8.74534 Y155.46165
G01 X-8.74244 Y155.49091
G01 X-8.73787 Y155.51398
G01 X-8.72931 Y155.54212
G01 X-8.72032 Y155.56386
G01 X-8.70645 Y155.58977
G01 X-8.69339 Y155.60935
G01 X-8.67473 Y155.63206
G01 X-8.65809 Y155.64870
G01 X-8.63538 Y155.66737
G01 X-8.61580 Y155.68042
G01 X-8.58989 Y155.69429
G01 X-8.56815 Y155.70328
G01 X-8.54000 Y155.71184
G01 X-8.51694 Y155.71642
G01 X-8.48768 Y155.71931
G01 X-8.47592 Y155.71987
G01 X-7.25393 Y155.71987
G01 X-7.24859 Y155.72254
G01 X-7.21743 Y155.78492
G01 X-7.21163 Y155.79518
G01 X-7.19596 Y155.82005
G01 X-7.18156 Y155.83864
G01 X-7.16134 Y155.86000
G01 X-7.14356 Y155.87542
G01 X-7.11956 Y155.89241
G01 X-7.09914 Y155.90407
G01 X-7.07229 Y155.91606
G01 X-7.04996 Y155.92350
G01 X-7.02129 Y155.93000
G01 X-6.99794 Y155.93295
G01 X-6.96856 Y155.93376
G01 X-6.94509 Y155.93209
G01 X-6.91611 Y155.92713
G01 X-6.89342 Y155.92094
G01 X-6.86597 Y155.91042
G01 X-6.84491 Y155.89990
G01 X-6.82004 Y155.88423
G01 X-6.80145 Y155.86983
G01 X-6.78009 Y155.84961
G01 X-6.76467 Y155.83183
G01 X-6.74768 Y155.80783
G01 X-6.73602 Y155.78741
G01 X-6.72403 Y155.76056
G01 X-6.71659 Y155.73823
G01 X-6.71009 Y155.70956
G01 X-6.70714 Y155.68621
G01 X-6.70633 Y155.65683
G01 X-6.70597 Y154.52244
G01 X-6.70592 Y154.30702
G01 X-6.26178 Y152.89915
G01 X-6.20648 Y152.72381
G01 X-6.20938 Y152.69458
G01 X-6.21395 Y152.67149
G01 X-6.22251 Y152.64337
G01 X-6.23150 Y152.62160
G01 X-6.24537 Y152.59572
G01 X-6.25842 Y152.57611
G01 X-6.27709 Y152.55343
G01 X-6.29373 Y152.53677
G01 X-6.31644 Y152.51812
G01 X-6.33602 Y152.50504
G01 X-6.36193 Y152.49117
G01 X-6.38367 Y152.48218
G01 X-6.41181 Y152.47362
G01 X-6.43488 Y152.46905
G01 X-6.46414 Y152.46616
G01 X-6.47592 Y152.46560
G01 X-7.97592 Y152.46560
G01 X-7.98768 Y152.46616
G01 X-8.01694 Y152.46905
G01 X-8.04001 Y152.47362
G01 X-8.06815 Y152.48218
G01 X-8.08989 Y152.49117
G01 X-8.11580 Y152.50504
G01 X-8.13538 Y152.51812
G01 X-8.15809 Y152.53677
G01 X-8.17473 Y152.55343
G01 X-8.19340 Y152.57611
G01 X-8.20645 Y152.59572
G01 X-8.22032 Y152.62160
G01 X-8.22931 Y152.64337
G01 X-8.23787 Y152.67149
G01 X-8.24244 Y152.69458
G01 X-8.24534 Y152.72381
G01 X-8.24534 Y152.74736
G01 X-8.24244 Y152.77664
G01 X-8.23787 Y152.79968
G01 X-8.23564 Y152.80702
G01 X-8.24110 Y152.83014
G01 X-8.24511 Y152.86458
G01 X-8.24590 Y152.87845
G01 X-8.24590 Y153.16415
G01 X-8.24511 Y153.17804
G01 X-8.24110 Y153.21248
G01 X-8.23472 Y153.23951
G01 X-8.22289 Y153.27212
G01 X-8.21742 Y153.28490
G01 X-8.14600 Y153.42777
G01 X-8.14133 Y153.43623
G01 X-8.12883 Y153.45686
G01 X-8.11755 Y153.47253
G01 X-8.10193 Y153.49089
G01 X-8.09538 Y153.49798
G01 X-8.02393 Y153.56940
G01 X-8.01684 Y153.57596
G01 X-7.99848 Y153.59155
G01 X-7.98283 Y153.60283
G01 X-7.96223 Y153.61530
G01 X-7.95377 Y153.61995
G01 X-7.81092 Y153.69137
G01 X-7.79815 Y153.69686
G01 X-7.76553 Y153.70870
G01 X-7.73853 Y153.71507
G01 X-7.70406 Y153.71909
G01 X-7.69020 Y153.71987
G01 X-7.26162 Y153.71987
G01 X-7.24773 Y153.71909
G01 X-7.21326 Y153.71507
G01 X-7.18626 Y153.70870
G01 X-7.15365 Y153.69686
G01 X-7.14087 Y153.69137
G01 X-6.99802 Y153.61995
G01 X-6.98956 Y153.61530
G01 X-6.96894 Y153.60283
G01 X-6.95329 Y153.59155
G01 X-6.93493 Y153.57593
G01 X-6.92784 Y153.56938
G01 X-6.85642 Y153.49795
G01 X-6.84986 Y153.49087
G01 X-6.83424 Y153.47250
G01 X-6.82296 Y153.45686
G01 X-6.81049 Y153.43621
G01 X-6.80582 Y153.42777
G01 X-6.73439 Y153.28490
G01 X-6.72893 Y153.27212
G01 X-6.71710 Y153.23951
G01 X-6.71072 Y153.21248
G01 X-6.70671 Y153.17804
G01 X-6.70592 Y153.16415
G01 X-6.70592 Y153.00557
G01 X-6.47592 Y153.00557
G01 X-6.46414 Y153.00502
G01 X-6.43488 Y153.00212
G01 X-6.41181 Y152.99755
G01 X-6.38367 Y152.98899
G01 X-6.36193 Y152.98000
G01 X-6.33602 Y152.96613
G01 X-6.31644 Y152.95307
G01 X-6.29373 Y152.93440
G01 X-6.27709 Y152.91777
G01 X-6.26178 Y152.89915
G01 X-6.25842 Y152.89506
G01 X-6.24537 Y152.87548
G01 X-6.23150 Y152.84959
G01 X-6.22251 Y152.82785
G01 X-6.21395 Y152.79968
G01 X-6.20938 Y152.77664
G01 X-6.20648 Y152.74736
G01 X-6.20648 Y152.72381
G01 X-6.26178 Y152.89915
G01 X-6.70592 Y154.30702
G01 X-6.70592 Y154.52129
G01 X-6.70597 Y154.52244
G01 X-6.70671 Y154.53519
G01 X-6.71072 Y154.56966
G01 X-6.71710 Y154.59666
G01 X-6.72865 Y154.62851
G01 X-6.72251 Y154.64337
G01 X-6.71395 Y154.67151
G01 X-6.70938 Y154.69457
G01 X-6.70648 Y154.72383
G01 X-6.70648 Y154.74738
G01 X-6.70938 Y154.77664
G01 X-6.71395 Y154.79970
G01 X-6.72251 Y154.82785
G01 X-6.73150 Y154.84959
G01 X-6.74537 Y154.87550
G01 X-6.75842 Y154.89508
G01 X-6.77709 Y154.91779
G01 X-6.79373 Y154.93443
G01 X-6.81644 Y154.95309
G01 X-6.83602 Y154.96615
G01 X-6.86193 Y154.98002
G01 X-6.88367 Y154.98901
G01 X-6.91181 Y154.99757
G01 X-6.93488 Y155.00214
G01 X-6.96414 Y155.00504
G01 X-6.97592 Y155.00560
G01 X-7.97592 Y155.00560
G01 X-7.98768 Y155.00504
G01 X-8.01694 Y155.00214
G01 X-8.04001 Y154.99757
G01 X-8.06815 Y154.98901
G01 X-8.08989 Y154.98002
G01 X-8.11580 Y154.96615
G01 X-8.13538 Y154.95309
G01 X-8.15809 Y154.93443
G01 X-8.17473 Y154.91779
G01 X-8.19340 Y154.89508
G01 X-8.20645 Y154.87550
G01 X-8.22032 Y154.84959
G01 X-8.22931 Y154.82785
G01 X-8.23787 Y154.79970
G01 X-8.24244 Y154.77664
G01 X-8.24534 Y154.74738
G01 X-8.24534 Y154.72383
G01 X-8.24244 Y154.69457
G01 X-8.23787 Y154.67151
G01 X-8.22931 Y154.64337
G01 X-8.22032 Y154.62162
G01 X-8.20645 Y154.59572
G01 X-8.19340 Y154.57613
G01 X-8.17473 Y154.55343
G01 X-8.15809 Y154.53679
G01 X-8.13538 Y154.51812
G01 X-8.11580 Y154.50506
G01 X-8.08989 Y154.49120
G01 X-8.06815 Y154.48220
G01 X-8.04001 Y154.47364
G01 X-8.01694 Y154.46907
G01 X-7.98768 Y154.46618
G01 X-7.97592 Y154.46562
G01 X-7.24994 Y154.46562
G01 X-7.24590 Y154.45757
G01 X-7.24590 Y154.37075
G01 X-7.24859 Y154.36539
G01 X-7.25393 Y154.36272
G01 X-7.97592 Y154.36272
G01 X-7.98768 Y154.36216
G01 X-8.01694 Y154.35927
G01 X-8.04001 Y154.35470
G01 X-8.06815 Y154.34614
G01 X-8.08989 Y154.33714
G01 X-8.11580 Y154.32328
G01 X-8.13538 Y154.31022
G01 X-8.15809 Y154.29155
G01 X-8.17473 Y154.27491
G01 X-8.19340 Y154.25221
G01 X-8.20645 Y154.23262
G01 X-8.22032 Y154.20672
G01 X-8.22931 Y154.18497
G01 X-8.23787 Y154.15683
G01 X-8.24244 Y154.13377
G01 X-8.24534 Y154.10451
G01 X-8.24534 Y154.08096
G01 X-8.24244 Y154.05170
G01 X-8.23787 Y154.02864
G01 X-8.22931 Y154.00049
G01 X-8.22032 Y153.97875
G01 X-8.20645 Y153.95284
G01 X-8.19340 Y153.93326
G01 X-8.17473 Y153.91055
G01 X-8.15809 Y153.89391
G01 X-8.13538 Y153.87525
G01 X-8.11580 Y153.86219
G01 X-8.08989 Y153.84832
G01 X-8.06815 Y153.83933
G01 X-8.04001 Y153.83077
G01 X-8.01694 Y153.82620
G01 X-7.98768 Y153.82330
G01 X-7.97592 Y153.82274
G01 X-7.19020 Y153.82274
G01 X-7.17630 Y153.82353
G01 X-7.16434 Y153.82493
G01 X-7.14184 Y153.82754
G01 X-7.11484 Y153.83392
G01 X-7.08222 Y153.84576
G01 X-7.06945 Y153.85124
G01 X-6.92660 Y153.92267
G01 X-6.91539 Y153.92902
G01 X-6.88837 Y153.94639
G01 X-6.86838 Y153.96249
G01 X-6.84567 Y153.98520
G01 X-6.82954 Y154.00522
G01 X-6.81219 Y154.03224
G01 X-6.80582 Y154.04342
G01 X-6.73439 Y154.18629
G01 X-6.72893 Y154.19907
G01 X-6.71710 Y154.23168
G01 X-6.71072 Y154.25871
G01 X-6.70671 Y154.29315
G01 X-6.70592 Y154.30702
G04 P0 ( dwell for no time -- G64 should not smooth over this point )
G00 Z5.00000 ( retract )

G00 X-7.24590 Y153.00557 ( rapid move to begin. )
G01 F150.00000
( Mill infeed pass 1/1 )
G01 Z-0.20000
G04 P0 ( dwell for no time -- G64 should not smooth over this point )
G01 F300.00000
G01 X-7.24590 Y153.00557
G01 X-7.24590 Y153.10044
G01 X-7.26924 Y153.14710
G01 X-7.27869 Y153.15655
G01 X-7.32535 Y153.17990
G01 X-7.62644 Y153.17990
G01 X-7.67313 Y153.15655
G01 X-7.68258 Y153.14708
G01 X-7.70592 Y153.10044
G01 X-7.70592 Y153.00557
G01 X-7.24590 Y153.00557
G04 P0 ( dwell for no time -- G64 should not smooth over this point )
G00 Z5.00000 ( retract )

G00 X-7.00666 Y143.71347 ( rapid move to begin. )
G01 F150.00000
( Mill infeed pass 1/1 )
G01 Z-0.20000
G04 P0 ( dwell for no time -- G64 should not smooth over this point )
G01 F300.00000
G01 X-7.00666 Y143.71347
G01 X-7.00666 Y143.73856
G01 X-7.02632 Y143.92568
G01 X-7.03152 Y143.95022
G01 X-7.08966 Y144.12916
G01 X-7.09987 Y144.15207
G01 X-7.15598 Y144.24923
G01 X-7.15598 Y146.93401
G01 X-7.15654 Y146.94580
G01 X-7.17097 Y147.09210
G01 X-7.17554 Y147.11516
G01 X-7.21824 Y147.25588
G01 X-7.22723 Y147.27760
G01 X-7.29655 Y147.40726
G01 X-7.30960 Y147.42682
G01 X-7.40287 Y147.54049
G01 X-7.41080 Y147.54920
G01 X-12.10479 Y152.24319
G01 X-12.11350 Y152.25112
G01 X-12.22717 Y152.34439
G01 X-12.24673 Y152.35744
G01 X-12.37639 Y152.42676
G01 X-12.39811 Y152.43578
G01 X-12.53883 Y152.47845
G01 X-12.56189 Y152.48302
G01 X-12.70819 Y152.49747
G01 X-12.71998 Y152.49803
G01 X-20.40798 Y152.49803
G01 X-20.40798 Y158.12802
G01 X-20.41029 Y158.15144
G01 X-20.41712 Y158.17394
G01 X-20.42822 Y158.19469
G01 X-20.44313 Y158.21285
G01 X-20.46132 Y158.22779
G01 X-20.48207 Y158.23889
G01 X-20.50457 Y158.24570
G01 X-20.52799 Y158.24801
G01 X-22.02799 Y158.24801
G01 X-22.05141 Y158.24570
G01 X-22.07391 Y158.23889
G01 X-22.09466 Y158.22779
G01 X-22.11285 Y158.21285
G01 X-22.12776 Y158.19469
G01 X-22.13886 Y158.17394
G01 X-22.14569 Y158.15141
G01 X-22.14798 Y158.12802
G01 X-22.14798 Y155.12802
G01 X-22.14795 Y153.12823
G01 X-22.14798 Y150.12801
G01 X-22.14569 Y150.10459
G01 X-22.13886 Y150.08209
G01 X-22.12776 Y150.06133
G01 X-22.11285 Y150.04315
G01 X-22.09466 Y150.02824
G01 X-22.07391 Y150.01714
G01 X-22.05141 Y150.01033
G01 X-22.02799 Y150.00802
G01 X-20.52799 Y150.00802
G01 X-20.50457 Y150.01033
G01 X-20.48207 Y150.01714
G01 X-20.46132 Y150.02824
G01 X-20.44313 Y150.04315
G01 X-20.42822 Y150.06133
G01 X-20.41712 Y150.08209
G01 X-20.41029 Y150.10459
G01 X-20.40798 Y150.12801
G01 X-20.40798 Y150.75803
G01 X-13.08033 Y150.75803
G01 X-8.89596 Y146.57366
G01 X-8.89596 Y144.24931
G01 X-8.95209 Y144.15207
G01 X-8.96230 Y144.12916
G01 X-9.02045 Y143.95022
G01 X-9.02565 Y143.92568
G01 X-9.04534 Y143.73856
G01 X-9.04534 Y143.71347
G01 X-9.02565 Y143.52635
G01 X-9.02045 Y143.50181
G01 X-8.96230 Y143.32287
G01 X-8.95209 Y143.29996
G01 X-8.85804 Y143.13701
G01 X-8.84328 Y143.11672
G01 X-8.71737 Y142.97689
G01 X-8.69873 Y142.96010
G01 X-8.54653 Y142.84951
G01 X-8.52479 Y142.83696
G01 X-8.35291 Y142.76043
G01 X-8.32906 Y142.75269
G01 X-8.14501 Y142.71357
G01 X-8.12007 Y142.71095
G01 X-7.93190 Y142.71095
G01 X-7.90696 Y142.71357
G01 X-7.72291 Y142.75269
G01 X-7.69906 Y142.76043
G01 X-7.52718 Y142.83696
G01 X-7.50546 Y142.84951
G01 X-7.35324 Y142.96010
G01 X-7.33460 Y142.97689
G01 X-7.20869 Y143.11672
G01 X-7.19396 Y143.13701
G01 X-7.09987 Y143.29996
G01 X-7.08966 Y143.32287
G01 X-7.03152 Y143.50181
G01 X-7.02632 Y143.52635
G01 X-7.00666 Y143.71347
G04 P0 ( dwell for no time -- G64 should not smooth over this point )
G00 Z5.00000 ( retract )

G00 X-14.54665 Y127.69148 ( rapid move to begin. )
G01 F150.00000
( Mill infeed pass 1/1 )
G01 Z-0.20000
G04 P0 ( dwell for no time -- G64 should not smooth over this point )
G01 F300.00000
G01 X-14.54665 Y127.69148
G01 X-14.54665 Y127.71655
G01 X-14.56412 Y127.88289
G01 X-14.56935 Y127.90743
G01 X-14.62102 Y128.06648
G01 X-14.63123 Y128.08939
G01 X-14.71485 Y128.23425
G01 X-14.72960 Y128.25455
G01 X-14.84152 Y128.37883
G01 X-14.86016 Y128.39562
G01 X-14.99546 Y128.49391
G01 X-15.01718 Y128.50646
G01 X-15.05482 Y128.52323
G01 X-17.14047 Y130.60890
G01 X-17.00643 Y130.75777
G01 X-16.99170 Y130.77806
G01 X-16.87148 Y130.98626
G01 X-16.86127 Y131.00917
G01 X-16.78700 Y131.23783
G01 X-16.78177 Y131.26236
G01 X-16.75665 Y131.50148
G01 X-16.75665 Y131.52655
G01 X-16.78177 Y131.76566
G01 X-16.78700 Y131.79020
G01 X-16.86127 Y132.01885
G01 X-16.87148 Y132.04176
G01 X-16.99170 Y132.24997
G01 X-17.00643 Y132.27026
G01 X-17.15599 Y132.43635
G01 X-17.15599 Y134.65568
G01 X-17.00643 Y134.82177
G01 X-16.99170 Y134.84206
G01 X-16.87148 Y135.05026
G01 X-16.86127 Y135.07318
G01 X-16.78700 Y135.30183
G01 X-16.78177 Y135.32636
G01 X-16.75665 Y135.56548
G01 X-16.75665 Y135.59055
G01 X-16.78177 Y135.82966
G01 X-16.78700 Y135.85420
G01 X-16.86127 Y136.08285
G01 X-16.87148 Y136.10576
G01 X-16.99170 Y136.31396
G01 X-17.00643 Y136.33426
G01 X-17.15599 Y136.50035
G01 X-17.15599 Y139.11879
G01 X-17.09988 Y139.21594
G01 X-17.08967 Y139.23888
G01 X-17.03153 Y139.41782
G01 X-17.02632 Y139.44236
G01 X-17.00664 Y139.62948
G01 X-17.00664 Y139.65455
G01 X-17.02632 Y139.84167
G01 X-17.03153 Y139.86621
G01 X-17.08967 Y140.04515
G01 X-17.09988 Y140.06809
G01 X-17.15599 Y140.16524
G01 X-17.15599 Y143.20278
G01 X-17.09988 Y143.29996
G01 X-17.08967 Y143.32287
G01 X-17.03153 Y143.50181
G01 X-17.02632 Y143.52635
G01 X-17.00664 Y143.71347
G01 X-17.00664 Y143.73856
G01 X-17.02632 Y143.92568
G01 X-17.03153 Y143.95022
G01 X-17.08967 Y144.12916
G01 X-17.09988 Y144.15207
G01 X-17.19394 Y144.31502
G01 X-17.20869 Y144.33531
G01 X-17.33460 Y144.47514
G01 X-17.35325 Y144.49193
G01 X-17.50544 Y144.60252
G01 X-17.52718 Y144.61507
G01 X-17.69907 Y144.69160
G01 X-17.72292 Y144.69934
G01 X-17.90697 Y144.73846
G01 X-17.93191 Y144.74108
G01 X-18.12007 Y144.74108
G01 X-18.14501 Y144.73846
G01 X-18.32906 Y144.69934
G01 X-18.35291 Y144.69160
G01 X-18.52479 Y144.61507
G01 X-18.54651 Y144.60252
G01 X-18.69873 Y144.49193
G01 X-18.71738 Y144.47514
G01 X-18.84329 Y144.33531
G01 X-18.85802 Y144.31502
G01 X-18.95210 Y144.15207
G01 X-18.96231 Y144.12916
G01 X-19.02045 Y143.95022
G01 X-19.02566 Y143.92568
G01 X-19.04534 Y143.73856
G01 X-19.04534 Y143.71347
G01 X-19.02566 Y143.52635
G01 X-19.02045 Y143.50181
G01 X-18.96231 Y143.32287
G01 X-18.95210 Y143.29996
G01 X-18.89597 Y143.20275
G01 X-18.89597 Y140.16529
G01 X-18.95210 Y140.06809
G01 X-18.96231 Y140.04515
G01 X-19.02045 Y139.86621
G01 X-19.02566 Y139.84167
G01 X-19.04534 Y139.65455
G01 X-19.04534 Y139.62948
G01 X-19.02566 Y139.44236
G01 X-19.02045 Y139.41782
G01 X-18.96231 Y139.23888
G01 X-18.95210 Y139.21594
G01 X-18.89597 Y139.11873
G01 X-18.89597 Y136.50035
G01 X-19.04555 Y136.33426
G01 X-19.06028 Y136.31396
G01 X-19.18050 Y136.10576
G01 X-19.19068 Y136.08285
G01 X-19.26498 Y135.85420
G01 X-19.27021 Y135.82966
G01 X-19.29533 Y135.59055
G01 X-19.29533 Y135.56548
G01 X-19.27021 Y135.32636
G01 X-19.26498 Y135.30183
G01 X-19.19068 Y135.07318
G01 X-19.18050 Y135.05026
G01 X-19.06028 Y134.84206
G01 X-19.04555 Y134.82177
G01 X-18.89597 Y134.65568
G01 X-18.89597 Y132.43635
G01 X-19.04555 Y132.27026
G01 X-19.06028 Y132.24997
G01 X-19.18050 Y132.04176
G01 X-19.19068 Y132.01885
G01 X-19.26498 Y131.79020
G01 X-19.27021 Y131.76566
G01 X-19.29533 Y131.52655
G01 X-19.29533 Y131.50148
G01 X-19.27021 Y131.26236
G01 X-19.26498 Y131.23783
G01 X-19.19068 Y131.00917
G01 X-19.18050 Y130.98626
G01 X-19.06028 Y130.77806
G01 X-19.04555 Y130.75777
G01 X-18.89597 Y130.59168
G01 X-18.89597 Y130.26402
G01 X-18.89541 Y130.25226
G01 X-18.88098 Y130.10595
G01 X-18.87641 Y130.08289
G01 X-18.83371 Y129.94217
G01 X-18.82472 Y129.92045
G01 X-18.75540 Y129.79079
G01 X-18.74235 Y129.77123
G01 X-18.64908 Y129.65756
G01 X-18.64115 Y129.64885
G01 X-16.33598 Y127.34365
G01 X-16.33598 Y122.36238
G01 X-19.89116 Y118.80719
G01 X-19.89909 Y118.79848
G01 X-19.99236 Y118.68482
G01 X-20.00541 Y118.66526
G01 X-20.07473 Y118.53559
G01 X-20.08372 Y118.51387
G01 X-20.12642 Y118.37316
G01 X-20.13099 Y118.35009
G01 X-20.14542 Y118.20379
G01 X-20.14598 Y118.19200
G01 X-20.14598 Y109.01438
G01 X-20.65235 Y108.50800
G01 X-21.26490 Y108.50800
G01 X-21.26596 Y108.50848
G01 X-21.28981 Y108.51623
G01 X-21.45341 Y108.55100
G01 X-21.47836 Y108.55362
G01 X-21.64562 Y108.55362
G01 X-21.67056 Y108.55100
G01 X-21.83416 Y108.51623
G01 X-21.85801 Y108.50848
G01 X-22.01079 Y108.44046
G01 X-22.03251 Y108.42791
G01 X-22.16782 Y108.32962
G01 X-22.18646 Y108.31283
G01 X-22.29837 Y108.18855
G01 X-22.31313 Y108.16825
G01 X-22.39675 Y108.02339
G01 X-22.40696 Y108.00048
G01 X-22.45862 Y107.84143
G01 X-22.46385 Y107.81689
G01 X-22.48133 Y107.65055
G01 X-22.48133 Y107.62548
G01 X-22.46385 Y107.45913
G01 X-22.45862 Y107.43460
G01 X-22.40696 Y107.27554
G01 X-22.39675 Y107.25263
G01 X-22.31313 Y107.10777
G01 X-22.29837 Y107.08748
G01 X-22.18646 Y106.96320
G01 X-22.16782 Y106.94641
G01 X-22.03251 Y106.84811
G01 X-22.01079 Y106.83556
G01 X-21.85801 Y106.76754
G01 X-21.83416 Y106.75979
G01 X-21.67056 Y106.72502
G01 X-21.64562 Y106.72241
G01 X-21.47836 Y106.72241
G01 X-21.45341 Y106.72502
G01 X-21.28981 Y106.75979
G01 X-21.26596 Y106.76754
G01 X-21.26490 Y106.76802
G01 X-20.29200 Y106.76802
G01 X-20.28021 Y106.76858
G01 X-20.13391 Y106.78301
G01 X-20.11085 Y106.78758
G01 X-19.97013 Y106.83028
G01 X-19.94841 Y106.83927
G01 X-19.81875 Y106.90859
G01 X-19.79919 Y106.92164
G01 X-19.68552 Y107.01491
G01 X-19.67681 Y107.02284
G01 X-18.66081 Y108.03884
G01 X-18.65289 Y108.04755
G01 X-18.55962 Y108.16121
G01 X-18.54656 Y108.18077
G01 X-18.47725 Y108.31044
G01 X-18.46825 Y108.33216
G01 X-18.42556 Y108.47287
G01 X-18.42099 Y108.49594
G01 X-18.40656 Y108.64224
G01 X-18.40600 Y108.65400
G01 X-18.40600 Y117.83165
G01 X-14.85081 Y121.38684
G01 X-14.84289 Y121.39555
G01 X-14.74962 Y121.50922
G01 X-14.73656 Y121.52878
G01 X-14.66725 Y121.65844
G01 X-14.65825 Y121.68016
G01 X-14.61556 Y121.82088
G01 X-14.61099 Y121.84394
G01 X-14.59656 Y121.99024
G01 X-14.59600 Y122.00200
G01 X-14.59600 Y127.41861
G01 X-14.56935 Y127.50060
G01 X-14.56412 Y127.52513
G01 X-14.54665 Y127.69148
G04 P0 ( dwell for no time -- G64 should not smooth over this point )
G00 Z5.00000 ( retract )

G00 X-9.01265 Y115.24548 ( rapid move to begin. )
G01 F150.00000
( Mill infeed pass 1/1 )
G01 Z-0.20000
G04 P0 ( dwell for no time -- G64 should not smooth over this point )
G01 F300.00000
G01 X-9.01265 Y115.24548
G01 X-9.03449 Y115.03755
G01 X-9.03972 Y115.01302
G01 X-9.10432 Y114.81419
G01 X-9.11453 Y114.79127
G01 X-9.21905 Y114.61022
G01 X-9.23381 Y114.58993
G01 X-9.37368 Y114.43458
G01 X-9.39233 Y114.41779
G01 X-9.56147 Y114.29491
G01 X-9.58318 Y114.28236
G01 X-9.77416 Y114.19732
G01 X-9.79802 Y114.18957
G01 X-10.00251 Y114.14612
G01 X-10.02745 Y114.14350
G01 X-10.23652 Y114.14350
G01 X-10.26146 Y114.14612
G01 X-10.46596 Y114.18957
G01 X-10.48981 Y114.19732
G01 X-10.68079 Y114.28236
G01 X-10.70251 Y114.29491
G01 X-10.87165 Y114.41779
G01 X-10.89029 Y114.43458
G01 X-11.03017 Y114.58993
G01 X-11.04493 Y114.61022
G01 X-11.14945 Y114.79127
G01 X-11.15966 Y114.81419
G01 X-11.22425 Y115.01302
G01 X-11.22948 Y115.03755
G01 X-11.23977 Y115.13542
G01 X-12.01635 Y115.91202
G01 X-16.17242 Y115.91202
G01 X-16.30359 Y115.78086
G01 X-16.30359 Y108.55037
G01 X-16.26663 Y108.52352
G01 X-16.24799 Y108.50673
G01 X-16.07314 Y108.31255
G01 X-16.05838 Y108.29225
G01 X-15.92772 Y108.06594
G01 X-15.91751 Y108.04300
G01 X-15.83676 Y107.79449
G01 X-15.83156 Y107.76995
G01 X-15.80423 Y107.51006
G01 X-15.80423 Y107.48497
G01 X-15.83156 Y107.22507
G01 X-15.83676 Y107.20054
G01 X-15.91751 Y106.95202
G01 X-15.92772 Y106.92909
G01 X-16.05838 Y106.70277
G01 X-16.07314 Y106.68248
G01 X-16.24799 Y106.48829
G01 X-16.26663 Y106.47151
G01 X-16.47804 Y106.31791
G01 X-16.49978 Y106.30536
G01 X-16.73849 Y106.19906
G01 X-16.76237 Y106.19132
G01 X-17.01797 Y106.13699
G01 X-17.04291 Y106.13437
G01 X-17.30425 Y106.13437
G01 X-17.32919 Y106.13699
G01 X-17.58479 Y106.19132
G01 X-17.60867 Y106.19906
G01 X-17.84738 Y106.30536
G01 X-17.86912 Y106.31791
G01 X-18.08052 Y106.47151
G01 X-18.09917 Y106.48829
G01 X-18.27402 Y106.68248
G01 X-18.28878 Y106.70277
G01 X-18.41944 Y106.92909
G01 X-18.42965 Y106.95202
G01 X-18.51039 Y107.20054
G01 X-18.51560 Y107.22507
G01 X-18.54293 Y107.48497
G01 X-18.54293 Y107.51006
G01 X-18.51560 Y107.76995
G01 X-18.51039 Y107.79449
G01 X-18.42965 Y108.04300
G01 X-18.41944 Y108.06594
G01 X-18.28878 Y108.29225
G01 X-18.27402 Y108.31255
G01 X-18.09917 Y108.50673
G01 X-18.08052 Y108.52352
G01 X-18.04357 Y108.55037
G01 X-18.04357 Y116.14121
G01 X-18.04301 Y116.15299
G01 X-18.02858 Y116.29930
G01 X-18.02401 Y116.32236
G01 X-17.98131 Y116.46308
G01 X-17.97232 Y116.48479
G01 X-17.90300 Y116.61446
G01 X-17.88995 Y116.63402
G01 X-17.79668 Y116.74768
G01 X-17.78875 Y116.75640
G01 X-17.14796 Y117.39719
G01 X-17.13925 Y117.40511
G01 X-17.02559 Y117.49838
G01 X-17.00603 Y117.51144
G01 X-16.87636 Y117.58075
G01 X-16.85464 Y117.58975
G01 X-16.71393 Y117.63244
G01 X-16.69086 Y117.63701
G01 X-16.54456 Y117.65144
G01 X-16.53280 Y117.65200
G01 X-11.65600 Y117.65200
G01 X-11.64421 Y117.65144
G01 X-11.49791 Y117.63701
G01 X-11.47485 Y117.63244
G01 X-11.33413 Y117.58975
G01 X-11.31241 Y117.58075
G01 X-11.18275 Y117.51144
G01 X-11.16319 Y117.49838
G01 X-11.04952 Y117.40511
G01 X-11.04081 Y117.39719
G01 X-10.01480 Y116.37121
G01 X-10.00251 Y116.36991
G01 X-9.79802 Y116.32645
G01 X-9.77416 Y116.31870
G01 X-9.58318 Y116.23366
G01 X-9.56147 Y116.22112
G01 X-9.39233 Y116.09823
G01 X-9.37368 Y116.08144
G01 X-9.23381 Y115.92610
G01 X-9.21905 Y115.90580
G01 X-9.11453 Y115.72475
G01 X-9.10432 Y115.70184
G01 X-9.03972 Y115.50301
G01 X-9.03449 Y115.47847
G01 X-9.01265 Y115.27055
G01 X-9.01265 Y112.70548
G01 X-9.01265 Y112.73055
G01 X-9.03449 Y112.93847
G01 X-9.03972 Y112.96301
G01 X-9.10432 Y113.16184
G01 X-9.11453 Y113.18475
G01 X-9.21905 Y113.36580
G01 X-9.23381 Y113.38610
G01 X-9.37368 Y113.54144
G01 X-9.39233 Y113.55823
G01 X-9.56147 Y113.68112
G01 X-9.58318 Y113.69366
G01 X-9.77416 Y113.77870
G01 X-9.79802 Y113.78645
G01 X-10.00251 Y113.82991
G01 X-10.02745 Y113.83253
G01 X-10.23652 Y113.83253
G01 X-10.26146 Y113.82991
G01 X-10.46596 Y113.78645
G01 X-10.48981 Y113.77870
G01 X-10.68079 Y113.69366
G01 X-10.70251 Y113.68112
G01 X-10.83068 Y113.58800
G01 X-13.07868 Y113.58800
G01 X-13.34667 Y113.85600
G01 X-13.33464 Y113.97040
G01 X-13.33464 Y113.99547
G01 X-13.36197 Y114.25536
G01 X-13.36717 Y114.27990
G01 X-13.44792 Y114.52844
G01 X-13.45813 Y114.55135
G01 X-13.58879 Y114.77766
G01 X-13.60354 Y114.79796
G01 X-13.77840 Y114.99216
G01 X-13.79704 Y115.00895
G01 X-14.00845 Y115.16255
G01 X-14.03019 Y115.17509
G01 X-14.26890 Y115.28139
G01 X-14.29277 Y115.28914
G01 X-14.54837 Y115.34347
G01 X-14.57332 Y115.34609
G01 X-14.83466 Y115.34609
G01 X-14.85960 Y115.34347
G01 X-15.11520 Y115.28914
G01 X-15.13908 Y115.28139
G01 X-15.37779 Y115.17509
G01 X-15.39953 Y115.16255
G01 X-15.61093 Y115.00895
G01 X-15.62958 Y114.99216
G01 X-15.80443 Y114.79796
G01 X-15.81919 Y114.77766
G01 X-15.94984 Y114.55135
G01 X-15.96006 Y114.52844
G01 X-16.04080 Y114.27990
G01 X-16.04601 Y114.25536
G01 X-16.07334 Y113.99547
G01 X-16.07334 Y113.97040
G01 X-16.04601 Y113.71050
G01 X-16.04080 Y113.68597
G01 X-15.96006 Y113.43743
G01 X-15.94984 Y113.41452
G01 X-15.81919 Y113.18820
G01 X-15.80443 Y113.16791
G01 X-15.62958 Y112.97370
G01 X-15.61093 Y112.95691
G01 X-15.39953 Y112.80332
G01 X-15.37779 Y112.79077
G01 X-15.13908 Y112.68450
G01 X-15.11520 Y112.67673
G01 X-14.85960 Y112.62239
G01 X-14.83466 Y112.61978
G01 X-14.57332 Y112.61978
G01 X-14.57139 Y112.61998
G01 X-14.05422 Y112.10284
G01 X-14.04550 Y112.09491
G01 X-13.93184 Y112.00164
G01 X-13.91228 Y111.98859
G01 X-13.78261 Y111.91927
G01 X-13.76090 Y111.91028
G01 X-13.62018 Y111.86758
G01 X-13.59712 Y111.86301
G01 X-13.45081 Y111.84858
G01 X-13.43905 Y111.84802
G01 X-10.83068 Y111.84802
G01 X-10.70251 Y111.75491
G01 X-10.68079 Y111.74236
G01 X-10.48981 Y111.65732
G01 X-10.46596 Y111.64957
G01 X-10.26146 Y111.60612
G01 X-10.23652 Y111.60350
G01 X-10.02745 Y111.60350
G01 X-10.00251 Y111.60612
G01 X-9.79802 Y111.64957
G01 X-9.77416 Y111.65732
G01 X-9.58318 Y111.74236
G01 X-9.56147 Y111.75491
G01 X-9.39233 Y111.87779
G01 X-9.37368 Y111.89458
G01 X-9.23381 Y112.04993
G01 X-9.21905 Y112.07022
G01 X-9.11453 Y112.25128
G01 X-9.10432 Y112.27419
G01 X-9.03972 Y112.47302
G01 X-9.03449 Y112.49755
G01 X-9.01265 Y112.70548
G01 X-9.01265 Y110.16548
G01 X-9.03449 Y109.95755
G01 X-9.03972 Y109.93302
G01 X-9.10432 Y109.73419
G01 X-9.11453 Y109.71128
G01 X-9.21905 Y109.53022
G01 X-9.23381 Y109.50993
G01 X-9.37368 Y109.35458
G01 X-9.39233 Y109.33779
G01 X-9.56147 Y109.21491
G01 X-9.58318 Y109.20236
G01 X-9.77416 Y109.11732
G01 X-9.79802 Y109.10957
G01 X-10.00251 Y109.06612
G01 X-10.02745 Y109.06350
G01 X-10.23652 Y109.06350
G01 X-10.26146 Y109.06612
G01 X-10.46596 Y109.10957
G01 X-10.48981 Y109.11732
G01 X-10.68079 Y109.20236
G01 X-10.70251 Y109.21491
G01 X-10.83068 Y109.30802
G01 X-13.65302 Y109.30802
G01 X-13.77840 Y109.16878
G01 X-13.79704 Y109.15199
G01 X-14.00845 Y108.99840
G01 X-14.03019 Y108.98585
G01 X-14.26890 Y108.87958
G01 X-14.29277 Y108.87180
G01 X-14.54837 Y108.81747
G01 X-14.57332 Y108.81486
G01 X-14.83466 Y108.81486
G01 X-14.85960 Y108.81747
G01 X-15.11520 Y108.87180
G01 X-15.13908 Y108.87958
G01 X-15.37779 Y108.98585
G01 X-15.39953 Y108.99840
G01 X-15.61093 Y109.15199
G01 X-15.62958 Y109.16878
G01 X-15.80443 Y109.36299
G01 X-15.81919 Y109.38328
G01 X-15.94984 Y109.60960
G01 X-15.96006 Y109.63251
G01 X-16.04080 Y109.88105
G01 X-16.04601 Y109.90559
G01 X-16.07334 Y110.16548
G01 X-16.07334 Y110.19055
G01 X-16.04601 Y110.45044
G01 X-16.04080 Y110.47498
G01 X-15.96006 Y110.72352
G01 X-15.94984 Y110.74643
G01 X-15.81919 Y110.97274
G01 X-15.80443 Y110.99304
G01 X-15.62958 Y111.18724
G01 X-15.61093 Y111.20403
G01 X-15.39953 Y111.35763
G01 X-15.37779 Y111.37017
G01 X-15.13908 Y111.47645
G01 X-15.11520 Y111.48422
G01 X-14.85960 Y111.53855
G01 X-14.83466 Y111.54117
G01 X-14.57332 Y111.54117
G01 X-14.54837 Y111.53855
G01 X-14.29277 Y111.48422
G01 X-14.26890 Y111.47645
G01 X-14.03019 Y111.37017
G01 X-14.00845 Y111.35763
G01 X-13.79704 Y111.20403
G01 X-13.77840 Y111.18724
G01 X-13.65302 Y111.04800
G01 X-10.83068 Y111.04800
G01 X-10.70251 Y111.14112
G01 X-10.68079 Y111.15366
G01 X-10.48981 Y111.23870
G01 X-10.46596 Y111.24645
G01 X-10.26146 Y111.28991
G01 X-10.23652 Y111.29253
G01 X-10.02745 Y111.29253
G01 X-10.00251 Y111.28991
G01 X-9.79802 Y111.24645
G01 X-9.77416 Y111.23870
G01 X-9.58318 Y111.15366
G01 X-9.56147 Y111.14112
G01 X-9.39233 Y111.01823
G01 X-9.37368 Y111.00144
G01 X-9.23381 Y110.84610
G01 X-9.21905 Y110.82580
G01 X-9.11453 Y110.64475
G01 X-9.10432 Y110.62184
G01 X-9.03972 Y110.42301
G01 X-9.03449 Y110.39847
G01 X-9.01265 Y110.19055
G04 P0 ( dwell for no time -- G64 should not smooth over this point )
G00 Z5.00000 ( retract )

G00 X-6.47199 Y107.63800 ( rapid move to begin. )
G01 F150.00000
( Mill infeed pass 1/1 )
G01 Z-0.20000
G04 P0 ( dwell for no time -- G64 should not smooth over this point )
G01 F300.00000
G01 X-6.47199 Y107.63800
G01 X-6.47257 Y107.62624
G01 X-6.49177 Y107.43117
G01 X-6.49637 Y107.40808
G01 X-6.49683 Y107.40653
G01 X-6.49972 Y107.39302
G01 X-6.51819 Y107.33612
G01 X-6.55327 Y107.22050
G01 X-6.56228 Y107.19876
G01 X-6.56368 Y107.19612
G01 X-6.56432 Y107.19419
G01 X-6.57453 Y107.17128
G01 X-6.60755 Y107.11410
G01 X-6.65469 Y107.02589
G01 X-6.66774 Y107.00633
G01 X-6.67450 Y106.99810
G01 X-6.67905 Y106.99022
G01 X-6.69381 Y106.96993
G01 X-6.73696 Y106.92197
G01 X-6.79213 Y106.85479
G01 X-6.80877 Y106.83815
G01 X-6.82294 Y106.82652
G01 X-6.83368 Y106.81458
G01 X-6.85233 Y106.79779
G01 X-6.90122 Y106.76226
G01 X-6.96030 Y106.71377
G01 X-6.97986 Y106.70071
G01 X-7.00287 Y106.68842
G01 X-7.02147 Y106.67491
G01 X-7.04318 Y106.66236
G01 X-7.09358 Y106.63991
G01 X-7.15273 Y106.60831
G01 X-7.17447 Y106.59929
G01 X-7.20694 Y106.58946
G01 X-7.23416 Y106.57732
G01 X-7.25802 Y106.56957
G01 X-7.30622 Y106.55934
G01 X-7.36205 Y106.54240
G01 X-7.38514 Y106.53780
G01 X-7.42682 Y106.53371
G01 X-7.46251 Y106.52611
G01 X-7.48745 Y106.52350
G01 X-7.53048 Y106.52350
G01 X-7.58021 Y106.51860
G01 X-7.59200 Y106.51801
G01 X-10.13200 Y106.51801
G01 X-10.14376 Y106.51860
G01 X-10.19349 Y106.52350
G01 X-10.23652 Y106.52350
G01 X-10.26146 Y106.52611
G01 X-10.29715 Y106.53371
G01 X-10.33883 Y106.53780
G01 X-10.36192 Y106.54240
G01 X-10.41775 Y106.55934
G01 X-10.46596 Y106.56957
G01 X-10.48981 Y106.57732
G01 X-10.51704 Y106.58946
G01 X-10.54950 Y106.59929
G01 X-10.57124 Y106.60831
G01 X-10.63040 Y106.63991
G01 X-10.68079 Y106.66236
G01 X-10.70251 Y106.67491
G01 X-10.72110 Y106.68842
G01 X-10.74411 Y106.70071
G01 X-10.76367 Y106.71377
G01 X-10.82275 Y106.76226
G01 X-10.87165 Y106.79779
G01 X-10.89029 Y106.81458
G01 X-10.90104 Y106.82652
G01 X-10.91521 Y106.83815
G01 X-10.93185 Y106.85479
G01 X-10.98701 Y106.92197
G01 X-11.03017 Y106.96993
G01 X-11.04493 Y106.99022
G01 X-11.04947 Y106.99810
G01 X-11.05623 Y107.00633
G01 X-11.06929 Y107.02589
G01 X-11.11643 Y107.11410
G01 X-11.14945 Y107.17128
G01 X-11.15966 Y107.19419
G01 X-11.16029 Y107.19612
G01 X-11.16169 Y107.19876
G01 X-11.17071 Y107.22050
G01 X-11.20578 Y107.33612
G01 X-11.22425 Y107.39302
G01 X-11.22715 Y107.40653
G01 X-11.22760 Y107.40808
G01 X-11.23220 Y107.43117
G01 X-11.25140 Y107.62624
G01 X-11.25140 Y107.64979
G01 X-11.23220 Y107.84486
G01 X-11.22760 Y107.86795
G01 X-11.22715 Y107.86950
G01 X-11.22425 Y107.88301
G01 X-11.20578 Y107.93990
G01 X-11.17071 Y108.05553
G01 X-11.16169 Y108.07727
G01 X-11.16029 Y108.07991
G01 X-11.15966 Y108.08184
G01 X-11.14945 Y108.10475
G01 X-11.11643 Y108.16193
G01 X-11.06929 Y108.25014
G01 X-11.05623 Y108.26970
G01 X-11.04947 Y108.27793
G01 X-11.04493 Y108.28580
G01 X-11.03017 Y108.30610
G01 X-10.98701 Y108.35405
G01 X-10.93185 Y108.42123
G01 X-10.91521 Y108.43787
G01 X-10.90104 Y108.44950
G01 X-10.89029 Y108.46144
G01 X-10.87165 Y108.47823
G01 X-10.82275 Y108.51377
G01 X-10.76367 Y108.56226
G01 X-10.74411 Y108.57531
G01 X-10.72110 Y108.58760
G01 X-10.70251 Y108.60112
G01 X-10.68079 Y108.61366
G01 X-10.63040 Y108.63612
G01 X-10.57124 Y108.66772
G01 X-10.54950 Y108.67673
G01 X-10.51704 Y108.68656
G01 X-10.48981 Y108.69870
G01 X-10.46596 Y108.70645
G01 X-10.41775 Y108.71669
G01 X-10.36192 Y108.73363
G01 X-10.33883 Y108.73823
G01 X-10.29715 Y108.74232
G01 X-10.26146 Y108.74991
G01 X-10.23652 Y108.75253
G01 X-10.19349 Y108.75253
G01 X-10.14376 Y108.75743
G01 X-10.13200 Y108.75801
G01 X-8.71199 Y108.75801
G01 X-8.71199 Y115.16224
G01 X-8.74234 Y115.19922
G01 X-8.75542 Y115.21878
G01 X-8.82471 Y115.34845
G01 X-8.83373 Y115.37019
G01 X-8.87640 Y115.51088
G01 X-8.88097 Y115.53395
G01 X-8.89540 Y115.68025
G01 X-8.89596 Y115.69201
G01 X-8.89596 Y126.83402
G01 X-10.16891 Y126.83402
G01 X-10.16997 Y126.83354
G01 X-10.19382 Y126.82580
G01 X-10.35742 Y126.79102
G01 X-10.38237 Y126.78841
G01 X-10.54960 Y126.78841
G01 X-10.57457 Y126.79102
G01 X-10.73815 Y126.82580
G01 X-10.76202 Y126.83354
G01 X-10.91480 Y126.90156
G01 X-10.93652 Y126.91414
G01 X-11.07183 Y127.01243
G01 X-11.09047 Y127.02920
G01 X-11.20238 Y127.15348
G01 X-11.21711 Y127.17378
G01 X-11.30076 Y127.31863
G01 X-11.31094 Y127.34154
G01 X-11.36263 Y127.50060
G01 X-11.36784 Y127.52513
G01 X-11.38534 Y127.69148
G01 X-11.38534 Y127.71655
G01 X-11.36784 Y127.88289
G01 X-11.36263 Y127.90743
G01 X-11.31094 Y128.06648
G01 X-11.30076 Y128.08939
G01 X-11.21711 Y128.23425
G01 X-11.20238 Y128.25455
G01 X-11.09047 Y128.37883
G01 X-11.07183 Y128.39562
G01 X-10.93652 Y128.49391
G01 X-10.91480 Y128.50646
G01 X-10.76202 Y128.57448
G01 X-10.73815 Y128.58223
G01 X-10.57457 Y128.61700
G01 X-10.54960 Y128.61962
G01 X-10.38237 Y128.61962
G01 X-10.35742 Y128.61700
G01 X-10.19382 Y128.58223
G01 X-10.16997 Y128.57448
G01 X-10.16891 Y128.57400
G01 X-8.89596 Y128.57400
G01 X-8.89596 Y130.59165
G01 X-9.04554 Y130.75777
G01 X-9.06027 Y130.77806
G01 X-9.18049 Y130.98626
G01 X-9.19070 Y131.00917
G01 X-9.26500 Y131.23783
G01 X-9.27020 Y131.26236
G01 X-9.29532 Y131.50148
G01 X-9.29532 Y131.52655
G01 X-9.27020 Y131.76566
G01 X-9.26500 Y131.79020
G01 X-9.19070 Y132.01885
G01 X-9.18049 Y132.04176
G01 X-9.06027 Y132.24997
G01 X-9.04554 Y132.27026
G01 X-8.89596 Y132.43638
G01 X-8.89596 Y134.65565
G01 X-9.04554 Y134.82177
G01 X-9.06027 Y134.84206
G01 X-9.18049 Y135.05026
G01 X-9.19070 Y135.07318
G01 X-9.26500 Y135.30183
G01 X-9.27020 Y135.32636
G01 X-9.29532 Y135.56548
G01 X-9.29532 Y135.59055
G01 X-9.27020 Y135.82966
G01 X-9.26500 Y135.85420
G01 X-9.19070 Y136.08285
G01 X-9.18049 Y136.10576
G01 X-9.06027 Y136.31396
G01 X-9.04554 Y136.33426
G01 X-8.89596 Y136.50038
G01 X-8.89596 Y138.77202
G01 X-11.14800 Y138.77202
G01 X-11.15976 Y138.77258
G01 X-11.30606 Y138.78701
G01 X-11.32913 Y138.79158
G01 X-11.46984 Y138.83428
G01 X-11.49156 Y138.84327
G01 X-11.62123 Y138.91259
G01 X-11.64079 Y138.92564
G01 X-11.75445 Y139.01891
G01 X-11.76316 Y139.02684
G01 X-13.54116 Y140.80484
G01 X-13.54909 Y140.81355
G01 X-13.64236 Y140.92721
G01 X-13.65541 Y140.94677
G01 X-13.72473 Y141.07644
G01 X-13.73372 Y141.09816
G01 X-13.77642 Y141.23887
G01 X-13.78099 Y141.26194
G01 X-13.79542 Y141.40824
G01 X-13.79598 Y141.42000
G01 X-13.79598 Y144.36165
G01 X-15.82635 Y146.39202
G01 X-24.16961 Y146.39202
G01 X-31.16117 Y139.40045
G01 X-31.21367 Y139.23888
G01 X-31.22388 Y139.21594
G01 X-31.27999 Y139.11879
G01 X-31.27999 Y136.50035
G01 X-31.13043 Y136.33426
G01 X-31.11570 Y136.31396
G01 X-30.99548 Y136.10576
G01 X-30.98527 Y136.08285
G01 X-30.91100 Y135.85420
G01 X-30.90577 Y135.82966
G01 X-30.88065 Y135.59055
G01 X-30.88065 Y135.56548
G01 X-30.90577 Y135.32636
G01 X-30.91100 Y135.30183
G01 X-30.98527 Y135.07318
G01 X-30.99548 Y135.05026
G01 X-31.11570 Y134.84206
G01 X-31.13043 Y134.82177
G01 X-31.27999 Y134.65568
G01 X-31.27999 Y132.43635
G01 X-31.13043 Y132.27026
G01 X-31.11570 Y132.24997
G01 X-30.99548 Y132.04176
G01 X-30.98527 Y132.01885
G01 X-30.91100 Y131.79020
G01 X-30.90577 Y131.76566
G01 X-30.88065 Y131.52655
G01 X-30.88065 Y131.50148
G01 X-30.90577 Y131.26236
G01 X-30.91100 Y131.23783
G01 X-30.98527 Y131.00917
G01 X-30.99548 Y130.98626
G01 X-31.11570 Y130.77806
G01 X-31.13043 Y130.75777
G01 X-31.27999 Y130.59168
G01 X-31.27999 Y128.57400
G01 X-29.82007 Y128.57400
G01 X-29.81901 Y128.57448
G01 X-29.79516 Y128.58223
G01 X-29.63155 Y128.61700
G01 X-29.60661 Y128.61962
G01 X-29.43935 Y128.61962
G01 X-29.41441 Y128.61700
G01 X-29.25083 Y128.58223
G01 X-29.22696 Y128.57448
G01 X-29.07418 Y128.50646
G01 X-29.05246 Y128.49391
G01 X-28.91715 Y128.39562
G01 X-28.89851 Y128.37883
G01 X-28.78660 Y128.25455
G01 X-28.77184 Y128.23425
G01 X-28.68822 Y128.08939
G01 X-28.67801 Y128.06648
G01 X-28.62635 Y127.90743
G01 X-28.62112 Y127.88289
G01 X-28.60364 Y127.71655
G01 X-28.60364 Y127.69148
G01 X-28.62112 Y127.52513
G01 X-28.62635 Y127.50060
G01 X-28.67801 Y127.34154
G01 X-28.68822 Y127.31863
G01 X-28.77184 Y127.17378
G01 X-28.78660 Y127.15348
G01 X-28.89851 Y127.02920
G01 X-28.91715 Y127.01243
G01 X-29.05246 Y126.91414
G01 X-29.07418 Y126.90156
G01 X-29.22696 Y126.83354
G01 X-29.25083 Y126.82580
G01 X-29.41441 Y126.79102
G01 X-29.43935 Y126.78841
G01 X-29.60661 Y126.78841
G01 X-29.63155 Y126.79102
G01 X-29.79516 Y126.82580
G01 X-29.81901 Y126.83354
G01 X-29.82007 Y126.83402
G01 X-31.15842 Y126.83402
G01 X-31.27999 Y126.71246
G01 X-31.27999 Y123.72001
G01 X-31.28055 Y123.70825
G01 X-31.29498 Y123.56195
G01 X-31.29955 Y123.53888
G01 X-31.34224 Y123.39817
G01 X-31.34463 Y123.39240
G01 X-28.19140 Y123.39240
G01 X-28.17961 Y123.39184
G01 X-28.03331 Y123.37741
G01 X-28.01025 Y123.37284
G01 X-27.86953 Y123.33015
G01 X-27.84781 Y123.32115
G01 X-27.71815 Y123.25184
G01 X-27.69859 Y123.23878
G01 X-27.58492 Y123.14551
G01 X-27.57621 Y123.13759
G01 X-25.77281 Y121.33419
G01 X-25.76489 Y121.32548
G01 X-25.67162 Y121.21181
G01 X-25.65856 Y121.19225
G01 X-25.58925 Y121.06259
G01 X-25.58025 Y121.04087
G01 X-25.53756 Y120.90015
G01 X-25.53299 Y120.87709
G01 X-25.51856 Y120.73079
G01 X-25.51800 Y120.71900
G01 X-25.51800 Y119.83401
G01 X-25.48798 Y119.83401
G01 X-25.46458 Y119.83170
G01 X-25.44205 Y119.82487
G01 X-25.42133 Y119.81379
G01 X-25.40314 Y119.79886
G01 X-25.38821 Y119.78067
G01 X-25.37713 Y119.75995
G01 X-25.37030 Y119.73742
G01 X-25.36799 Y119.71402
G01 X-25.36799 Y117.91400
G01 X-25.37030 Y117.89061
G01 X-25.37713 Y117.86808
G01 X-25.38821 Y117.84735
G01 X-25.40314 Y117.82917
G01 X-25.42133 Y117.81423
G01 X-25.44205 Y117.80316
G01 X-25.46458 Y117.79632
G01 X-25.48798 Y117.79401
G01 X-25.51800 Y117.79401
G01 X-25.51800 Y96.60063
G01 X-25.51856 Y96.58887
G01 X-25.53299 Y96.44257
G01 X-25.53756 Y96.41951
G01 X-25.58025 Y96.27879
G01 X-25.58925 Y96.25707
G01 X-25.65856 Y96.12741
G01 X-25.67162 Y96.10785
G01 X-25.76489 Y95.99418
G01 X-25.77281 Y95.98547
G01 X-27.43542 Y94.32284
G01 X-27.44413 Y94.31494
G01 X-27.55780 Y94.22164
G01 X-27.57735 Y94.20859
G01 X-27.70702 Y94.13927
G01 X-27.72874 Y94.13028
G01 X-27.86943 Y94.08758
G01 X-27.89252 Y94.08301
G01 X-28.03882 Y94.06858
G01 X-28.05061 Y94.06802
G01 X-28.88490 Y94.06802
G01 X-28.88596 Y94.06754
G01 X-28.90981 Y94.05980
G01 X-29.07341 Y94.02502
G01 X-29.09836 Y94.02241
G01 X-29.26562 Y94.02241
G01 X-29.29056 Y94.02502
G01 X-29.45416 Y94.05980
G01 X-29.47801 Y94.06754
G01 X-29.63079 Y94.13556
G01 X-29.65251 Y94.14811
G01 X-29.78782 Y94.24641
G01 X-29.80646 Y94.26320
G01 X-29.91837 Y94.38748
G01 X-29.93313 Y94.40778
G01 X-30.01675 Y94.55263
G01 X-30.02696 Y94.57554
G01 X-30.07862 Y94.73460
G01 X-30.08385 Y94.75913
G01 X-30.10133 Y94.92548
G01 X-30.10133 Y94.95055
G01 X-30.08385 Y95.11689
G01 X-30.07862 Y95.14143
G01 X-30.02696 Y95.30048
G01 X-30.01675 Y95.32339
G01 X-29.93313 Y95.46825
G01 X-29.91837 Y95.48855
G01 X-29.80646 Y95.61283
G01 X-29.78782 Y95.62962
G01 X-29.65251 Y95.72791
G01 X-29.63079 Y95.74046
G01 X-29.47801 Y95.80848
G01 X-29.45416 Y95.81623
G01 X-29.29056 Y95.85100
G01 X-29.26562 Y95.85362
G01 X-29.09836 Y95.85362
G01 X-29.07341 Y95.85100
G01 X-28.90981 Y95.81623
G01 X-28.88596 Y95.80848
G01 X-28.88490 Y95.80800
G01 X-28.41096 Y95.80800
G01 X-27.25798 Y96.96101
G01 X-27.25798 Y117.79401
G01 X-27.28800 Y117.79401
G01 X-27.31139 Y117.79632
G01 X-27.33392 Y117.80316
G01 X-27.35465 Y117.81423
G01 X-27.37283 Y117.82917
G01 X-27.38777 Y117.84735
G01 X-27.39884 Y117.86808
G01 X-27.40568 Y117.89061
G01 X-27.40799 Y117.91400
G01 X-27.40799 Y119.71402
G01 X-27.40568 Y119.73742
G01 X-27.39884 Y119.75995
G01 X-27.38777 Y119.78067
G01 X-27.37283 Y119.79886
G01 X-27.35465 Y119.81379
G01 X-27.33392 Y119.82487
G01 X-27.31139 Y119.83170
G01 X-27.28800 Y119.83401
G01 X-27.25798 Y119.83401
G01 X-27.25798 Y120.35865
G01 X-28.55175 Y121.65242
G01 X-32.29662 Y121.65242
G01 X-32.42200 Y121.51318
G01 X-32.44064 Y121.49639
G01 X-32.65205 Y121.34280
G01 X-32.67379 Y121.33025
G01 X-32.91250 Y121.22398
G01 X-32.93637 Y121.21621
G01 X-33.19197 Y121.16187
G01 X-33.21692 Y121.15926
G01 X-33.47826 Y121.15926
G01 X-33.50320 Y121.16187
G01 X-33.75880 Y121.21621
G01 X-33.78268 Y121.22398
G01 X-34.02139 Y121.33025
G01 X-34.04313 Y121.34280
G01 X-34.25453 Y121.49639
G01 X-34.27318 Y121.51318
G01 X-34.44803 Y121.70739
G01 X-34.46279 Y121.72768
G01 X-34.59344 Y121.95400
G01 X-34.60366 Y121.97691
G01 X-34.68440 Y122.22545
G01 X-34.68961 Y122.24999
G01 X-34.71694 Y122.50988
G01 X-34.71694 Y122.53495
G01 X-34.68961 Y122.79484
G01 X-34.68440 Y122.81938
G01 X-34.60366 Y123.06792
G01 X-34.59344 Y123.09083
G01 X-34.46279 Y123.31714
G01 X-34.44803 Y123.33744
G01 X-34.27318 Y123.53164
G01 X-34.25453 Y123.54843
G01 X-34.04313 Y123.70203
G01 X-34.02139 Y123.71457
G01 X-33.78268 Y123.82085
G01 X-33.75880 Y123.82862
G01 X-33.50320 Y123.88295
G01 X-33.47826 Y123.88557
G01 X-33.21692 Y123.88557
G01 X-33.21501 Y123.88536
G01 X-33.01997 Y124.08039
G01 X-33.01997 Y130.59168
G01 X-33.16955 Y130.75777
G01 X-33.18428 Y130.77806
G01 X-33.30450 Y130.98626
G01 X-33.31468 Y131.00917
G01 X-33.38898 Y131.23783
G01 X-33.39421 Y131.26236
G01 X-33.41933 Y131.50148
G01 X-33.41933 Y131.52655
G01 X-33.39421 Y131.76566
G01 X-33.38898 Y131.79020
G01 X-33.31468 Y132.01885
G01 X-33.30450 Y132.04176
G01 X-33.18428 Y132.24997
G01 X-33.16955 Y132.27026
G01 X-33.01997 Y132.43635
G01 X-33.01997 Y134.65568
G01 X-33.16955 Y134.82177
G01 X-33.18428 Y134.84206
G01 X-33.30450 Y135.05026
G01 X-33.31468 Y135.07318
G01 X-33.38898 Y135.30183
G01 X-33.39421 Y135.32636
G01 X-33.41933 Y135.56548
G01 X-33.41933 Y135.59055
G01 X-33.39421 Y135.82966
G01 X-33.38898 Y135.85420
G01 X-33.31468 Y136.08285
G01 X-33.30450 Y136.10576
G01 X-33.18428 Y136.31396
G01 X-33.16955 Y136.33426
G01 X-33.01997 Y136.50035
G01 X-33.01997 Y139.11873
G01 X-33.07610 Y139.21594
G01 X-33.08631 Y139.23888
G01 X-33.14445 Y139.41782
G01 X-33.14966 Y139.44236
G01 X-33.16932 Y139.62948
G01 X-33.16932 Y139.65455
G01 X-33.14966 Y139.84167
G01 X-33.14445 Y139.86621
G01 X-33.08631 Y140.04515
G01 X-33.07610 Y140.06809
G01 X-32.98202 Y140.23103
G01 X-32.96729 Y140.25132
G01 X-32.84138 Y140.39115
G01 X-32.82273 Y140.40794
G01 X-32.67051 Y140.51853
G01 X-32.64880 Y140.53105
G01 X-32.47691 Y140.60758
G01 X-32.45306 Y140.61535
G01 X-32.39459 Y140.62777
G01 X-25.14515 Y147.87719
G01 X-25.13644 Y147.88511
G01 X-25.02278 Y147.97838
G01 X-25.00322 Y147.99144
G01 X-24.87355 Y148.06075
G01 X-24.85183 Y148.06975
G01 X-24.71112 Y148.11244
G01 X-24.68805 Y148.11701
G01 X-24.54175 Y148.13144
G01 X-24.52999 Y148.13200
G01 X-15.46600 Y148.13200
G01 X-15.45421 Y148.13144
G01 X-15.30791 Y148.11701
G01 X-15.28485 Y148.11244
G01 X-15.14413 Y148.06975
G01 X-15.12241 Y148.06075
G01 X-14.99275 Y147.99144
G01 X-14.97319 Y147.97838
G01 X-14.85952 Y147.88511
G01 X-14.85081 Y147.87719
G01 X-12.31081 Y145.33719
G01 X-12.30289 Y145.32848
G01 X-12.20962 Y145.21481
G01 X-12.19656 Y145.19525
G01 X-12.12725 Y145.06559
G01 X-12.11825 Y145.04387
G01 X-12.07556 Y144.90315
G01 X-12.07099 Y144.88009
G01 X-12.05656 Y144.73379
G01 X-12.05600 Y144.72200
G01 X-12.05600 Y141.78038
G01 X-10.78762 Y140.51200
G01 X-8.55547 Y140.51200
G01 X-8.54653 Y140.51853
G01 X-8.52479 Y140.53105
G01 X-8.35291 Y140.60758
G01 X-8.32906 Y140.61535
G01 X-8.14501 Y140.65447
G01 X-8.12007 Y140.65709
G01 X-7.93190 Y140.65709
G01 X-7.90696 Y140.65447
G01 X-7.72291 Y140.61535
G01 X-7.69906 Y140.60758
G01 X-7.52718 Y140.53105
G01 X-7.50546 Y140.51853
G01 X-7.35324 Y140.40794
G01 X-7.33460 Y140.39115
G01 X-7.20869 Y140.25132
G01 X-7.19396 Y140.23103
G01 X-7.09987 Y140.06809
G01 X-7.08966 Y140.04515
G01 X-7.03152 Y139.86621
G01 X-7.02632 Y139.84167
G01 X-7.00666 Y139.65455
G01 X-7.00666 Y139.62948
G01 X-7.02632 Y139.44236
G01 X-7.03152 Y139.41782
G01 X-7.08966 Y139.23888
G01 X-7.09987 Y139.21594
G01 X-7.15598 Y139.11879
G01 X-7.15598 Y136.50032
G01 X-7.00643 Y136.33426
G01 X-6.99170 Y136.31396
G01 X-6.87148 Y136.10576
G01 X-6.86129 Y136.08285
G01 X-6.78700 Y135.85420
G01 X-6.78177 Y135.82966
G01 X-6.75664 Y135.59055
G01 X-6.75664 Y135.56548
G01 X-6.78177 Y135.32636
G01 X-6.78700 Y135.30183
G01 X-6.86129 Y135.07318
G01 X-6.87148 Y135.05026
G01 X-6.99170 Y134.84206
G01 X-7.00643 Y134.82177
G01 X-7.15598 Y134.65570
G01 X-7.15598 Y132.43632
G01 X-7.00643 Y132.27026
G01 X-6.99170 Y132.24997
G01 X-6.87148 Y132.04176
G01 X-6.86129 Y132.01885
G01 X-6.78700 Y131.79020
G01 X-6.78177 Y131.76566
G01 X-6.75664 Y131.52655
G01 X-6.75664 Y131.50148
G01 X-6.78177 Y131.26236
G01 X-6.78700 Y131.23783
G01 X-6.86129 Y131.00917
G01 X-6.87148 Y130.98626
G01 X-6.99170 Y130.77806
G01 X-7.00643 Y130.75777
G01 X-7.15598 Y130.59170
G01 X-7.15598 Y116.28906
G01 X-7.15273 Y116.28772
G01 X-7.09358 Y116.25612
G01 X-7.04318 Y116.23366
G01 X-7.02147 Y116.22112
G01 X-7.00287 Y116.20760
G01 X-6.97986 Y116.19531
G01 X-6.96030 Y116.18226
G01 X-6.90122 Y116.13377
G01 X-6.85233 Y116.09823
G01 X-6.83368 Y116.08144
G01 X-6.82294 Y116.06950
G01 X-6.80877 Y116.05787
G01 X-6.79213 Y116.04123
G01 X-6.73696 Y115.97405
G01 X-6.69381 Y115.92610
G01 X-6.67905 Y115.90580
G01 X-6.67450 Y115.89793
G01 X-6.66774 Y115.88970
G01 X-6.65469 Y115.87014
G01 X-6.60755 Y115.78193
G01 X-6.57453 Y115.72475
G01 X-6.56432 Y115.70184
G01 X-6.56368 Y115.69991
G01 X-6.56228 Y115.69727
G01 X-6.55327 Y115.67553
G01 X-6.51819 Y115.55990
G01 X-6.49972 Y115.50301
G01 X-6.49683 Y115.48950
G01 X-6.49637 Y115.48795
G01 X-6.49177 Y115.46486
G01 X-6.47257 Y115.26979
G01 X-6.47199 Y115.25800
G01 X-6.47199 Y107.63800
G04 P0 ( dwell for no time -- G64 should not smooth over this point )
G00 Z5.00000 ( retract )

G00 X-4.43600 Y96.09451 ( rapid move to begin. )
G01 F150.00000
( Mill infeed pass 1/1 )
G01 Z-0.20000
G04 P0 ( dwell for no time -- G64 should not smooth over this point )
G01 F300.00000
G01 X-4.43600 Y96.09451
G01 X-4.43656 Y96.08275
G01 X-4.45099 Y95.93645
G01 X-4.45556 Y95.91339
G01 X-4.49825 Y95.77269
G01 X-4.50725 Y95.75095
G01 X-4.57654 Y95.62129
G01 X-4.58962 Y95.60173
G01 X-4.68289 Y95.48809
G01 X-4.69079 Y95.47935
G01 X-4.85116 Y95.31897
G01 X-4.83915 Y95.20455
G01 X-4.83915 Y95.17948
G01 X-4.86645 Y94.91959
G01 X-4.87169 Y94.89505
G01 X-4.95243 Y94.64651
G01 X-4.96264 Y94.62360
G01 X-5.09330 Y94.39728
G01 X-5.10803 Y94.37699
G01 X-5.28289 Y94.18278
G01 X-5.30153 Y94.16599
G01 X-5.51296 Y94.01240
G01 X-5.53468 Y93.99985
G01 X-5.77341 Y93.89358
G01 X-5.79726 Y93.88581
G01 X-6.05289 Y93.83147
G01 X-6.07783 Y93.82886
G01 X-6.33914 Y93.82886
G01 X-6.36409 Y93.83147
G01 X-6.61971 Y93.88581
G01 X-6.64356 Y93.89358
G01 X-6.88230 Y93.99985
G01 X-6.90402 Y94.01240
G01 X-7.11545 Y94.16599
G01 X-7.13409 Y94.18278
G01 X-7.30894 Y94.37699
G01 X-7.32367 Y94.39728
G01 X-7.45433 Y94.62360
G01 X-7.46454 Y94.64651
G01 X-7.54529 Y94.89505
G01 X-7.55052 Y94.91959
G01 X-7.57783 Y95.17948
G01 X-7.57783 Y95.20455
G01 X-7.55052 Y95.46444
G01 X-7.54529 Y95.48898
G01 X-7.46454 Y95.73752
G01 X-7.45433 Y95.76043
G01 X-7.32367 Y95.98674
G01 X-7.30894 Y96.00704
G01 X-7.13409 Y96.20124
G01 X-7.11545 Y96.21803
G01 X-6.90402 Y96.37163
G01 X-6.88230 Y96.38417
G01 X-6.64356 Y96.49045
G01 X-6.61971 Y96.49822
G01 X-6.36409 Y96.55255
G01 X-6.33914 Y96.55517
G01 X-6.17598 Y96.55517
G01 X-6.17598 Y104.78378
G01 X-6.47694 Y104.48284
G01 X-6.48565 Y104.47494
G01 X-6.59932 Y104.38164
G01 X-6.61888 Y104.36859
G01 X-6.74854 Y104.29927
G01 X-6.77026 Y104.29028
G01 X-6.83960 Y104.26925
G01 X-6.85233 Y104.25779
G01 X-7.02147 Y104.13491
G01 X-7.04318 Y104.12236
G01 X-7.23416 Y104.03732
G01 X-7.25802 Y104.02957
G01 X-7.46251 Y103.98611
G01 X-7.48745 Y103.98350
G01 X-7.69652 Y103.98350
G01 X-7.72146 Y103.98611
G01 X-7.92596 Y104.02957
G01 X-7.94981 Y104.03732
G01 X-8.14079 Y104.12236
G01 X-8.16251 Y104.13491
G01 X-8.33165 Y104.25779
G01 X-8.35029 Y104.27458
G01 X-8.49017 Y104.42993
G01 X-8.50493 Y104.45022
G01 X-8.60945 Y104.63127
G01 X-8.61966 Y104.65419
G01 X-8.68425 Y104.85302
G01 X-8.68948 Y104.87755
G01 X-8.71133 Y105.08548
G01 X-8.71133 Y105.11055
G01 X-8.68948 Y105.31847
G01 X-8.68425 Y105.34301
G01 X-8.61966 Y105.54184
G01 X-8.60945 Y105.56475
G01 X-8.50493 Y105.74580
G01 X-8.49017 Y105.76610
G01 X-8.35029 Y105.92144
G01 X-8.33165 Y105.93823
G01 X-8.16251 Y106.06112
G01 X-8.14079 Y106.07366
G01 X-7.94981 Y106.15870
G01 X-7.92596 Y106.16645
G01 X-7.72146 Y106.20991
G01 X-7.69652 Y106.21253
G01 X-7.48745 Y106.21253
G01 X-7.46251 Y106.20991
G01 X-7.25802 Y106.16645
G01 X-7.25502 Y106.16549
G01 X-6.17598 Y107.24453
G01 X-6.17598 Y147.28265
G01 X-17.73135 Y158.83802
G01 X-38.21962 Y158.83802
G01 X-39.99679 Y157.06084
G01 X-40.00550 Y157.05291
G01 X-40.11919 Y156.95964
G01 X-40.13875 Y156.94659
G01 X-40.26841 Y156.87727
G01 X-40.29013 Y156.86828
G01 X-40.43085 Y156.82558
G01 X-40.45391 Y156.82101
G01 X-40.60021 Y156.80658
G01 X-40.61200 Y156.80602
G01 X-49.20490 Y156.80602
G01 X-49.20596 Y156.80554
G01 X-49.22981 Y156.79780
G01 X-49.39341 Y156.76302
G01 X-49.41836 Y156.76041
G01 X-49.58562 Y156.76041
G01 X-49.61056 Y156.76302
G01 X-49.77416 Y156.79780
G01 X-49.79801 Y156.80554
G01 X-49.79908 Y156.80602
G01 X-57.71842 Y156.80602
G01 X-57.72462 Y156.80150
G01 X-57.89708 Y156.70194
G01 X-57.91999 Y156.69172
G01 X-58.10937 Y156.63021
G01 X-58.13391 Y156.62497
G01 X-58.33195 Y156.60417
G01 X-58.34448 Y156.60351
G01 X-58.43950 Y156.60351
G01 X-58.45202 Y156.60417
G01 X-58.65006 Y156.62497
G01 X-58.67460 Y156.63021
G01 X-58.86398 Y156.69172
G01 X-58.88689 Y156.70194
G01 X-59.05936 Y156.80150
G01 X-59.07965 Y156.81624
G01 X-59.22763 Y156.94948
G01 X-59.24442 Y156.96813
G01 X-59.36147 Y157.12924
G01 X-59.37399 Y157.15096
G01 X-59.45499 Y157.33287
G01 X-59.46274 Y157.35672
G01 X-59.50414 Y157.55149
G01 X-59.50488 Y157.55855
G01 X-60.53035 Y158.58402
G01 X-80.32162 Y158.58402
G01 X-82.38398 Y156.52167
G01 X-82.38398 Y150.38201
G01 X-82.38629 Y150.35859
G01 X-82.39312 Y150.33609
G01 X-82.40422 Y150.31533
G01 X-82.41913 Y150.29715
G01 X-82.43732 Y150.28224
G01 X-82.45807 Y150.27114
G01 X-82.48057 Y150.26433
G01 X-82.50399 Y150.26202
G01 X-84.00399 Y150.26202
G01 X-84.02741 Y150.26433
G01 X-84.04991 Y150.27114
G01 X-84.07066 Y150.28224
G01 X-84.08885 Y150.29715
G01 X-84.10376 Y150.31533
G01 X-84.11486 Y150.33609
G01 X-84.12169 Y150.35859
G01 X-84.12398 Y150.38201
G01 X-84.12398 Y151.01203
G01 X-87.39593 Y151.01203
G01 X-87.40104 Y150.96354
G01 X-87.40624 Y150.93901
G01 X-87.45471 Y150.78988
G01 X-87.46492 Y150.76697
G01 X-87.54330 Y150.63118
G01 X-87.55806 Y150.61089
G01 X-87.66296 Y150.49435
G01 X-87.68160 Y150.47756
G01 X-87.80845 Y150.38541
G01 X-87.83017 Y150.37286
G01 X-87.97342 Y150.30909
G01 X-87.99727 Y150.30134
G01 X-88.15064 Y150.26875
G01 X-88.17558 Y150.26611
G01 X-88.33238 Y150.26611
G01 X-88.35735 Y150.26875
G01 X-88.51071 Y150.30134
G01 X-88.53456 Y150.30909
G01 X-88.67779 Y150.37286
G01 X-88.69953 Y150.38541
G01 X-88.82638 Y150.47756
G01 X-88.84503 Y150.49435
G01 X-88.94993 Y150.61089
G01 X-88.96468 Y150.63118
G01 X-89.04307 Y150.76697
G01 X-89.05328 Y150.78988
G01 X-89.10172 Y150.93901
G01 X-89.10695 Y150.96354
G01 X-89.12333 Y151.11947
G01 X-89.12399 Y151.13202
G01 X-89.12397 Y152.63214
G01 X-89.12399 Y156.13201
G01 X-89.12399 Y157.63201
G01 X-89.12333 Y157.64455
G01 X-89.10695 Y157.80049
G01 X-89.10172 Y157.82502
G01 X-89.05328 Y157.97415
G01 X-89.04307 Y157.99706
G01 X-88.96468 Y158.13284
G01 X-88.94993 Y158.15314
G01 X-88.84503 Y158.26967
G01 X-88.82638 Y158.28646
G01 X-88.69953 Y158.37861
G01 X-88.67779 Y158.39116
G01 X-88.53456 Y158.45494
G01 X-88.51071 Y158.46269
G01 X-88.35735 Y158.49528
G01 X-88.33238 Y158.49789
G01 X-88.17558 Y158.49789
G01 X-88.15064 Y158.49528
G01 X-87.99727 Y158.46269
G01 X-87.97342 Y158.45494
G01 X-87.83017 Y158.39116
G01 X-87.80845 Y158.37861
G01 X-87.68160 Y158.28646
G01 X-87.66296 Y158.26967
G01 X-87.55806 Y158.15314
G01 X-87.54330 Y158.13284
G01 X-87.46492 Y157.99706
G01 X-87.45471 Y157.97415
G01 X-87.40624 Y157.82502
G01 X-87.40104 Y157.80049
G01 X-87.39593 Y157.75202
G01 X-84.12398 Y157.75202
G01 X-84.12398 Y158.38202
G01 X-84.12169 Y158.40541
G01 X-84.11486 Y158.42794
G01 X-84.10376 Y158.44869
G01 X-84.08885 Y158.46685
G01 X-84.07066 Y158.48179
G01 X-84.04991 Y158.49289
G01 X-84.02741 Y158.49970
G01 X-84.00399 Y158.50201
G01 X-82.86434 Y158.50201
G01 X-81.29716 Y160.06919
G01 X-81.28845 Y160.07711
G01 X-81.17478 Y160.17038
G01 X-81.15523 Y160.18344
G01 X-81.02556 Y160.25275
G01 X-81.00384 Y160.26175
G01 X-80.86313 Y160.30444
G01 X-80.84006 Y160.30901
G01 X-80.69376 Y160.32344
G01 X-80.68200 Y160.32400
G01 X-60.17000 Y160.32400
G01 X-60.15821 Y160.32344
G01 X-60.01191 Y160.30901
G01 X-59.98885 Y160.30444
G01 X-59.84813 Y160.26175
G01 X-59.82641 Y160.25275
G01 X-59.69675 Y160.18344
G01 X-59.67719 Y160.17038
G01 X-59.56352 Y160.07711
G01 X-59.55481 Y160.06919
G01 X-58.22190 Y158.73630
G01 X-58.13391 Y158.72705
G01 X-58.10937 Y158.72182
G01 X-57.91999 Y158.66030
G01 X-57.89708 Y158.65009
G01 X-57.72462 Y158.55052
G01 X-57.71842 Y158.54600
G01 X-49.79908 Y158.54600
G01 X-49.79801 Y158.54648
G01 X-49.77416 Y158.55423
G01 X-49.61056 Y158.58900
G01 X-49.58562 Y158.59162
G01 X-49.41836 Y158.59162
G01 X-49.39341 Y158.58900
G01 X-49.22981 Y158.55423
G01 X-49.20596 Y158.54648
G01 X-49.20490 Y158.54600
G01 X-40.97235 Y158.54600
G01 X-39.19516 Y160.32319
G01 X-39.18645 Y160.33111
G01 X-39.07279 Y160.42438
G01 X-39.05323 Y160.43744
G01 X-38.92356 Y160.50675
G01 X-38.90184 Y160.51575
G01 X-38.76113 Y160.55844
G01 X-38.73806 Y160.56301
G01 X-38.59176 Y160.57744
G01 X-38.58000 Y160.57800
G01 X-17.37100 Y160.57800
G01 X-17.35921 Y160.57744
G01 X-17.21291 Y160.56301
G01 X-17.18985 Y160.55844
G01 X-17.04913 Y160.51575
G01 X-17.02741 Y160.50675
G01 X-16.89775 Y160.43744
G01 X-16.87819 Y160.42438
G01 X-16.76452 Y160.33111
G01 X-16.75581 Y160.32319
G01 X-4.69081 Y148.25819
G01 X-4.68289 Y148.24948
G01 X-4.58962 Y148.13581
G01 X-4.57656 Y148.11625
G01 X-4.50725 Y147.98659
G01 X-4.49825 Y147.96487
G01 X-4.45556 Y147.82415
G01 X-4.45099 Y147.80109
G01 X-4.43656 Y147.65479
G01 X-4.43600 Y147.64300
G01 X-4.43600 Y96.09451
G04 P0 ( dwell for no time -- G64 should not smooth over this point )
G00 Z5.00000 ( retract )

G00 X-11.92415 Y95.17948 ( rapid move to begin. )
G01 F150.00000
( Mill infeed pass 1/1 )
G01 Z-0.20000
G04 P0 ( dwell for no time -- G64 should not smooth over this point )
G01 F300.00000
G01 X-11.92415 Y95.17948
G01 X-11.95145 Y94.91959
G01 X-11.95669 Y94.89505
G01 X-12.03743 Y94.64651
G01 X-12.04764 Y94.62360
G01 X-12.17830 Y94.39728
G01 X-12.19303 Y94.37699
G01 X-12.36789 Y94.18278
G01 X-12.38653 Y94.16599
G01 X-12.59796 Y94.01240
G01 X-12.61968 Y93.99985
G01 X-12.85841 Y93.89358
G01 X-12.88226 Y93.88581
G01 X-13.13789 Y93.83147
G01 X-13.16283 Y93.82886
G01 X-13.42414 Y93.82886
G01 X-13.44909 Y93.83147
G01 X-13.70471 Y93.88581
G01 X-13.72856 Y93.89358
G01 X-13.96730 Y93.99985
G01 X-13.98902 Y94.01240
G01 X-14.20044 Y94.16599
G01 X-14.21909 Y94.18278
G01 X-14.39394 Y94.37699
G01 X-14.40867 Y94.39728
G01 X-14.53933 Y94.62360
G01 X-14.54954 Y94.64651
G01 X-14.63029 Y94.89505
G01 X-14.63552 Y94.91959
G01 X-14.66283 Y95.17948
G01 X-14.66283 Y95.20455
G01 X-14.65081 Y95.31897
G01 X-15.89983 Y96.56804
G01 X-16.69287 Y96.56804
G01 X-16.69396 Y96.56754
G01 X-16.71781 Y96.55979
G01 X-16.88141 Y96.52502
G01 X-16.90636 Y96.52240
G01 X-17.07362 Y96.52240
G01 X-17.09856 Y96.52502
G01 X-17.26216 Y96.55979
G01 X-17.28601 Y96.56754
G01 X-17.28710 Y96.56804
G01 X-20.69200 Y96.56804
G01 X-20.69200 Y95.22342
G01 X-20.66535 Y95.14143
G01 X-20.66012 Y95.11689
G01 X-20.64265 Y94.95055
G01 X-20.64265 Y94.92548
G01 X-20.66012 Y94.75913
G01 X-20.66535 Y94.73460
G01 X-20.71702 Y94.57554
G01 X-20.72723 Y94.55263
G01 X-20.81085 Y94.40778
G01 X-20.82560 Y94.38748
G01 X-20.93752 Y94.26320
G01 X-20.95616 Y94.24641
G01 X-21.09146 Y94.14811
G01 X-21.11318 Y94.13556
G01 X-21.26596 Y94.06754
G01 X-21.28981 Y94.05980
G01 X-21.45341 Y94.02502
G01 X-21.47836 Y94.02241
G01 X-21.64562 Y94.02241
G01 X-21.67056 Y94.02502
G01 X-21.83416 Y94.05980
G01 X-21.85801 Y94.06754
G01 X-21.85908 Y94.06802
G01 X-22.21762 Y94.06802
G01 X-24.50281 Y91.78284
G01 X-24.51152 Y91.77491
G01 X-24.62519 Y91.68164
G01 X-24.64475 Y91.66859
G01 X-24.77441 Y91.59927
G01 X-24.79613 Y91.59028
G01 X-24.93685 Y91.54758
G01 X-24.95991 Y91.54301
G01 X-25.10621 Y91.52858
G01 X-25.11800 Y91.52802
G01 X-28.88490 Y91.52802
G01 X-28.88596 Y91.52754
G01 X-28.90981 Y91.51980
G01 X-29.07341 Y91.48502
G01 X-29.09836 Y91.48241
G01 X-29.26562 Y91.48241
G01 X-29.29056 Y91.48502
G01 X-29.45416 Y91.51980
G01 X-29.47801 Y91.52754
G01 X-29.47908 Y91.52802
G01 X-32.05388 Y91.52802
G01 X-32.08458 Y91.49389
G01 X-32.10323 Y91.47710
G01 X-32.25545 Y91.36651
G01 X-32.27717 Y91.35396
G01 X-32.44907 Y91.27743
G01 X-32.47293 Y91.26968
G01 X-32.65697 Y91.23057
G01 X-32.68192 Y91.22795
G01 X-32.87005 Y91.22795
G01 X-32.89502 Y91.23057
G01 X-33.07905 Y91.26968
G01 X-33.10292 Y91.27743
G01 X-33.27480 Y91.35396
G01 X-33.29652 Y91.36651
G01 X-33.44874 Y91.47710
G01 X-33.46739 Y91.49389
G01 X-33.59327 Y91.63371
G01 X-33.60803 Y91.65401
G01 X-33.70211 Y91.81695
G01 X-33.71229 Y91.83986
G01 X-33.77046 Y92.01880
G01 X-33.77567 Y92.04334
G01 X-33.79533 Y92.23046
G01 X-33.79533 Y92.25556
G01 X-33.77567 Y92.44268
G01 X-33.77046 Y92.46722
G01 X-33.71229 Y92.64616
G01 X-33.70211 Y92.66907
G01 X-33.60803 Y92.83201
G01 X-33.59327 Y92.85230
G01 X-33.46739 Y92.99213
G01 X-33.44874 Y93.00892
G01 X-33.29652 Y93.11951
G01 X-33.27480 Y93.13206
G01 X-33.10292 Y93.20859
G01 X-33.07905 Y93.21634
G01 X-32.89502 Y93.25545
G01 X-32.87005 Y93.25809
G01 X-32.72769 Y93.25809
G01 X-32.63274 Y93.26744
G01 X-32.62098 Y93.26800
G01 X-29.47908 Y93.26800
G01 X-29.47801 Y93.26848
G01 X-29.45416 Y93.27623
G01 X-29.29056 Y93.31100
G01 X-29.26562 Y93.31362
G01 X-29.09836 Y93.31362
G01 X-29.07341 Y93.31100
G01 X-28.90981 Y93.27623
G01 X-28.88596 Y93.26848
G01 X-28.88490 Y93.26800
G01 X-25.47835 Y93.26800
G01 X-23.19316 Y95.55319
G01 X-23.18445 Y95.56111
G01 X-23.07079 Y95.65438
G01 X-23.05123 Y95.66744
G01 X-22.92156 Y95.73675
G01 X-22.89984 Y95.74575
G01 X-22.75913 Y95.78844
G01 X-22.73606 Y95.79301
G01 X-22.58976 Y95.80744
G01 X-22.57800 Y95.80800
G01 X-22.43198 Y95.80800
G01 X-22.43198 Y97.19261
G01 X-22.45862 Y97.27460
G01 X-22.46385 Y97.29913
G01 X-22.48133 Y97.46548
G01 X-22.48133 Y97.49055
G01 X-22.46385 Y97.65689
G01 X-22.45862 Y97.68143
G01 X-22.40696 Y97.84048
G01 X-22.39675 Y97.86339
G01 X-22.31313 Y98.00825
G01 X-22.29837 Y98.02855
G01 X-22.18646 Y98.15283
G01 X-22.16782 Y98.16962
G01 X-22.03251 Y98.26791
G01 X-22.01079 Y98.28046
G01 X-21.85801 Y98.34848
G01 X-21.83416 Y98.35623
G01 X-21.67056 Y98.39100
G01 X-21.64562 Y98.39362
G01 X-21.47836 Y98.39362
G01 X-21.45341 Y98.39100
G01 X-21.28981 Y98.35623
G01 X-21.26596 Y98.34848
G01 X-21.17511 Y98.30802
G01 X-17.28703 Y98.30802
G01 X-17.28601 Y98.30848
G01 X-17.26216 Y98.31623
G01 X-17.09856 Y98.35100
G01 X-17.07362 Y98.35364
G01 X-16.90636 Y98.35364
G01 X-16.88141 Y98.35100
G01 X-16.71781 Y98.31623
G01 X-16.69396 Y98.30848
G01 X-16.69295 Y98.30802
G01 X-15.53948 Y98.30802
G01 X-15.52770 Y98.30746
G01 X-15.38139 Y98.29304
G01 X-15.35830 Y98.28846
G01 X-15.21761 Y98.24577
G01 X-15.19590 Y98.23677
G01 X-15.06623 Y98.16746
G01 X-15.04667 Y98.15440
G01 X-14.93301 Y98.06113
G01 X-14.92429 Y98.05321
G01 X-13.42605 Y96.55496
G01 X-13.42414 Y96.55517
G01 X-13.16283 Y96.55517
G01 X-13.13789 Y96.55255
G01 X-12.88226 Y96.49822
G01 X-12.85841 Y96.49045
G01 X-12.61968 Y96.38417
G01 X-12.59796 Y96.37163
G01 X-12.38653 Y96.21803
G01 X-12.36789 Y96.20124
G01 X-12.19303 Y96.00704
G01 X-12.17830 Y95.98674
G01 X-12.04764 Y95.76043
G01 X-12.03743 Y95.73752
G01 X-11.95669 Y95.48898
G01 X-11.95145 Y95.46444
G01 X-11.92415 Y95.20455
G01 X-11.92415 Y95.17948
G04 P0 ( dwell for no time -- G64 should not smooth over this point )
G00 Z5.00000 ( retract )

G00 X-16.07065 Y92.42546 ( rapid move to begin. )
G01 F150.00000
( Mill infeed pass 1/1 )
G01 Z-0.20000
G04 P0 ( dwell for no time -- G64 should not smooth over this point )
G01 F300.00000
G01 X-16.07065 Y92.42546
G01 X-16.08812 Y92.25914
G01 X-16.09335 Y92.23460
G01 X-16.14502 Y92.07555
G01 X-16.15523 Y92.05261
G01 X-16.23885 Y91.90778
G01 X-16.25360 Y91.88749
G01 X-16.36552 Y91.76320
G01 X-16.38416 Y91.74641
G01 X-16.51947 Y91.64812
G01 X-16.54118 Y91.63557
G01 X-16.69396 Y91.56755
G01 X-16.71781 Y91.55980
G01 X-16.88141 Y91.52503
G01 X-16.90636 Y91.52239
G01 X-17.07362 Y91.52239
G01 X-17.09856 Y91.52503
G01 X-17.26216 Y91.55980
G01 X-17.28601 Y91.56755
G01 X-17.28708 Y91.56803
G01 X-21.17506 Y91.56803
G01 X-21.26596 Y91.52754
G01 X-21.28981 Y91.51980
G01 X-21.45341 Y91.48502
G01 X-21.47836 Y91.48241
G01 X-21.64562 Y91.48241
G01 X-21.67056 Y91.48502
G01 X-21.83416 Y91.51980
G01 X-21.85801 Y91.52754
G01 X-22.01079 Y91.59556
G01 X-22.03251 Y91.60811
G01 X-22.16782 Y91.70641
G01 X-22.18646 Y91.72320
G01 X-22.29837 Y91.84748
G01 X-22.31313 Y91.86778
G01 X-22.39675 Y92.01263
G01 X-22.40696 Y92.03554
G01 X-22.45862 Y92.19460
G01 X-22.46385 Y92.21913
G01 X-22.48133 Y92.38548
G01 X-22.48133 Y92.41055
G01 X-22.46385 Y92.57689
G01 X-22.45862 Y92.60143
G01 X-22.40696 Y92.76048
G01 X-22.39675 Y92.78339
G01 X-22.31313 Y92.92825
G01 X-22.29837 Y92.94855
G01 X-22.18646 Y93.07283
G01 X-22.16782 Y93.08962
G01 X-22.03251 Y93.18791
G01 X-22.01079 Y93.20046
G01 X-21.85801 Y93.26848
G01 X-21.83416 Y93.27623
G01 X-21.67056 Y93.31100
G01 X-21.64562 Y93.31362
G01 X-21.47836 Y93.31362
G01 X-21.45341 Y93.31100
G01 X-21.43934 Y93.30801
G01 X-17.28705 Y93.30801
G01 X-17.28601 Y93.30849
G01 X-17.26216 Y93.31624
G01 X-17.09856 Y93.35101
G01 X-17.07362 Y93.35362
G01 X-16.90636 Y93.35362
G01 X-16.88141 Y93.35101
G01 X-16.71781 Y93.31624
G01 X-16.69396 Y93.30849
G01 X-16.54118 Y93.24047
G01 X-16.51947 Y93.22792
G01 X-16.38416 Y93.12962
G01 X-16.36552 Y93.11283
G01 X-16.25360 Y92.98852
G01 X-16.23885 Y92.96823
G01 X-16.15523 Y92.82340
G01 X-16.14502 Y92.80049
G01 X-16.09335 Y92.64143
G01 X-16.08812 Y92.61690
G01 X-16.07065 Y92.45055
G01 X-16.07065 Y92.42546
G04 P0 ( dwell for no time -- G64 should not smooth over this point )
G00 Z5.00000 ( retract )

G00 X-20.64265 Y100.00548 ( rapid move to begin. )
G01 F150.00000
( Mill infeed pass 1/1 )
G01 Z-0.20000
G04 P0 ( dwell for no time -- G64 should not smooth over this point )
G01 F300.00000
G01 X-20.64265 Y100.00548
G01 X-20.66012 Y99.83913
G01 X-20.66535 Y99.81460
G01 X-20.71702 Y99.65554
G01 X-20.72723 Y99.63263
G01 X-20.81085 Y99.48778
G01 X-20.82560 Y99.46748
G01 X-20.93752 Y99.34320
G01 X-20.95616 Y99.32641
G01 X-21.09146 Y99.22811
G01 X-21.11318 Y99.21556
G01 X-21.26596 Y99.14754
G01 X-21.28981 Y99.13980
G01 X-21.45341 Y99.10502
G01 X-21.47836 Y99.10241
G01 X-21.64562 Y99.10241
G01 X-21.67056 Y99.10502
G01 X-21.83416 Y99.13980
G01 X-21.85801 Y99.14754
G01 X-21.85908 Y99.14802
G01 X-22.69337 Y99.14802
G01 X-22.70513 Y99.14858
G01 X-22.85143 Y99.16301
G01 X-22.87452 Y99.16758
G01 X-23.01521 Y99.21028
G01 X-23.03693 Y99.21927
G01 X-23.16659 Y99.28859
G01 X-23.18615 Y99.30164
G01 X-23.29982 Y99.39494
G01 X-23.30855 Y99.40284
G01 X-24.58518 Y100.67949
G01 X-24.59308 Y100.68820
G01 X-24.68635 Y100.80187
G01 X-24.69941 Y100.82143
G01 X-24.76872 Y100.95109
G01 X-24.77772 Y100.97284
G01 X-24.82041 Y101.11353
G01 X-24.82499 Y101.13659
G01 X-24.83941 Y101.28289
G01 X-24.83997 Y101.29465
G01 X-24.83997 Y112.96715
G01 X-24.87693 Y112.99400
G01 X-24.89557 Y113.01079
G01 X-25.07043 Y113.20499
G01 X-25.08518 Y113.22529
G01 X-25.21584 Y113.45160
G01 X-25.22605 Y113.47451
G01 X-25.30680 Y113.72305
G01 X-25.31201 Y113.74759
G01 X-25.33934 Y114.00748
G01 X-25.33934 Y114.03255
G01 X-25.31201 Y114.29244
G01 X-25.30680 Y114.31698
G01 X-25.22605 Y114.56552
G01 X-25.21584 Y114.58843
G01 X-25.08518 Y114.81474
G01 X-25.07043 Y114.83504
G01 X-24.89557 Y115.02925
G01 X-24.87693 Y115.04604
G01 X-24.66552 Y115.19963
G01 X-24.64381 Y115.21218
G01 X-24.40507 Y115.31845
G01 X-24.38120 Y115.32620
G01 X-24.12560 Y115.38056
G01 X-24.10065 Y115.38317
G01 X-23.83934 Y115.38317
G01 X-23.81437 Y115.38056
G01 X-23.55877 Y115.32620
G01 X-23.53492 Y115.31845
G01 X-23.29618 Y115.21218
G01 X-23.27444 Y115.19963
G01 X-23.06304 Y115.04604
G01 X-23.04439 Y115.02925
G01 X-22.86954 Y114.83504
G01 X-22.85478 Y114.81474
G01 X-22.72413 Y114.58843
G01 X-22.71394 Y114.56552
G01 X-22.63317 Y114.31698
G01 X-22.62796 Y114.29244
G01 X-22.60066 Y114.03255
G01 X-22.60066 Y114.00748
G01 X-22.62796 Y113.74759
G01 X-22.63317 Y113.72305
G01 X-22.71394 Y113.47451
G01 X-22.72413 Y113.45160
G01 X-22.85478 Y113.22529
G01 X-22.86954 Y113.20499
G01 X-23.04439 Y113.01079
G01 X-23.06304 Y112.99400
G01 X-23.10000 Y112.96715
G01 X-23.10000 Y101.65503
G01 X-22.33299 Y100.88800
G01 X-21.85908 Y100.88800
G01 X-21.85801 Y100.88848
G01 X-21.83416 Y100.89623
G01 X-21.67056 Y100.93100
G01 X-21.64562 Y100.93362
G01 X-21.47836 Y100.93362
G01 X-21.45341 Y100.93100
G01 X-21.28981 Y100.89623
G01 X-21.26596 Y100.88848
G01 X-21.11318 Y100.82046
G01 X-21.09146 Y100.80791
G01 X-20.95616 Y100.70962
G01 X-20.93752 Y100.69283
G01 X-20.82560 Y100.56855
G01 X-20.81085 Y100.54825
G01 X-20.72723 Y100.40339
G01 X-20.71702 Y100.38048
G01 X-20.66535 Y100.22143
G01 X-20.66012 Y100.19689
G01 X-20.64265 Y100.03055
G01 X-20.64265 Y100.00548
G04 P0 ( dwell for no time -- G64 should not smooth over this point )
G00 Z5.00000 ( retract )

G00 X-28.26265 Y97.49055 ( rapid move to begin. )
G01 F150.00000
( Mill infeed pass 1/1 )
G01 Z-0.20000
G04 P0 ( dwell for no time -- G64 should not smooth over this point )
G01 F300.00000
G01 X-28.26265 Y97.49055
G01 X-28.28012 Y97.65689
G01 X-28.28535 Y97.68143
G01 X-28.33702 Y97.84048
G01 X-28.34723 Y97.86339
G01 X-28.43085 Y98.00825
G01 X-28.44560 Y98.02855
G01 X-28.55752 Y98.15283
G01 X-28.57616 Y98.16962
G01 X-28.71147 Y98.26791
G01 X-28.73318 Y98.28046
G01 X-28.88596 Y98.34848
G01 X-28.90981 Y98.35623
G01 X-29.07341 Y98.39100
G01 X-29.09836 Y98.39362
G01 X-29.26562 Y98.39362
G01 X-29.29056 Y98.39100
G01 X-29.45416 Y98.35623
G01 X-29.47801 Y98.34848
G01 X-29.47908 Y98.34800
G01 X-30.43943 Y98.34800
G01 X-30.45119 Y98.34744
G01 X-30.59749 Y98.33301
G01 X-30.62055 Y98.32844
G01 X-30.76127 Y98.28575
G01 X-30.78299 Y98.27675
G01 X-30.91265 Y98.20744
G01 X-30.93221 Y98.19438
G01 X-31.04588 Y98.10111
G01 X-31.05459 Y98.09319
G01 X-35.87978 Y93.26800
G01 X-36.86357 Y93.26800
G01 X-36.94559 Y93.29465
G01 X-36.97012 Y93.29988
G01 X-37.13644 Y93.31735
G01 X-37.14899 Y93.31801
G01 X-37.94899 Y93.31801
G01 X-37.96154 Y93.31735
G01 X-38.12785 Y93.29988
G01 X-38.15239 Y93.29465
G01 X-38.31147 Y93.24298
G01 X-38.33438 Y93.23277
G01 X-38.47921 Y93.14915
G01 X-38.49951 Y93.13440
G01 X-38.62379 Y93.02248
G01 X-38.64058 Y93.00384
G01 X-38.73888 Y92.86854
G01 X-38.75142 Y92.84682
G01 X-38.81945 Y92.69404
G01 X-38.82722 Y92.67019
G01 X-38.86199 Y92.50659
G01 X-38.86461 Y92.48164
G01 X-38.86461 Y92.31438
G01 X-38.86199 Y92.28944
G01 X-38.82722 Y92.12584
G01 X-38.81945 Y92.10199
G01 X-38.75142 Y91.94921
G01 X-38.73888 Y91.92749
G01 X-38.64058 Y91.79218
G01 X-38.62379 Y91.77354
G01 X-38.49951 Y91.66163
G01 X-38.47921 Y91.64687
G01 X-38.33438 Y91.56325
G01 X-38.31147 Y91.55304
G01 X-38.15239 Y91.50138
G01 X-38.12785 Y91.49615
G01 X-37.96154 Y91.47867
G01 X-37.94899 Y91.47801
G01 X-37.14899 Y91.47801
G01 X-37.13644 Y91.47867
G01 X-36.97012 Y91.49615
G01 X-36.94559 Y91.50138
G01 X-36.86357 Y91.52802
G01 X-35.51943 Y91.52802
G01 X-35.50764 Y91.52858
G01 X-35.36134 Y91.54301
G01 X-35.33827 Y91.54758
G01 X-35.19756 Y91.59028
G01 X-35.17584 Y91.59927
G01 X-35.04617 Y91.66859
G01 X-35.02662 Y91.68164
G01 X-34.91295 Y91.77491
G01 X-34.90424 Y91.78284
G01 X-30.07905 Y96.60802
G01 X-29.47908 Y96.60802
G01 X-29.47801 Y96.60754
G01 X-29.45416 Y96.59980
G01 X-29.29056 Y96.56502
G01 X-29.26562 Y96.56241
G01 X-29.09836 Y96.56241
G01 X-29.07341 Y96.56502
G01 X-28.90981 Y96.59980
G01 X-28.88596 Y96.60754
G01 X-28.73318 Y96.67556
G01 X-28.71147 Y96.68811
G01 X-28.57616 Y96.78641
G01 X-28.55752 Y96.80320
G01 X-28.44560 Y96.92748
G01 X-28.43085 Y96.94778
G01 X-28.34723 Y97.09263
G01 X-28.33702 Y97.11554
G01 X-28.28535 Y97.27460
G01 X-28.28012 Y97.29913
G01 X-28.26265 Y97.46548
G01 X-28.26265 Y100.03055
G01 X-28.26265 Y100.00548
G01 X-28.28012 Y99.83913
G01 X-28.28535 Y99.81460
G01 X-28.33702 Y99.65554
G01 X-28.34723 Y99.63263
G01 X-28.43085 Y99.48778
G01 X-28.44560 Y99.46748
G01 X-28.55752 Y99.34320
G01 X-28.57616 Y99.32641
G01 X-28.71147 Y99.22811
G01 X-28.73318 Y99.21556
G01 X-28.88596 Y99.14754
G01 X-28.90981 Y99.13980
G01 X-29.07341 Y99.10502
G01 X-29.09836 Y99.10241
G01 X-29.26562 Y99.10241
G01 X-29.29056 Y99.10502
G01 X-29.45416 Y99.13980
G01 X-29.47801 Y99.14754
G01 X-29.47908 Y99.14802
G01 X-30.59962 Y99.14802
G01 X-35.42481 Y94.32284
G01 X-35.43352 Y94.31491
G01 X-35.54719 Y94.22164
G01 X-35.56675 Y94.20859
G01 X-35.69641 Y94.13927
G01 X-35.71813 Y94.13028
G01 X-35.85885 Y94.08758
G01 X-35.88191 Y94.08301
G01 X-36.02821 Y94.06858
G01 X-36.04000 Y94.06802
G01 X-36.86357 Y94.06802
G01 X-36.94559 Y94.04138
G01 X-36.97012 Y94.03615
G01 X-37.13644 Y94.01867
G01 X-37.14899 Y94.01801
G01 X-37.94899 Y94.01801
G01 X-37.96154 Y94.01867
G01 X-38.12785 Y94.03615
G01 X-38.15239 Y94.04138
G01 X-38.31147 Y94.09304
G01 X-38.33438 Y94.10325
G01 X-38.47921 Y94.18687
G01 X-38.49951 Y94.20163
G01 X-38.62379 Y94.31354
G01 X-38.64058 Y94.33218
G01 X-38.73888 Y94.46749
G01 X-38.75142 Y94.48921
G01 X-38.81945 Y94.64199
G01 X-38.82722 Y94.66584
G01 X-38.86199 Y94.82944
G01 X-38.86461 Y94.85438
G01 X-38.86461 Y95.02164
G01 X-38.86199 Y95.04659
G01 X-38.82722 Y95.21019
G01 X-38.81945 Y95.23404
G01 X-38.75142 Y95.38682
G01 X-38.73888 Y95.40854
G01 X-38.64058 Y95.54384
G01 X-38.62379 Y95.56248
G01 X-38.49951 Y95.67440
G01 X-38.47921 Y95.68915
G01 X-38.33438 Y95.77277
G01 X-38.31147 Y95.78298
G01 X-38.15239 Y95.83465
G01 X-38.12785 Y95.83988
G01 X-37.96154 Y95.85735
G01 X-37.94899 Y95.85801
G01 X-37.14899 Y95.85801
G01 X-37.13644 Y95.85735
G01 X-36.97012 Y95.83988
G01 X-36.94559 Y95.83465
G01 X-36.86357 Y95.80800
G01 X-36.40035 Y95.80800
G01 X-31.57516 Y100.63319
G01 X-31.56645 Y100.64111
G01 X-31.45279 Y100.73438
G01 X-31.43323 Y100.74744
G01 X-31.30356 Y100.81675
G01 X-31.28184 Y100.82575
G01 X-31.14113 Y100.86844
G01 X-31.11806 Y100.87301
G01 X-30.97176 Y100.88744
G01 X-30.96000 Y100.88800
G01 X-29.47908 Y100.88800
G01 X-29.47801 Y100.88848
G01 X-29.45416 Y100.89623
G01 X-29.29056 Y100.93100
G01 X-29.26562 Y100.93362
G01 X-29.09836 Y100.93362
G01 X-29.07341 Y100.93100
G01 X-28.90981 Y100.89623
G01 X-28.88596 Y100.88848
G01 X-28.73318 Y100.82046
G01 X-28.71147 Y100.80791
G01 X-28.57616 Y100.70962
G01 X-28.55752 Y100.69283
G01 X-28.44560 Y100.56855
G01 X-28.43085 Y100.54825
G01 X-28.34723 Y100.40339
G01 X-28.33702 Y100.38048
G01 X-28.28535 Y100.22143
G01 X-28.28012 Y100.19689
G01 X-28.26265 Y100.03055
G01 X-28.26265 Y102.57055
G01 X-28.26265 Y102.54548
G01 X-28.28012 Y102.37913
G01 X-28.28535 Y102.35460
G01 X-28.33702 Y102.19554
G01 X-28.34723 Y102.17263
G01 X-28.43085 Y102.02778
G01 X-28.44560 Y102.00748
G01 X-28.55752 Y101.88320
G01 X-28.57616 Y101.86641
G01 X-28.71147 Y101.76811
G01 X-28.73318 Y101.75556
G01 X-28.88596 Y101.68754
G01 X-28.90981 Y101.67980
G01 X-29.07341 Y101.64502
G01 X-29.09836 Y101.64241
G01 X-29.26562 Y101.64241
G01 X-29.29056 Y101.64502
G01 X-29.45416 Y101.67980
G01 X-29.47801 Y101.68754
G01 X-29.47908 Y101.68802
G01 X-31.10762 Y101.68802
G01 X-35.93281 Y96.86284
G01 X-35.94152 Y96.85491
G01 X-36.05519 Y96.76164
G01 X-36.07475 Y96.74859
G01 X-36.20441 Y96.67927
G01 X-36.22613 Y96.67028
G01 X-36.22986 Y96.66914
G01 X-36.23129 Y96.65461
G01 X-36.23812 Y96.63208
G01 X-36.24922 Y96.61135
G01 X-36.26413 Y96.59317
G01 X-36.28232 Y96.57823
G01 X-36.30307 Y96.56716
G01 X-36.32557 Y96.56032
G01 X-36.34899 Y96.55801
G01 X-38.74899 Y96.55801
G01 X-38.77240 Y96.56032
G01 X-38.79491 Y96.56716
G01 X-38.81566 Y96.57823
G01 X-38.83385 Y96.59317
G01 X-38.84876 Y96.61135
G01 X-38.85986 Y96.63208
G01 X-38.86669 Y96.65461
G01 X-38.86898 Y96.67800
G01 X-38.86898 Y98.27802
G01 X-38.86669 Y98.30142
G01 X-38.85986 Y98.32395
G01 X-38.84876 Y98.34467
G01 X-38.83385 Y98.36286
G01 X-38.81566 Y98.37780
G01 X-38.79491 Y98.38887
G01 X-38.77240 Y98.39570
G01 X-38.74899 Y98.39801
G01 X-36.85836 Y98.39801
G01 X-32.08316 Y103.17319
G01 X-32.07445 Y103.18111
G01 X-31.96079 Y103.27438
G01 X-31.94123 Y103.28744
G01 X-31.81156 Y103.35675
G01 X-31.78984 Y103.36575
G01 X-31.64913 Y103.40844
G01 X-31.62606 Y103.41301
G01 X-31.47976 Y103.42744
G01 X-31.46800 Y103.42800
G01 X-29.47908 Y103.42800
G01 X-29.47801 Y103.42848
G01 X-29.45416 Y103.43623
G01 X-29.29056 Y103.47100
G01 X-29.26562 Y103.47362
G01 X-29.09836 Y103.47362
G01 X-29.07341 Y103.47100
G01 X-28.90981 Y103.43623
G01 X-28.88596 Y103.42848
G01 X-28.73318 Y103.36046
G01 X-28.71147 Y103.34791
G01 X-28.57616 Y103.24962
G01 X-28.55752 Y103.23283
G01 X-28.44560 Y103.10855
G01 X-28.43085 Y103.08825
G01 X-28.34723 Y102.94339
G01 X-28.33702 Y102.92048
G01 X-28.28535 Y102.76143
G01 X-28.28012 Y102.73689
G01 X-28.26265 Y102.57055
G01 X-28.26265 Y105.11055
G01 X-28.26265 Y105.08548
G01 X-28.28012 Y104.91913
G01 X-28.28535 Y104.89460
G01 X-28.33702 Y104.73554
G01 X-28.34723 Y104.71263
G01 X-28.43085 Y104.56777
G01 X-28.44560 Y104.54748
G01 X-28.55752 Y104.42320
G01 X-28.57616 Y104.40641
G01 X-28.71147 Y104.30811
G01 X-28.73318 Y104.29556
G01 X-28.88596 Y104.22754
G01 X-28.90981 Y104.21980
G01 X-29.07341 Y104.18502
G01 X-29.09836 Y104.18241
G01 X-29.26562 Y104.18241
G01 X-29.29056 Y104.18502
G01 X-29.45416 Y104.21980
G01 X-29.47801 Y104.22754
G01 X-29.47908 Y104.22802
G01 X-35.27800 Y104.22802
G01 X-35.28976 Y104.22858
G01 X-35.43606 Y104.24301
G01 X-35.45913 Y104.24758
G01 X-35.59984 Y104.29028
G01 X-35.62156 Y104.29927
G01 X-35.75123 Y104.36859
G01 X-35.77079 Y104.38164
G01 X-35.88445 Y104.47491
G01 X-35.89316 Y104.48284
G01 X-41.73516 Y110.32484
G01 X-41.74309 Y110.33355
G01 X-41.83636 Y110.44721
G01 X-41.84941 Y110.46677
G01 X-41.91870 Y110.59644
G01 X-41.92772 Y110.61816
G01 X-41.97042 Y110.75887
G01 X-41.97499 Y110.78194
G01 X-41.98939 Y110.92824
G01 X-41.98998 Y110.94000
G01 X-41.98998 Y112.46161
G01 X-42.11995 Y112.46161
G01 X-42.14337 Y112.46392
G01 X-42.16592 Y112.47076
G01 X-42.18662 Y112.48183
G01 X-42.20483 Y112.49677
G01 X-42.21977 Y112.51495
G01 X-42.23084 Y112.53568
G01 X-42.23768 Y112.55821
G01 X-42.23999 Y112.58160
G01 X-42.23999 Y114.58162
G01 X-42.23768 Y114.60502
G01 X-42.23084 Y114.62755
G01 X-42.21977 Y114.64827
G01 X-42.20483 Y114.66646
G01 X-42.18662 Y114.68139
G01 X-42.16592 Y114.69247
G01 X-42.14337 Y114.69930
G01 X-42.11995 Y114.70161
G01 X-40.11998 Y114.70161
G01 X-40.09658 Y114.69930
G01 X-40.07405 Y114.69247
G01 X-40.05333 Y114.68139
G01 X-40.03514 Y114.66646
G01 X-40.02018 Y114.64827
G01 X-40.00913 Y114.62755
G01 X-40.00227 Y114.60502
G01 X-39.99999 Y114.58162
G01 X-39.99999 Y112.58160
G01 X-40.00227 Y112.55821
G01 X-40.00913 Y112.53568
G01 X-40.02018 Y112.51495
G01 X-40.03514 Y112.49677
G01 X-40.05333 Y112.48183
G01 X-40.07405 Y112.47076
G01 X-40.09658 Y112.46392
G01 X-40.11998 Y112.46161
G01 X-40.25000 Y112.46161
G01 X-40.25000 Y111.30038
G01 X-34.91762 Y105.96800
G01 X-29.47908 Y105.96800
G01 X-29.47801 Y105.96848
G01 X-29.45416 Y105.97623
G01 X-29.29056 Y106.01100
G01 X-29.26562 Y106.01362
G01 X-29.09836 Y106.01362
G01 X-29.07341 Y106.01100
G01 X-28.90981 Y105.97623
G01 X-28.88596 Y105.96848
G01 X-28.73318 Y105.90046
G01 X-28.71147 Y105.88791
G01 X-28.57616 Y105.78962
G01 X-28.55752 Y105.77283
G01 X-28.44560 Y105.64855
G01 X-28.43085 Y105.62825
G01 X-28.34723 Y105.48339
G01 X-28.33702 Y105.46048
G01 X-28.28535 Y105.30143
G01 X-28.28012 Y105.27689
G01 X-28.26265 Y105.11055
G01 X-28.26265 Y107.65055
G01 X-28.26265 Y107.62548
G01 X-28.28012 Y107.45913
G01 X-28.28535 Y107.43460
G01 X-28.33702 Y107.27554
G01 X-28.34723 Y107.25263
G01 X-28.43085 Y107.10777
G01 X-28.44560 Y107.08748
G01 X-28.55752 Y106.96320
G01 X-28.57616 Y106.94641
G01 X-28.71147 Y106.84811
G01 X-28.73318 Y106.83556
G01 X-28.88596 Y106.76754
G01 X-28.90981 Y106.75979
G01 X-29.07341 Y106.72502
G01 X-29.09836 Y106.72241
G01 X-29.26562 Y106.72241
G01 X-29.29056 Y106.72502
G01 X-29.45416 Y106.75979
G01 X-29.47801 Y106.76754
G01 X-29.47908 Y106.76802
G01 X-32.20851 Y106.76802
G01 X-32.21745 Y106.76150
G01 X-32.23917 Y106.74897
G01 X-32.41105 Y106.67244
G01 X-32.43493 Y106.66467
G01 X-32.61895 Y106.62556
G01 X-32.64392 Y106.62294
G01 X-32.83206 Y106.62294
G01 X-32.85702 Y106.62556
G01 X-33.04105 Y106.66467
G01 X-33.06492 Y106.67244
G01 X-33.23681 Y106.74897
G01 X-33.25852 Y106.76150
G01 X-33.41074 Y106.87209
G01 X-33.42939 Y106.88888
G01 X-33.55527 Y107.02870
G01 X-33.57003 Y107.04900
G01 X-33.66411 Y107.21194
G01 X-33.67429 Y107.23488
G01 X-33.73244 Y107.41382
G01 X-33.73767 Y107.43836
G01 X-33.75733 Y107.62548
G01 X-33.75733 Y107.65055
G01 X-33.73767 Y107.83767
G01 X-33.73244 Y107.86221
G01 X-33.67429 Y108.04115
G01 X-33.66411 Y108.06409
G01 X-33.57003 Y108.22703
G01 X-33.55527 Y108.24732
G01 X-33.42939 Y108.38715
G01 X-33.41074 Y108.40394
G01 X-33.25852 Y108.51453
G01 X-33.23681 Y108.52705
G01 X-33.06492 Y108.60358
G01 X-33.04105 Y108.61135
G01 X-32.85702 Y108.65047
G01 X-32.83206 Y108.65309
G01 X-32.64392 Y108.65309
G01 X-32.61895 Y108.65047
G01 X-32.43493 Y108.61135
G01 X-32.41105 Y108.60358
G01 X-32.23917 Y108.52705
G01 X-32.21745 Y108.51453
G01 X-32.20851 Y108.50800
G01 X-29.47908 Y108.50800
G01 X-29.47801 Y108.50848
G01 X-29.45416 Y108.51623
G01 X-29.29056 Y108.55100
G01 X-29.26562 Y108.55362
G01 X-29.09836 Y108.55362
G01 X-29.07341 Y108.55100
G01 X-28.90981 Y108.51623
G01 X-28.88596 Y108.50848
G01 X-28.73318 Y108.44046
G01 X-28.71147 Y108.42791
G01 X-28.57616 Y108.32962
G01 X-28.55752 Y108.31283
G01 X-28.44560 Y108.18855
G01 X-28.43085 Y108.16825
G01 X-28.34723 Y108.02339
G01 X-28.33702 Y108.00048
G01 X-28.28535 Y107.84143
G01 X-28.28012 Y107.81689
G01 X-28.26265 Y107.65055
G01 X-28.26265 Y110.19055
G01 X-28.28012 Y110.35689
G01 X-28.28535 Y110.38143
G01 X-28.29183 Y110.40142
G01 X-28.33702 Y110.54048
G01 X-28.34723 Y110.56339
G01 X-28.43085 Y110.70825
G01 X-28.44560 Y110.72854
G01 X-28.55752 Y110.85283
G01 X-28.57616 Y110.86962
G01 X-28.71147 Y110.96791
G01 X-28.73318 Y110.98046
G01 X-28.88596 Y111.04848
G01 X-28.90981 Y111.05623
G01 X-29.07341 Y111.09100
G01 X-29.09836 Y111.09362
G01 X-29.26562 Y111.09362
G01 X-29.29056 Y111.09100
G01 X-29.45416 Y111.05623
G01 X-29.47801 Y111.04848
G01 X-29.47908 Y111.04800
G01 X-32.75862 Y111.04800
G01 X-35.50398 Y113.79339
G01 X-35.50398 Y130.57169
G01 X-35.35443 Y130.73778
G01 X-35.33970 Y130.75807
G01 X-35.21948 Y130.96627
G01 X-35.20929 Y130.98919
G01 X-35.13500 Y131.21784
G01 X-35.12977 Y131.24237
G01 X-35.10464 Y131.48146
G01 X-35.10464 Y131.50656
G01 X-35.12977 Y131.74565
G01 X-35.13500 Y131.77018
G01 X-35.20929 Y131.99884
G01 X-35.21948 Y132.02177
G01 X-35.33970 Y132.22998
G01 X-35.35443 Y132.25027
G01 X-35.50398 Y132.41634
G01 X-35.50398 Y134.63569
G01 X-35.35443 Y134.80178
G01 X-35.33970 Y134.82207
G01 X-35.21948 Y135.03027
G01 X-35.20929 Y135.05319
G01 X-35.13500 Y135.28184
G01 X-35.12977 Y135.30637
G01 X-35.10464 Y135.54546
G01 X-35.10464 Y135.57056
G01 X-35.12977 Y135.80965
G01 X-35.13500 Y135.83418
G01 X-35.20929 Y136.06284
G01 X-35.21948 Y136.08577
G01 X-35.33970 Y136.29398
G01 X-35.35443 Y136.31427
G01 X-35.50398 Y136.48033
G01 X-35.50398 Y139.09880
G01 X-35.44788 Y139.19595
G01 X-35.43766 Y139.21886
G01 X-35.37952 Y139.39780
G01 X-35.37432 Y139.42234
G01 X-35.35466 Y139.60946
G01 X-35.35466 Y139.63456
G01 X-35.37432 Y139.82168
G01 X-35.37952 Y139.84622
G01 X-35.43766 Y140.02516
G01 X-35.44788 Y140.04807
G01 X-35.50398 Y140.14525
G01 X-35.50398 Y143.18279
G01 X-35.44788 Y143.27994
G01 X-35.43766 Y143.30288
G01 X-35.37952 Y143.48182
G01 X-35.37432 Y143.50636
G01 X-35.35466 Y143.69348
G01 X-35.35466 Y143.71855
G01 X-35.37432 Y143.90567
G01 X-35.37952 Y143.93021
G01 X-35.43766 Y144.10915
G01 X-35.44788 Y144.13209
G01 X-35.54196 Y144.29503
G01 X-35.55669 Y144.31532
