( pcb2gcode 2.4.0 )
( Software-independent Gcode )

G94 ( Millimeters per minute feed rate. )
G21 ( Units == Millimeters. )

G90 ( Absolute coordinates. )
G00 S20000 ( RPM spindle speed. )
G64 P0.05000 ( set maximum deviation from commanded toolpath )
G01 F400.00000 ( Feedrate. )


G00 Z30.00000 (Retract to tool change height)
T0
M5      (Spindle stop.)
G04 P1.00000 (Wait for spindle to stop)
(MSG, Change tool bit to mill diameter 0.80000mm)
M6      (Tool change.)
M0      (Temporary machine stop.)
M3 ( Spindle on clockwise. )
G04 P1.00000 (Wait for spindle to get up to speed)
G04 P0 ( dwell for no time -- G64 should not smooth over this point )
G00 Z2.00000 ( retract )

G00 X-3.72418 Y138.05221 ( rapid move to begin. )
G01 F200.00000
( Mill infeed pass 1/1 )
G01 Z-0.20000
G04 P0 ( dwell for no time -- G64 should not smooth over this point )
G01 F400.00000
G01 X-3.72418 Y138.05221
G01 X-3.74384 Y137.86509
G01 X-3.76124 Y137.78327
G01 X-3.81938 Y137.60436
G01 X-3.84430 Y137.54837
G01 X-3.85339 Y137.52795
G01 X-3.94745 Y137.36501
G01 X-3.99662 Y137.29735
G01 X-4.12251 Y137.15752
G01 X-4.18466 Y137.10159
G01 X-4.33688 Y136.99097
G01 X-4.40930 Y136.94916
G01 X-4.58118 Y136.87263
G01 X-4.66071 Y136.84680
G01 X-4.84476 Y136.80768
G01 X-4.92791 Y136.79895
G01 X-5.11605 Y136.79895
G01 X-5.19924 Y136.80768
G01 X-5.38326 Y136.84680
G01 X-5.46279 Y136.87263
G01 X-5.63467 Y136.94916
G01 X-5.70711 Y136.99097
G01 X-5.85931 Y137.10159
G01 X-5.92146 Y137.15752
G01 X-6.04737 Y137.29735
G01 X-6.09652 Y137.36501
G01 X-6.19060 Y137.52795
G01 X-6.22461 Y137.60436
G01 X-6.28275 Y137.78327
G01 X-6.30012 Y137.86509
G01 X-6.31978 Y138.05221
G01 X-6.31978 Y138.13582
G01 X-6.30012 Y138.32295
G01 X-6.28275 Y138.40473
G01 X-6.22461 Y138.58368
G01 X-6.19060 Y138.66008
G01 X-6.17198 Y138.69229
G01 X-6.17198 Y140.82568
G01 X-10.19232 Y144.84602
G01 X-17.12398 Y144.84602
G01 X-17.12398 Y144.49601
G01 X-17.13168 Y144.41798
G01 X-17.15443 Y144.34295
G01 X-17.19139 Y144.27379
G01 X-17.24115 Y144.21318
G01 X-17.30175 Y144.16342
G01 X-17.37092 Y144.12647
G01 X-17.44595 Y144.10371
G01 X-17.52398 Y144.09601
G01 X-19.02398 Y144.09601
G01 X-19.10203 Y144.10371
G01 X-19.17706 Y144.12647
G01 X-19.24623 Y144.16342
G01 X-19.30683 Y144.21318
G01 X-19.35656 Y144.27379
G01 X-19.39355 Y144.34295
G01 X-19.41630 Y144.41798
G01 X-19.42400 Y144.49601
G01 X-19.42397 Y147.49613
G01 X-19.42400 Y149.49600
G01 X-19.42400 Y152.49602
G01 X-19.41630 Y152.57405
G01 X-19.39355 Y152.64908
G01 X-19.35656 Y152.71824
G01 X-19.30683 Y152.77885
G01 X-19.24623 Y152.82861
G01 X-19.17706 Y152.86556
G01 X-19.10203 Y152.88832
G01 X-19.02398 Y152.89602
G01 X-17.52398 Y152.89602
G01 X-17.44595 Y152.88832
G01 X-17.37092 Y152.86556
G01 X-17.30175 Y152.82861
G01 X-17.24115 Y152.77885
G01 X-17.19139 Y152.71824
G01 X-17.15443 Y152.64908
G01 X-17.13168 Y152.57405
G01 X-17.12398 Y152.49602
G01 X-17.12398 Y147.14602
G01 X-9.71599 Y147.14602
G01 X-9.67678 Y147.14409
G01 X-9.53045 Y147.12969
G01 X-9.45356 Y147.11439
G01 X-9.31284 Y147.07170
G01 X-9.24040 Y147.04170
G01 X-9.11074 Y146.97238
G01 X-9.04553 Y146.92882
G01 X-8.93189 Y146.83555
G01 X-8.90281 Y146.80919
G01 X-4.20882 Y142.11519
G01 X-4.18245 Y142.08611
G01 X-4.08918 Y141.97247
G01 X-4.04562 Y141.90727
G01 X-3.97630 Y141.77760
G01 X-3.94631 Y141.70516
G01 X-3.90361 Y141.56444
G01 X-3.88832 Y141.48756
G01 X-3.87392 Y141.34123
G01 X-3.87199 Y141.30201
G01 X-3.87199 Y138.69229
G01 X-3.85339 Y138.66008
G01 X-3.81938 Y138.58368
G01 X-3.76124 Y138.40473
G01 X-3.74384 Y138.32295
G01 X-3.72418 Y138.13582
G01 X-3.72418 Y138.05221
G04 P0 ( dwell for no time -- G64 should not smooth over this point )
G00 Z2.00000 ( retract )

G00 X-22.12397 Y145.99601 ( rapid move to begin. )
G01 F200.00000
( Mill infeed pass 1/1 )
G01 Z-0.20000
G04 P0 ( dwell for no time -- G64 should not smooth over this point )
G01 F400.00000
G01 X-22.12397 Y145.99601
G01 X-22.12399 Y145.99560
G01 X-22.12399 Y145.24602
G01 X-22.12618 Y145.20421
G01 X-22.14256 Y145.04826
G01 X-22.15996 Y144.96647
G01 X-22.20840 Y144.81735
G01 X-22.24241 Y144.74097
G01 X-22.32082 Y144.60518
G01 X-22.36997 Y144.53751
G01 X-22.47487 Y144.42100
G01 X-22.53702 Y144.36505
G01 X-22.66387 Y144.27290
G01 X-22.73629 Y144.23106
G01 X-22.87952 Y144.16731
G01 X-22.95907 Y144.14145
G01 X-23.11244 Y144.10886
G01 X-23.19560 Y144.10013
G01 X-23.35239 Y144.10013
G01 X-23.43555 Y144.10886
G01 X-23.51739 Y144.12626
G01 X-27.99597 Y139.64768
G01 X-27.99597 Y138.69226
G01 X-27.97737 Y138.66008
G01 X-27.94336 Y138.58368
G01 X-27.88522 Y138.40473
G01 X-27.86785 Y138.32295
G01 X-27.84819 Y138.13582
G01 X-27.84819 Y138.05221
G01 X-27.86785 Y137.86509
G01 X-27.88522 Y137.78327
G01 X-27.94336 Y137.60436
G01 X-27.97737 Y137.52795
G01 X-28.07146 Y137.36501
G01 X-28.12060 Y137.29735
G01 X-28.24651 Y137.15752
G01 X-28.30867 Y137.10159
G01 X-28.46086 Y136.99097
G01 X-28.53330 Y136.94916
G01 X-28.70519 Y136.87263
G01 X-28.78471 Y136.84680
G01 X-28.96874 Y136.80768
G01 X-29.05192 Y136.79895
G01 X-29.24006 Y136.79895
G01 X-29.32322 Y136.80768
G01 X-29.50727 Y136.84680
G01 X-29.58679 Y136.87263
G01 X-29.75868 Y136.94916
G01 X-29.83109 Y136.99097
G01 X-29.98331 Y137.10159
G01 X-30.04547 Y137.15752
G01 X-30.17135 Y137.29735
G01 X-30.22052 Y137.36501
G01 X-30.31458 Y137.52795
G01 X-30.34859 Y137.60436
G01 X-30.40673 Y137.78327
G01 X-30.42413 Y137.86509
G01 X-30.44379 Y138.05221
G01 X-30.44379 Y138.13582
G01 X-30.42413 Y138.32295
G01 X-30.40673 Y138.40473
G01 X-30.34859 Y138.58368
G01 X-30.31458 Y138.66008
G01 X-30.29596 Y138.69234
G01 X-30.29596 Y140.12401
G01 X-30.29403 Y140.16323
G01 X-30.27963 Y140.30956
G01 X-30.26434 Y140.38644
G01 X-30.22164 Y140.52716
G01 X-30.19164 Y140.59960
G01 X-30.12233 Y140.72927
G01 X-30.07877 Y140.79447
G01 X-29.98550 Y140.90811
G01 X-29.95913 Y140.93719
G01 X-24.42399 Y146.47233
G01 X-24.42399 Y146.74602
G01 X-24.42396 Y146.74640
G01 X-24.42399 Y150.24601
G01 X-24.42399 Y151.74601
G01 X-24.42181 Y151.78782
G01 X-24.40540 Y151.94375
G01 X-24.38802 Y152.02556
G01 X-24.33956 Y152.17468
G01 X-24.30555 Y152.25106
G01 X-24.22717 Y152.38685
G01 X-24.17802 Y152.45452
G01 X-24.08846 Y152.55398
G01 X-24.07309 Y152.57103
G01 X-24.01096 Y152.62698
G01 X-23.88411 Y152.71913
G01 X-23.81167 Y152.76094
G01 X-23.66844 Y152.82472
G01 X-23.58891 Y152.85055
G01 X-23.43555 Y152.88317
G01 X-23.35239 Y152.89190
G01 X-23.19560 Y152.89190
G01 X-23.11244 Y152.88317
G01 X-22.95907 Y152.85055
G01 X-22.87952 Y152.82472
G01 X-22.73629 Y152.76094
G01 X-22.66387 Y152.71913
G01 X-22.53702 Y152.62698
G01 X-22.47487 Y152.57103
G01 X-22.45953 Y152.55398
G01 X-22.36997 Y152.45452
G01 X-22.32082 Y152.38685
G01 X-22.24241 Y152.25106
G01 X-22.20840 Y152.17468
G01 X-22.15996 Y152.02556
G01 X-22.14256 Y151.94375
G01 X-22.12618 Y151.78782
G01 X-22.12399 Y151.74603
G01 X-22.12397 Y150.99602
G01 X-22.12397 Y145.99601
G04 P0 ( dwell for no time -- G64 should not smooth over this point )
G00 Z2.00000 ( retract )

G00 X-27.12398 Y145.24602 ( rapid move to begin. )
G01 F200.00000
( Mill infeed pass 1/1 )
G01 Z-0.20000
G04 P0 ( dwell for no time -- G64 should not smooth over this point )
G01 F400.00000
G01 X-27.12398 Y145.24602
G01 X-27.12617 Y145.20421
G01 X-27.14258 Y145.04826
G01 X-27.15995 Y144.96647
G01 X-27.20841 Y144.81735
G01 X-27.24242 Y144.74097
G01 X-27.32081 Y144.60518
G01 X-27.36996 Y144.53751
G01 X-27.47489 Y144.42100
G01 X-27.53701 Y144.36505
G01 X-27.66386 Y144.27290
G01 X-27.73630 Y144.23106
G01 X-27.87953 Y144.16731
G01 X-27.95906 Y144.14145
G01 X-28.11243 Y144.10886
G01 X-28.19559 Y144.10013
G01 X-28.35238 Y144.10013
G01 X-28.43554 Y144.10886
G01 X-28.51740 Y144.12626
G01 X-32.20779 Y140.43585
G01 X-32.23688 Y140.40948
G01 X-32.35052 Y140.31621
G01 X-32.41572 Y140.27265
G01 X-32.54539 Y140.20333
G01 X-32.61783 Y140.17334
G01 X-32.75854 Y140.13064
G01 X-32.83543 Y140.11535
G01 X-32.98176 Y140.10095
G01 X-33.02098 Y140.09902
G01 X-39.71860 Y140.09902
G01 X-42.13564 Y137.68198
G01 X-42.16736 Y137.58434
G01 X-42.20137 Y137.50796
G01 X-42.29546 Y137.34500
G01 X-42.34460 Y137.27736
G01 X-42.47051 Y137.13753
G01 X-42.53267 Y137.08157
G01 X-42.68486 Y136.97098
G01 X-42.75730 Y136.92917
G01 X-42.92919 Y136.85264
G01 X-43.00871 Y136.82681
G01 X-43.19274 Y136.78769
G01 X-43.27592 Y136.77893
G01 X-43.46406 Y136.77893
G01 X-43.54722 Y136.78769
G01 X-43.73127 Y136.82681
G01 X-43.81079 Y136.85264
G01 X-43.98268 Y136.92917
G01 X-44.05509 Y136.97098
G01 X-44.20731 Y137.08157
G01 X-44.26947 Y137.13753
G01 X-44.39535 Y137.27736
G01 X-44.44452 Y137.34500
G01 X-44.53858 Y137.50796
G01 X-44.57259 Y137.58434
G01 X-44.63073 Y137.76328
G01 X-44.64813 Y137.84507
G01 X-44.66779 Y138.03219
G01 X-44.66779 Y138.11584
G01 X-44.64813 Y138.30296
G01 X-44.63073 Y138.38474
G01 X-44.57259 Y138.56369
G01 X-44.53858 Y138.64007
G01 X-44.44452 Y138.80303
G01 X-44.39535 Y138.87067
G01 X-44.26947 Y139.01050
G01 X-44.20731 Y139.06646
G01 X-44.05509 Y139.17705
G01 X-43.98268 Y139.21886
G01 X-43.81079 Y139.29539
G01 X-43.75768 Y139.31263
G01 X-41.00813 Y142.06218
G01 X-40.97905 Y142.08855
G01 X-40.86541 Y142.18182
G01 X-40.80021 Y142.22538
G01 X-40.67052 Y142.29469
G01 X-40.59810 Y142.32469
G01 X-40.45738 Y142.36739
G01 X-40.38047 Y142.38268
G01 X-40.23417 Y142.39708
G01 X-40.19498 Y142.39901
G01 X-33.49730 Y142.39901
G01 X-29.42398 Y146.47236
G01 X-29.42398 Y151.74601
G01 X-29.42180 Y151.78782
G01 X-29.40541 Y151.94375
G01 X-29.38801 Y152.02556
G01 X-29.33958 Y152.17468
G01 X-29.30556 Y152.25106
G01 X-29.22716 Y152.38685
G01 X-29.17801 Y152.45452
G01 X-29.08845 Y152.55396
G01 X-29.07310 Y152.57103
G01 X-29.01095 Y152.62698
G01 X-28.88410 Y152.71913
G01 X-28.81169 Y152.76094
G01 X-28.66846 Y152.82472
G01 X-28.58890 Y152.85055
G01 X-28.43554 Y152.88317
G01 X-28.35238 Y152.89190
G01 X-28.19559 Y152.89190
G01 X-28.11243 Y152.88317
G01 X-27.95906 Y152.85055
G01 X-27.87953 Y152.82472
G01 X-27.73630 Y152.76094
G01 X-27.66386 Y152.71913
G01 X-27.53701 Y152.62698
G01 X-27.47489 Y152.57103
G01 X-27.36996 Y152.45452
G01 X-27.32081 Y152.38685
G01 X-27.24242 Y152.25106
G01 X-27.20841 Y152.17468
G01 X-27.15995 Y152.02556
G01 X-27.14258 Y151.94375
G01 X-27.12617 Y151.78782
G01 X-27.12398 Y151.74601
G01 X-27.12398 Y145.24602
G04 P0 ( dwell for no time -- G64 should not smooth over this point )
G00 Z2.00000 ( retract )

G00 X-52.55515 Y150.89808 ( rapid move to begin. )
G01 F200.00000
( Mill infeed pass 1/1 )
G01 Z-0.20000
G04 P0 ( dwell for no time -- G64 should not smooth over this point )
G01 F400.00000
G01 X-52.55515 Y150.89808
G01 X-52.47298 Y150.89402
G01 X-46.83484 Y150.89402
G01 X-46.82836 Y150.89191
G01 X-46.66476 Y150.85714
G01 X-46.58160 Y150.84840
G01 X-46.41437 Y150.84840
G01 X-46.33121 Y150.85714
G01 X-46.16761 Y150.89191
G01 X-46.16113 Y150.89402
G01 X-37.60799 Y150.89402
G01 X-37.56877 Y150.89595
G01 X-37.42244 Y150.91035
G01 X-37.34555 Y150.92564
G01 X-37.20481 Y150.96834
G01 X-37.13237 Y150.99833
G01 X-37.00273 Y151.06765
G01 X-36.93753 Y151.11121
G01 X-36.82389 Y151.20448
G01 X-36.79481 Y151.23085
G01 X-35.09964 Y152.92602
G01 X-14.84331 Y152.92602
G01 X-3.45197 Y141.53468
G01 X-3.45197 Y113.06877
G01 X-3.45162 Y113.06773
G01 X-3.45913 Y113.07687
G01 X-3.48570 Y113.11345
G01 X-3.52459 Y113.15663
G01 X-3.57567 Y113.21888
G01 X-3.62550 Y113.26869
G01 X-3.63112 Y113.27433
G01 X-3.63790 Y113.27987
G01 X-3.68773 Y113.32477
G01 X-3.72995 Y113.35543
G01 X-3.78265 Y113.39869
G01 X-3.81026 Y113.41713
G01 X-3.84786 Y113.44225
G01 X-3.85388 Y113.44548
G01 X-3.85687 Y113.44763
G01 X-3.87597 Y113.45868
G01 X-3.87597 Y121.68386
G01 X-3.87392 Y121.70477
G01 X-3.87199 Y121.74399
G01 X-3.87199 Y124.85221
G01 X-3.82812 Y124.90090
G01 X-3.79436 Y124.93842
G01 X-3.74521 Y125.00606
G01 X-3.62500 Y125.21426
G01 X-3.59099 Y125.29066
G01 X-3.51669 Y125.51931
G01 X-3.49932 Y125.60110
G01 X-3.47417 Y125.84019
G01 X-3.47417 Y125.92383
G01 X-3.49932 Y126.16293
G01 X-3.51669 Y126.24471
G01 X-3.59099 Y126.47336
G01 X-3.62500 Y126.54977
G01 X-3.74521 Y126.75797
G01 X-3.79436 Y126.82561
G01 X-3.87199 Y126.91182
G01 X-3.87199 Y128.91621
G01 X-3.79436 Y129.00242
G01 X-3.74521 Y129.07006
G01 X-3.62500 Y129.27826
G01 X-3.59099 Y129.35466
G01 X-3.51669 Y129.58331
G01 X-3.49932 Y129.66510
G01 X-3.47417 Y129.90419
G01 X-3.47417 Y129.98784
G01 X-3.49932 Y130.22693
G01 X-3.51669 Y130.30871
G01 X-3.59099 Y130.53736
G01 X-3.62500 Y130.61377
G01 X-3.74521 Y130.82197
G01 X-3.79436 Y130.88961
G01 X-3.87199 Y130.97582
G01 X-3.87199 Y133.41173
G01 X-3.85339 Y133.44396
G01 X-3.81938 Y133.52034
G01 X-3.76124 Y133.69928
G01 X-3.74384 Y133.78107
G01 X-3.72418 Y133.96819
G01 X-3.72418 Y134.05184
G01 X-3.74384 Y134.23896
G01 X-3.76124 Y134.32074
G01 X-3.81938 Y134.49969
G01 X-3.85339 Y134.57607
G01 X-3.94745 Y134.73903
G01 X-3.99662 Y134.80667
G01 X-4.12251 Y134.94650
G01 X-4.18466 Y135.00246
G01 X-4.33688 Y135.11305
G01 X-4.40930 Y135.15486
G01 X-4.58118 Y135.23139
G01 X-4.66071 Y135.25722
G01 X-4.84476 Y135.29633
G01 X-4.92791 Y135.30507
G01 X-5.11605 Y135.30507
G01 X-5.19924 Y135.29633
G01 X-5.38326 Y135.25722
G01 X-5.46279 Y135.23139
G01 X-5.62309 Y135.16001
G01 X-7.66764 Y135.16001
G01 X-8.77198 Y136.26435
G01 X-8.77198 Y139.09000
G01 X-8.77391 Y139.12922
G01 X-8.78831 Y139.27555
G01 X-8.80360 Y139.35243
G01 X-8.84630 Y139.49315
G01 X-8.87629 Y139.56559
G01 X-8.94561 Y139.69526
G01 X-8.98917 Y139.76046
G01 X-9.08244 Y139.87410
G01 X-9.10881 Y139.90318
G01 X-11.64881 Y142.44318
G01 X-11.67789 Y142.46955
G01 X-11.79153 Y142.56282
G01 X-11.85673 Y142.60638
G01 X-11.98640 Y142.67569
G01 X-12.05884 Y142.70569
G01 X-12.19955 Y142.74839
G01 X-12.27644 Y142.76368
G01 X-12.42277 Y142.77808
G01 X-12.46199 Y142.78001
G01 X-21.52598 Y142.78001
G01 X-21.56517 Y142.77808
G01 X-21.71150 Y142.76368
G01 X-21.78838 Y142.74839
G01 X-21.92910 Y142.70569
G01 X-22.00154 Y142.67569
G01 X-22.13121 Y142.60638
G01 X-22.19641 Y142.56282
G01 X-22.31005 Y142.46955
G01 X-22.33913 Y142.44318
G01 X-29.53368 Y135.24863
G01 X-29.58679 Y135.23139
G01 X-29.75868 Y135.15486
G01 X-29.83109 Y135.11305
G01 X-29.98331 Y135.00246
G01 X-30.04547 Y134.94650
G01 X-30.17135 Y134.80667
G01 X-30.22052 Y134.73903
G01 X-30.31458 Y134.57607
G01 X-30.34859 Y134.49969
G01 X-30.40673 Y134.32074
G01 X-30.42413 Y134.23896
G01 X-30.44379 Y134.05184
G01 X-30.44379 Y133.96819
G01 X-30.42413 Y133.78107
G01 X-30.40673 Y133.69928
G01 X-30.34859 Y133.52034
G01 X-30.31458 Y133.44396
G01 X-30.29596 Y133.41170
G01 X-30.29596 Y130.97587
G01 X-30.37361 Y130.88961
G01 X-30.42276 Y130.82197
G01 X-30.54298 Y130.61377
G01 X-30.57699 Y130.53736
G01 X-30.65128 Y130.30871
G01 X-30.66866 Y130.22693
G01 X-30.69380 Y129.98784
G01 X-30.69380 Y129.90419
G01 X-30.66866 Y129.66510
G01 X-30.65128 Y129.58331
G01 X-30.57699 Y129.35466
G01 X-30.54298 Y129.27826
G01 X-30.42276 Y129.07006
G01 X-30.37361 Y129.00242
G01 X-30.29596 Y128.91616
G01 X-30.29596 Y126.91187
G01 X-30.37361 Y126.82561
G01 X-30.42276 Y126.75797
G01 X-30.54298 Y126.54977
G01 X-30.57699 Y126.47336
G01 X-30.65128 Y126.24471
G01 X-30.66866 Y126.16293
G01 X-30.69380 Y125.92383
G01 X-30.69380 Y125.84019
G01 X-30.66866 Y125.60110
G01 X-30.65128 Y125.51931
G01 X-30.57699 Y125.29066
G01 X-30.54298 Y125.21426
G01 X-30.42276 Y125.00606
G01 X-30.37361 Y124.93842
G01 X-30.29596 Y124.85216
G01 X-30.29596 Y119.60155
G01 X-30.30023 Y119.60345
G01 X-30.37976 Y119.62928
G01 X-30.63536 Y119.68361
G01 X-30.71852 Y119.69238
G01 X-30.97986 Y119.69238
G01 X-31.06302 Y119.68361
G01 X-31.31862 Y119.62928
G01 X-31.39814 Y119.60345
G01 X-31.63688 Y119.49715
G01 X-31.70929 Y119.45534
G01 X-31.92072 Y119.30175
G01 X-31.98285 Y119.24579
G01 X-32.15771 Y119.05159
G01 X-32.20688 Y118.98395
G01 X-32.22395 Y118.95435
G01 X-32.28481 Y118.72723
G01 X-32.29959 Y118.65791
G01 X-32.34099 Y118.39657
G01 X-32.34716 Y118.33802
G01 X-32.36085 Y118.07671
G01 X-32.36085 Y118.02172
G01 X-32.34716 Y117.76043
G01 X-32.34099 Y117.70188
G01 X-32.29959 Y117.44054
G01 X-32.28481 Y117.37122
G01 X-32.22395 Y117.14405
G01 X-32.20688 Y117.11448
G01 X-32.15771 Y117.04684
G01 X-31.98285 Y116.85263
G01 X-31.92072 Y116.79668
G01 X-31.70929 Y116.64308
G01 X-31.63688 Y116.60127
G01 X-31.39814 Y116.49497
G01 X-31.31862 Y116.46914
G01 X-31.06302 Y116.41481
G01 X-30.97986 Y116.40605
G01 X-30.71852 Y116.40605
G01 X-30.63536 Y116.41481
G01 X-30.37976 Y116.46914
G01 X-30.30023 Y116.49497
G01 X-30.06149 Y116.60127
G01 X-29.98908 Y116.64308
G01 X-29.77765 Y116.79668
G01 X-29.71552 Y116.85263
G01 X-29.67356 Y116.89922
G01 X-26.63763 Y116.89922
G04 P0 ( dwell for no time -- G64 should not smooth over this point )
G00 Z2.00000 ( retract )

G00 X-24.68800 Y115.43940 ( rapid move to begin. )
G01 F200.00000
( Mill infeed pass 1/1 )
G01 Z-0.20000
G04 P0 ( dwell for no time -- G64 should not smooth over this point )
G01 F400.00000
G01 X-24.68800 Y115.43940
G01 X-24.72539 Y115.32434
G01 X-24.75940 Y115.24796
G01 X-24.85345 Y115.08499
G01 X-24.90260 Y115.01735
G01 X-25.02851 Y114.87753
G01 X-25.09066 Y114.82157
G01 X-25.24289 Y114.71098
G01 X-25.31530 Y114.66917
G01 X-25.48718 Y114.59264
G01 X-25.54027 Y114.57539
G01 X-26.29081 Y113.82485
G01 X-26.31990 Y113.79848
G01 X-26.43354 Y113.70522
G01 X-26.49874 Y113.66165
G01 X-26.62841 Y113.59234
G01 X-26.70085 Y113.56234
G01 X-26.84156 Y113.51964
G01 X-26.91845 Y113.50435
G01 X-27.06478 Y113.48995
G01 X-27.10399 Y113.48802
G01 X-29.13686 Y113.48802
G01 X-29.29718 Y113.41665
G01 X-29.37671 Y113.39081
G01 X-29.56076 Y113.35167
G01 X-29.64392 Y113.34294
G01 X-29.83206 Y113.34294
G01 X-29.91522 Y113.35167
G01 X-30.09926 Y113.39081
G01 X-30.17879 Y113.41665
G01 X-30.35067 Y113.49318
G01 X-30.42309 Y113.53499
G01 X-30.57531 Y113.64558
G01 X-30.63746 Y113.70153
G01 X-30.76337 Y113.84136
G01 X-30.81252 Y113.90900
G01 X-30.90658 Y114.07194
G01 X-30.94059 Y114.14834
G01 X-30.99875 Y114.32729
G01 X-31.01613 Y114.40908
G01 X-31.03579 Y114.59620
G01 X-31.03579 Y114.67981
G01 X-31.01613 Y114.86694
G01 X-30.99875 Y114.94875
G01 X-30.94059 Y115.12769
G01 X-30.90658 Y115.20407
G01 X-30.81252 Y115.36701
G01 X-30.76337 Y115.43468
G01 X-30.63746 Y115.57450
G01 X-30.57531 Y115.63046
G01 X-30.42309 Y115.74105
G01 X-30.35067 Y115.78286
G01 X-30.17879 Y115.85939
G01 X-30.09926 Y115.88522
G01 X-29.91522 Y115.92434
G01 X-29.83206 Y115.93308
G01 X-29.64392 Y115.93308
G01 X-29.56076 Y115.92434
G01 X-29.37671 Y115.88522
G01 X-29.29718 Y115.85939
G01 X-29.13688 Y115.78802
G01 X-27.58032 Y115.78802
G01 X-27.16234 Y116.20600
G01 X-27.13059 Y116.30369
G01 X-27.09658 Y116.38006
G01 X-27.00252 Y116.54303
G01 X-26.95337 Y116.61067
G01 X-26.82746 Y116.75050
G01 X-26.76531 Y116.80645
G01 X-26.63763 Y116.89922
G01 X-26.60730 Y116.90907
G01 X-26.52800 Y116.93038
G01 X-26.33986 Y116.97039
G01 X-26.27222 Y116.98113
G01 X-26.08406 Y117.00089
G01 X-26.02203 Y117.00414
G01 X-25.83392 Y117.00414
G01 X-25.77189 Y117.00089
G01 X-25.70197 Y116.99355
G01 X-25.59358 Y116.93470
G01 X-25.54517 Y116.90508
G01 X-25.38749 Y116.79670
G01 X-25.35076 Y116.76853
G01 X-25.20725 Y116.64598
G01 X-25.17674 Y116.61702
G01 X-25.04720 Y116.48052
G01 X-25.01898 Y116.44748
G01 X-24.90344 Y116.29688
G01 X-24.87479 Y116.25512
G01 X-24.77367 Y116.09015
G01 X-24.74281 Y116.03320
G01 X-24.65927 Y115.85804
G01 X-24.65899 Y115.85284
G01 X-24.65899 Y115.77519
G01 X-24.66887 Y115.58705
G01 X-24.67735 Y115.50661
G01 X-24.68800 Y115.43940
G01 X-24.68800 Y114.91400
G01 X-24.68030 Y114.83597
G01 X-24.65754 Y114.76094
G01 X-24.62059 Y114.69178
G01 X-24.57083 Y114.63117
G01 X-24.53798 Y114.60422
G01 X-24.53798 Y94.07698
G01 X-25.52693 Y93.08801
G01 X-25.84515 Y93.08801
G01 X-25.85160 Y93.09012
G01 X-26.01520 Y93.12489
G01 X-26.09836 Y93.13363
G01 X-26.26562 Y93.13363
G01 X-26.34878 Y93.12489
G01 X-26.51238 Y93.09012
G01 X-26.59191 Y93.06429
G01 X-26.74469 Y92.99624
G01 X-26.81710 Y92.95443
G01 X-26.95241 Y92.85613
G01 X-27.01456 Y92.80018
G01 X-27.12645 Y92.67590
G01 X-27.17562 Y92.60823
G01 X-27.25924 Y92.46340
G01 X-27.29325 Y92.38702
G01 X-27.34494 Y92.22794
G01 X-27.36231 Y92.14615
G01 X-27.37979 Y91.97983
G01 X-27.37979 Y91.89619
G01 X-27.36231 Y91.72987
G01 X-27.34494 Y91.64808
G01 X-27.29325 Y91.48900
G01 X-27.25924 Y91.41263
G01 X-27.17562 Y91.26780
G01 X-27.12645 Y91.20013
G01 X-27.01456 Y91.07585
G01 X-26.95241 Y91.01989
G01 X-26.83331 Y90.93335
G01 X-26.81710 Y90.92159
G01 X-26.74469 Y90.87979
G01 X-26.59191 Y90.81174
G01 X-26.51238 Y90.78591
G01 X-26.34878 Y90.75113
G01 X-26.26562 Y90.74240
G01 X-26.09836 Y90.74240
G01 X-26.01520 Y90.75113
G01 X-25.85160 Y90.78591
G01 X-25.84515 Y90.78802
G01 X-25.05061 Y90.78802
G01 X-25.01139 Y90.78995
G01 X-24.86506 Y90.80435
G01 X-24.78815 Y90.81964
G01 X-24.64746 Y90.86234
G01 X-24.57502 Y90.89233
G01 X-24.49323 Y90.93605
G01 X-24.44535 Y90.96165
G01 X-24.38015 Y91.00521
G01 X-24.26651 Y91.09848
G01 X-24.23743 Y91.12484
G01 X-22.57482 Y92.78748
G01 X-22.54845 Y92.81656
G01 X-22.45519 Y92.93023
G01 X-22.41162 Y92.99543
G01 X-22.34231 Y93.12507
G01 X-22.31231 Y93.19754
G01 X-22.26961 Y93.33823
G01 X-22.25432 Y93.41511
G01 X-22.23992 Y93.56144
G01 X-22.23799 Y93.60063
G01 X-22.23794 Y109.97258
G04 P0 ( dwell for no time -- G64 should not smooth over this point )
G00 Z2.00000 ( retract )

G00 X-17.42596 Y106.80526 ( rapid move to begin. )
G01 F200.00000
( Mill infeed pass 1/1 )
G01 Z-0.20000
G04 P0 ( dwell for no time -- G64 should not smooth over this point )
G01 F400.00000
G01 X-17.42596 Y106.80526
G01 X-17.45072 Y106.72900
G01 X-17.48474 Y106.65263
G01 X-17.56835 Y106.50780
G01 X-17.61753 Y106.44013
G01 X-17.72941 Y106.31585
G01 X-17.79157 Y106.25989
G01 X-17.92687 Y106.16159
G01 X-17.99929 Y106.11979
G01 X-18.15207 Y106.05174
G01 X-18.23160 Y106.02591
G01 X-18.39520 Y105.99113
G01 X-18.47836 Y105.98240
G01 X-18.64562 Y105.98240
G01 X-18.72878 Y105.99113
G01 X-18.89238 Y106.02591
G01 X-18.97191 Y106.05174
G01 X-19.12469 Y106.11979
G01 X-19.19710 Y106.16159
G01 X-19.33241 Y106.25989
G01 X-19.39456 Y106.31585
G01 X-19.50645 Y106.44013
G01 X-19.55562 Y106.50780
G01 X-19.63924 Y106.65263
G01 X-19.67325 Y106.72900
G01 X-19.72494 Y106.88808
G01 X-19.74231 Y106.96987
G01 X-19.75979 Y107.13619
G01 X-19.75979 Y107.21983
G01 X-19.74231 Y107.38615
G01 X-19.72494 Y107.46794
G01 X-19.71199 Y107.50777
G01 X-19.71199 Y109.96148
G04 P0 ( dwell for no time -- G64 should not smooth over this point )
G00 Z2.00000 ( retract )

G00 X-15.12596 Y113.78233 ( rapid move to begin. )
G01 F200.00000
( Mill infeed pass 1/1 )
G01 Z-0.20000
G04 P0 ( dwell for no time -- G64 should not smooth over this point )
G01 F400.00000
G01 X-15.12596 Y113.78233
G01 X-15.12599 Y114.33778
G01 X-15.12599 Y114.74768
G01 X-11.64881 Y118.22487
G01 X-11.62244 Y118.25395
G01 X-11.52917 Y118.36759
G01 X-11.48561 Y118.43279
G01 X-11.41629 Y118.56246
G01 X-11.38630 Y118.63490
G01 X-11.34360 Y118.77561
G01 X-11.32831 Y118.85250
G01 X-11.31391 Y118.99883
G01 X-11.31198 Y119.03802
G01 X-11.31198 Y121.74228
G01 X-11.29905 Y121.78209
G01 X-11.28165 Y121.86387
G01 X-11.26417 Y122.03019
G01 X-11.26417 Y122.11383
G01 X-11.28165 Y122.28015
G01 X-11.29905 Y122.36194
G01 X-11.35074 Y122.52100
G01 X-11.38475 Y122.59740
G01 X-11.46836 Y122.74223
G01 X-11.51751 Y122.80990
G01 X-11.62943 Y122.93418
G01 X-11.69158 Y122.99014
G01 X-11.82689 Y123.08843
G01 X-11.88640 Y123.12280
G01 X-13.75548 Y124.99191
G01 X-13.74522 Y125.00606
G01 X-13.62500 Y125.21426
G01 X-13.59099 Y125.29066
G01 X-13.51670 Y125.51931
G01 X-13.49930 Y125.60110
G01 X-13.47418 Y125.84019
G01 X-13.47418 Y125.92383
G01 X-13.49930 Y126.16293
G01 X-13.51670 Y126.24471
G01 X-13.59099 Y126.47336
G01 X-13.62500 Y126.54977
G01 X-13.74522 Y126.75797
G01 X-13.79437 Y126.82561
G01 X-13.87197 Y126.91179
G01 X-13.87197 Y128.91621
G01 X-13.79437 Y129.00242
G01 X-13.74522 Y129.07006
G01 X-13.62500 Y129.27826
G01 X-13.59099 Y129.35466
G01 X-13.51670 Y129.58331
G01 X-13.49930 Y129.66510
G01 X-13.47418 Y129.90419
G01 X-13.47418 Y129.98784
G01 X-13.49930 Y130.22693
G01 X-13.51670 Y130.30871
G01 X-13.59099 Y130.53736
G01 X-13.62500 Y130.61377
G01 X-13.74522 Y130.82197
G01 X-13.79437 Y130.88961
G01 X-13.87197 Y130.97579
G01 X-13.87197 Y133.41178
G01 X-13.85340 Y133.44396
G01 X-13.81936 Y133.52034
G01 X-13.76122 Y133.69928
G01 X-13.74385 Y133.78107
G01 X-13.72419 Y133.96819
G01 X-13.72419 Y134.05184
G01 X-13.74385 Y134.23896
G01 X-13.76122 Y134.32074
G01 X-13.81936 Y134.49969
G01 X-13.85340 Y134.57607
G01 X-13.87197 Y134.60825
G01 X-13.87197 Y137.49577
G01 X-13.85340 Y137.52795
G01 X-13.81936 Y137.60436
G01 X-13.76122 Y137.78327
G01 X-13.74385 Y137.86509
G01 X-13.72419 Y138.05221
G01 X-13.72419 Y138.13582
G01 X-13.74385 Y138.32295
G01 X-13.76122 Y138.40473
G01 X-13.81936 Y138.58368
G01 X-13.85340 Y138.66008
G01 X-13.94746 Y138.82302
G01 X-13.99660 Y138.89066
G01 X-14.12251 Y139.03049
G01 X-14.18467 Y139.08645
G01 X-14.33686 Y139.19704
G01 X-14.40930 Y139.23885
G01 X-14.58119 Y139.31538
G01 X-14.66071 Y139.34123
G01 X-14.84474 Y139.38035
G01 X-14.92792 Y139.38909
G01 X-15.11606 Y139.38909
G01 X-15.19922 Y139.38035
G01 X-15.38327 Y139.34123
G01 X-15.46279 Y139.31538
G01 X-15.63468 Y139.23885
G01 X-15.70709 Y139.19704
G01 X-15.85931 Y139.08645
G01 X-15.92147 Y139.03049
G01 X-16.04735 Y138.89066
G01 X-16.09652 Y138.82302
G01 X-16.19058 Y138.66008
G01 X-16.22459 Y138.58368
G01 X-16.28273 Y138.40473
G01 X-16.30013 Y138.32295
G01 X-16.31979 Y138.13582
G01 X-16.31979 Y138.05221
G01 X-16.30013 Y137.86509
G01 X-16.28273 Y137.78327
G01 X-16.22459 Y137.60436
G01 X-16.19058 Y137.52795
G01 X-16.17196 Y137.49569
G01 X-16.17196 Y134.60832
G01 X-16.19058 Y134.57607
G01 X-16.22459 Y134.49969
G01 X-16.28273 Y134.32074
G01 X-16.30013 Y134.23896
G01 X-16.31979 Y134.05184
G01 X-16.31979 Y133.96819
G01 X-16.30013 Y133.78107
G01 X-16.28273 Y133.69928
G01 X-16.22459 Y133.52034
G01 X-16.19058 Y133.44396
G01 X-16.17196 Y133.41168
G01 X-16.17196 Y130.97587
G01 X-16.24961 Y130.88961
G01 X-16.29876 Y130.82197
G01 X-16.41898 Y130.61377
G01 X-16.45299 Y130.53736
G01 X-16.52728 Y130.30871
G01 X-16.54466 Y130.22693
G01 X-16.56980 Y129.98784
G01 X-16.56980 Y129.90419
G01 X-16.54466 Y129.66510
G01 X-16.52728 Y129.58331
G01 X-16.45299 Y129.35466
G01 X-16.41898 Y129.27826
G01 X-16.29876 Y129.07006
G01 X-16.24961 Y129.00242
G01 X-16.17196 Y128.91616
G01 X-16.17196 Y126.91187
G01 X-16.24961 Y126.82561
G01 X-16.29876 Y126.75797
G01 X-16.41898 Y126.54977
G01 X-16.45299 Y126.47336
G01 X-16.52728 Y126.24471
G01 X-16.54466 Y126.16293
G01 X-16.56980 Y125.92383
G01 X-16.56980 Y125.84019
G01 X-16.54466 Y125.60110
G01 X-16.52728 Y125.51931
G01 X-16.45299 Y125.29066
G01 X-16.41898 Y125.21426
G01 X-16.29876 Y125.00606
G01 X-16.24961 Y124.93842
G01 X-16.17196 Y124.85216
G01 X-16.17196 Y124.63202
G01 X-16.17003 Y124.59282
G01 X-16.15563 Y124.44649
G01 X-16.14034 Y124.36961
G01 X-16.09764 Y124.22889
G01 X-16.06764 Y124.15648
G01 X-15.99833 Y124.02679
G01 X-15.95477 Y123.96158
G01 X-15.86150 Y123.84797
G01 X-15.83513 Y123.81886
G01 X-13.61197 Y121.59570
G01 X-13.61197 Y119.51437
G01 X-17.08916 Y116.03719
G01 X-17.11552 Y116.00811
G01 X-17.20879 Y115.89447
G01 X-17.25235 Y115.82927
G01 X-17.32167 Y115.69960
G01 X-17.35166 Y115.62716
G01 X-17.39436 Y115.48644
G01 X-17.40965 Y115.40956
G01 X-17.41196 Y115.38598
G01 X-17.41803 Y115.26262
G04 P0 ( dwell for no time -- G64 should not smooth over this point )
G00 Z2.00000 ( retract )

G00 X-19.71196 Y112.07847 ( rapid move to begin. )
G01 F200.00000
( Mill infeed pass 1/1 )
G01 Z-0.20000
G04 P0 ( dwell for no time -- G64 should not smooth over this point )
G01 F400.00000
G01 X-19.71196 Y112.07847
G01 X-19.83632 Y112.21660
G01 X-19.89847 Y112.27255
G01 X-20.06835 Y112.39600
G01 X-20.10988 Y112.42615
G01 X-20.18229 Y112.46796
G01 X-20.42103 Y112.57426
G01 X-20.50055 Y112.60009
G01 X-20.75615 Y112.65442
G01 X-20.83934 Y112.66316
G01 X-21.10065 Y112.66316
G01 X-21.18381 Y112.65442
G01 X-21.43941 Y112.60009
G01 X-21.51894 Y112.57426
G01 X-21.75768 Y112.46796
G01 X-21.83009 Y112.42615
G01 X-22.04152 Y112.27255
G01 X-22.10365 Y112.21660
G01 X-22.23796 Y112.06742
G04 P0 ( dwell for no time -- G64 should not smooth over this point )
G00 Z2.00000 ( retract )

G00 X-32.22395 Y118.95435 ( rapid move to begin. )
G01 F200.00000
( Mill infeed pass 1/1 )
G01 Z-0.20000
G04 P0 ( dwell for no time -- G64 should not smooth over this point )
G01 F400.00000
G01 X-32.22395 Y118.95435
G01 X-32.22397 Y119.51907
G01 X-32.22397 Y121.20289
G01 X-32.22192 Y121.22382
G01 X-32.21999 Y121.26301
G01 X-32.21999 Y124.83219
G01 X-32.14236 Y124.91840
G01 X-32.09322 Y124.98607
G01 X-31.97300 Y125.19427
G01 X-31.93899 Y125.27065
G01 X-31.86469 Y125.49930
G01 X-31.84732 Y125.58111
G01 X-31.82217 Y125.82020
G01 X-31.82217 Y125.90382
G01 X-31.84732 Y126.14291
G01 X-31.86469 Y126.22472
G01 X-31.93899 Y126.45337
G01 X-31.97300 Y126.52975
G01 X-32.09322 Y126.73796
G01 X-32.14236 Y126.80562
G01 X-32.21999 Y126.89183
G01 X-32.21999 Y128.89619
G01 X-32.14236 Y128.98240
G01 X-32.09322 Y129.05007
G01 X-31.97300 Y129.25827
G01 X-31.93899 Y129.33465
G01 X-31.86469 Y129.56330
G01 X-31.84732 Y129.64511
G01 X-31.82217 Y129.88420
G01 X-31.82217 Y129.96782
G01 X-31.84732 Y130.20691
G01 X-31.86469 Y130.28872
G01 X-31.93899 Y130.51737
G01 X-31.97300 Y130.59375
G01 X-32.09322 Y130.80196
G01 X-32.14236 Y130.86962
G01 X-32.21999 Y130.95583
G01 X-32.21999 Y133.39174
G01 X-32.20139 Y133.42395
G01 X-32.16738 Y133.50035
G01 X-32.10924 Y133.67929
G01 X-32.09184 Y133.76108
G01 X-32.07218 Y133.94820
G01 X-32.07218 Y134.03182
G01 X-32.09184 Y134.21894
G01 X-32.10924 Y134.30073
G01 X-32.16738 Y134.47967
G01 X-32.20139 Y134.55608
G01 X-32.21999 Y134.58828
G01 X-32.21999 Y137.47573
G01 X-32.20139 Y137.50796
G01 X-32.16738 Y137.58434
G01 X-32.10924 Y137.76328
G01 X-32.09184 Y137.84507
G01 X-32.07218 Y138.03219
G01 X-32.07218 Y138.11584
G01 X-32.09184 Y138.30296
G01 X-32.10924 Y138.38474
G01 X-32.16738 Y138.56369
G01 X-32.20139 Y138.64007
G01 X-32.29545 Y138.80303
G01 X-32.34462 Y138.87067
G01 X-32.47051 Y139.01050
G01 X-32.53266 Y139.06646
G01 X-32.68488 Y139.17705
G01 X-32.75730 Y139.21886
G01 X-32.92918 Y139.29539
G01 X-33.00871 Y139.32122
G01 X-33.19276 Y139.36033
G01 X-33.27592 Y139.36907
G01 X-33.46405 Y139.36907
G01 X-33.54724 Y139.36033
G01 X-33.73126 Y139.32122
G01 X-33.81079 Y139.29539
G01 X-33.98267 Y139.21886
G01 X-34.05511 Y139.17705
G01 X-34.20731 Y139.06646
G01 X-34.26946 Y139.01050
G01 X-34.39537 Y138.87067
G01 X-34.44452 Y138.80303
G01 X-34.53860 Y138.64007
G01 X-34.57261 Y138.56369
G01 X-34.63075 Y138.38474
G01 X-34.64812 Y138.30296
G01 X-34.66778 Y138.11584
G01 X-34.66778 Y138.03219
G01 X-34.64812 Y137.84507
G01 X-34.63075 Y137.76328
G01 X-34.57261 Y137.58434
G01 X-34.53860 Y137.50796
G01 X-34.51998 Y137.47573
G01 X-34.51998 Y134.58831
G01 X-34.53860 Y134.55608
G01 X-34.57261 Y134.47967
G01 X-34.63075 Y134.30073
G01 X-34.64812 Y134.21894
G01 X-34.66778 Y134.03182
G01 X-34.66778 Y133.94820
G01 X-34.64812 Y133.76108
G01 X-34.63075 Y133.67929
G01 X-34.57261 Y133.50035
G01 X-34.53860 Y133.42395
G01 X-34.51998 Y133.39171
G01 X-34.51998 Y130.95583
G01 X-34.59760 Y130.86962
G01 X-34.64678 Y130.80196
G01 X-34.76697 Y130.59375
G01 X-34.80098 Y130.51737
G01 X-34.87528 Y130.28872
G01 X-34.89268 Y130.20691
G01 X-34.91780 Y129.96782
G01 X-34.91780 Y129.88420
G01 X-34.89268 Y129.64511
G01 X-34.87528 Y129.56330
G01 X-34.80098 Y129.33465
G01 X-34.76697 Y129.25827
G01 X-34.64678 Y129.05007
G01 X-34.59760 Y128.98240
G01 X-34.51998 Y128.89619
G01 X-34.51998 Y126.89183
G01 X-34.59760 Y126.80562
G01 X-34.64678 Y126.73796
G01 X-34.76697 Y126.52975
G01 X-34.80098 Y126.45337
G01 X-34.87528 Y126.22472
G01 X-34.89268 Y126.14291
G01 X-34.91780 Y125.90382
G01 X-34.91780 Y125.82020
G01 X-34.89268 Y125.58111
G01 X-34.87528 Y125.49930
G01 X-34.80098 Y125.27065
G01 X-34.76697 Y125.19427
G01 X-34.64678 Y124.98607
G01 X-34.59760 Y124.91840
G01 X-34.51998 Y124.83219
G01 X-34.51998 Y123.53702
G01 X-34.52191 Y122.44002
G01 X-35.27916 Y122.44002
G01 X-35.28561 Y122.44210
G01 X-35.44919 Y122.47690
G01 X-35.53238 Y122.48564
G01 X-35.69961 Y122.48564
G01 X-35.78277 Y122.47690
G01 X-35.94637 Y122.44210
G01 X-36.02590 Y122.41630
G01 X-36.17868 Y122.34825
G01 X-36.25109 Y122.30647
G01 X-36.38640 Y122.20817
G01 X-36.44855 Y122.15219
G01 X-36.56047 Y122.02788
G01 X-36.60961 Y121.96024
G01 X-36.69323 Y121.81541
G01 X-36.72724 Y121.73901
G01 X-36.77893 Y121.57995
G01 X-36.79630 Y121.49816
G01 X-36.81381 Y121.33182
G01 X-36.81381 Y121.24820
G01 X-36.79630 Y121.08188
G01 X-36.77893 Y121.00007
G01 X-36.72724 Y120.84102
G01 X-36.69323 Y120.76461
G01 X-36.60961 Y120.61978
G01 X-36.56047 Y120.55214
G01 X-36.44855 Y120.42783
G01 X-36.38640 Y120.37188
G01 X-36.25109 Y120.27358
G01 X-36.17868 Y120.23177
G01 X-36.02590 Y120.16375
G01 X-35.94637 Y120.13792
G01 X-35.78277 Y120.10315
G01 X-35.69961 Y120.09438
G01 X-35.53238 Y120.09438
G01 X-35.44919 Y120.10315
G01 X-35.28561 Y120.13792
G01 X-35.27909 Y120.14003
G01 X-34.52397 Y120.14003
G01 X-34.52397 Y110.43301
G01 X-34.52204 Y110.39382
G01 X-34.50764 Y110.24749
G01 X-34.49235 Y110.17060
G01 X-34.44965 Y110.02989
G01 X-34.41965 Y109.95745
G01 X-34.35034 Y109.82778
G01 X-34.30677 Y109.76260
G01 X-34.21351 Y109.64894
G01 X-34.18714 Y109.61985
G01 X-30.93216 Y106.36484
G01 X-30.90307 Y106.33848
G01 X-30.78943 Y106.24521
G01 X-30.72423 Y106.20165
G01 X-30.59456 Y106.13233
G01 X-30.52212 Y106.10234
G01 X-30.38143 Y106.05964
G01 X-30.30452 Y106.04435
G01 X-30.15819 Y106.02995
G01 X-30.11900 Y106.02802
G01 X-26.51883 Y106.02802
G01 X-26.51238 Y106.02591
G01 X-26.34878 Y105.99113
G01 X-26.26562 Y105.98240
G01 X-26.09836 Y105.98240
G01 X-26.01520 Y105.99113
G01 X-25.85160 Y106.02591
G01 X-25.77207 Y106.05174
G01 X-25.64568 Y106.10803
G01 X-25.61929 Y106.11979
G01 X-25.54687 Y106.16159
G01 X-25.41157 Y106.25989
G01 X-25.34941 Y106.31585
G01 X-25.23753 Y106.44013
G01 X-25.18835 Y106.50780
G01 X-25.10474 Y106.65263
G01 X-25.07072 Y106.72900
G01 X-25.01904 Y106.88808
G01 X-25.00166 Y106.96987
G01 X-24.98419 Y107.13619
G01 X-24.98419 Y107.21983
G01 X-25.00166 Y107.38615
G01 X-25.01904 Y107.46794
G01 X-25.07072 Y107.62702
G01 X-25.10474 Y107.70340
G01 X-25.18835 Y107.84823
G01 X-25.23753 Y107.91590
G01 X-25.34941 Y108.04018
G01 X-25.41157 Y108.09613
G01 X-25.54687 Y108.19443
G01 X-25.61929 Y108.23624
G01 X-25.77207 Y108.30429
G01 X-25.85160 Y108.33012
G01 X-26.01520 Y108.36489
G01 X-26.09836 Y108.37363
G01 X-26.26562 Y108.37363
G01 X-26.34878 Y108.36489
G01 X-26.51238 Y108.33012
G01 X-26.51883 Y108.32801
G01 X-29.64265 Y108.32801
G01 X-32.22397 Y110.90936
G01 X-32.22395 Y117.14405
G04 P0 ( dwell for no time -- G64 should not smooth over this point )
G00 Z2.00000 ( retract )

G00 X-24.98419 Y104.59619 ( rapid move to begin. )
G01 F200.00000
( Mill infeed pass 1/1 )
G01 Z-0.20000
G04 P0 ( dwell for no time -- G64 should not smooth over this point )
G01 F400.00000
G01 X-24.98419 Y104.59619
G01 X-25.00166 Y104.42987
G01 X-25.01904 Y104.34808
G01 X-25.07072 Y104.18900
G01 X-25.10474 Y104.11263
G01 X-25.18835 Y103.96780
G01 X-25.23753 Y103.90013
G01 X-25.34941 Y103.77585
G01 X-25.41157 Y103.71989
G01 X-25.54687 Y103.62159
G01 X-25.61929 Y103.57979
G01 X-25.64568 Y103.56802
G01 X-25.77207 Y103.51174
G01 X-25.85160 Y103.48591
G01 X-26.01520 Y103.45113
G01 X-26.09836 Y103.44240
G01 X-26.26562 Y103.44240
G01 X-26.34878 Y103.45113
G01 X-26.51238 Y103.48591
G01 X-26.51883 Y103.48802
G01 X-29.13688 Y103.48802
G01 X-29.29718 Y103.41664
G01 X-29.37671 Y103.39081
G01 X-29.56076 Y103.35169
G01 X-29.64392 Y103.34296
G01 X-29.83206 Y103.34296
G01 X-29.91522 Y103.35169
G01 X-30.09926 Y103.39081
G01 X-30.17879 Y103.41664
G01 X-30.35067 Y103.49317
G01 X-30.42309 Y103.53498
G01 X-30.55179 Y103.62848
G01 X-30.57531 Y103.64557
G01 X-30.63746 Y103.70153
G01 X-30.76337 Y103.84135
G01 X-30.81252 Y103.90899
G01 X-30.90658 Y104.07196
G01 X-30.94059 Y104.14834
G01 X-30.99875 Y104.32728
G01 X-31.01613 Y104.40907
G01 X-31.03579 Y104.59619
G01 X-31.03579 Y104.67983
G01 X-31.01613 Y104.86696
G01 X-30.99875 Y104.94874
G01 X-30.94059 Y105.12769
G01 X-30.90658 Y105.20406
G01 X-30.81252 Y105.36703
G01 X-30.76337 Y105.43467
G01 X-30.63746 Y105.57450
G01 X-30.57531 Y105.63045
G01 X-30.42309 Y105.74105
G01 X-30.35067 Y105.78285
G01 X-30.17879 Y105.85938
G01 X-30.09926 Y105.88522
G01 X-29.91522 Y105.92433
G01 X-29.83206 Y105.93307
G01 X-29.64392 Y105.93307
G01 X-29.56076 Y105.92433
G01 X-29.37671 Y105.88522
G01 X-29.29718 Y105.85938
G01 X-29.13688 Y105.78801
G01 X-26.51883 Y105.78801
G01 X-26.51238 Y105.79012
G01 X-26.34878 Y105.82489
G01 X-26.26562 Y105.83363
G01 X-26.09836 Y105.83363
G01 X-26.01520 Y105.82489
G01 X-25.85160 Y105.79012
G01 X-25.77207 Y105.76429
G01 X-25.61929 Y105.69624
G01 X-25.54687 Y105.65443
G01 X-25.41157 Y105.55613
G01 X-25.34941 Y105.50018
G01 X-25.23753 Y105.37590
G01 X-25.18835 Y105.30823
G01 X-25.10474 Y105.16340
G01 X-25.07072 Y105.08702
G01 X-25.01904 Y104.92794
G01 X-25.00166 Y104.84615
G01 X-24.98419 Y104.67983
G01 X-24.98419 Y104.59619
G04 P0 ( dwell for no time -- G64 should not smooth over this point )
G00 Z2.00000 ( retract )

G00 X-24.98419 Y102.05619 ( rapid move to begin. )
G01 F200.00000
( Mill infeed pass 1/1 )
G01 Z-0.20000
G04 P0 ( dwell for no time -- G64 should not smooth over this point )
G01 F400.00000
G01 X-24.98419 Y102.05619
G01 X-25.00166 Y101.88987
G01 X-25.01904 Y101.80808
G01 X-25.07072 Y101.64900
G01 X-25.10474 Y101.57263
G01 X-25.18835 Y101.42780
G01 X-25.23753 Y101.36013
G01 X-25.34941 Y101.23585
G01 X-25.41157 Y101.17989
G01 X-25.54687 Y101.08159
G01 X-25.61929 Y101.03979
G01 X-25.64568 Y101.02803
G01 X-25.77207 Y100.97174
G01 X-25.85160 Y100.94591
G01 X-26.01520 Y100.91113
G01 X-26.09836 Y100.90240
G01 X-26.26562 Y100.90240
G01 X-26.34878 Y100.91113
G01 X-26.51238 Y100.94591
G01 X-26.51883 Y100.94802
G01 X-32.27800 Y100.94802
G01 X-32.31719 Y100.94995
G01 X-32.46352 Y100.96435
G01 X-32.54041 Y100.97964
G01 X-32.68112 Y101.02234
G01 X-32.75356 Y101.05233
G01 X-32.88323 Y101.12165
G01 X-32.94843 Y101.16521
G01 X-33.06207 Y101.25848
G01 X-33.09116 Y101.28484
G01 X-38.93316 Y107.12684
G01 X-38.95952 Y107.15593
G01 X-39.05279 Y107.26957
G01 X-39.09635 Y107.33477
G01 X-39.16564 Y107.46444
G01 X-39.19564 Y107.53688
G01 X-39.23836 Y107.67759
G01 X-39.25365 Y107.75448
G01 X-39.26805 Y107.90081
G01 X-39.26998 Y107.94000
G01 X-39.26998 Y109.21112
G01 X-39.27306 Y109.21206
G01 X-39.34220 Y109.24901
G01 X-39.40283 Y109.29877
G01 X-39.45259 Y109.35938
G01 X-39.48954 Y109.42854
G01 X-39.51230 Y109.50357
G01 X-39.52000 Y109.58160
G01 X-39.52000 Y111.58162
G01 X-39.51230 Y111.65965
G01 X-39.48954 Y111.73468
G01 X-39.45259 Y111.80385
G01 X-39.40283 Y111.86445
G01 X-39.34220 Y111.91421
G01 X-39.27306 Y111.95117
G01 X-39.19803 Y111.97393
G01 X-39.11997 Y111.98162
G01 X-37.11998 Y111.98162
G01 X-37.04195 Y111.97393
G01 X-36.96692 Y111.95117
G01 X-36.89775 Y111.91421
G01 X-36.83715 Y111.86445
G01 X-36.78739 Y111.80385
G01 X-36.75043 Y111.73468
G01 X-36.72767 Y111.65965
G01 X-36.71998 Y111.58162
G01 X-36.71998 Y109.58160
G01 X-36.72767 Y109.50357
G01 X-36.75043 Y109.42854
G01 X-36.78739 Y109.35938
G01 X-36.83715 Y109.29877
G01 X-36.89775 Y109.24901
G01 X-36.96692 Y109.21206
G01 X-36.96999 Y109.21112
G01 X-36.96999 Y108.41635
G01 X-31.80165 Y103.24801
G01 X-26.51883 Y103.24801
G01 X-26.51238 Y103.25012
G01 X-26.34878 Y103.28489
G01 X-26.26562 Y103.29363
G01 X-26.09836 Y103.29363
G01 X-26.01520 Y103.28489
G01 X-25.85160 Y103.25012
G01 X-25.77207 Y103.22429
G01 X-25.64573 Y103.16803
G01 X-25.61929 Y103.15624
G01 X-25.54687 Y103.11443
G01 X-25.41157 Y103.01613
G01 X-25.34941 Y102.96018
G01 X-25.23753 Y102.83590
G01 X-25.18835 Y102.76823
G01 X-25.10474 Y102.62340
G01 X-25.07072 Y102.54702
G01 X-25.01904 Y102.38794
G01 X-25.00166 Y102.30615
G01 X-24.98419 Y102.13983
G01 X-24.98419 Y102.05619
G04 P0 ( dwell for no time -- G64 should not smooth over this point )
G00 Z2.00000 ( retract )

G00 X-28.28106 Y98.11861 ( rapid move to begin. )
G01 F200.00000
( Mill infeed pass 1/1 )
G01 Z-0.20000
G04 P0 ( dwell for no time -- G64 should not smooth over this point )
G01 F400.00000
G01 X-28.28106 Y98.11861
G01 X-27.99165 Y98.40802
G01 X-26.51883 Y98.40802
G01 X-26.51238 Y98.40591
G01 X-26.34878 Y98.37113
G01 X-26.26562 Y98.36240
G01 X-26.09836 Y98.36240
G01 X-26.01520 Y98.37113
G01 X-25.85160 Y98.40591
G01 X-25.77207 Y98.43174
G01 X-25.64568 Y98.48803
G01 X-25.61929 Y98.49979
G01 X-25.54687 Y98.54159
G01 X-25.41157 Y98.63989
G01 X-25.34941 Y98.69585
G01 X-25.23753 Y98.82013
G01 X-25.18835 Y98.88780
G01 X-25.10474 Y99.03263
G01 X-25.07072 Y99.10900
G01 X-25.01904 Y99.26808
G01 X-25.00166 Y99.34987
G01 X-24.98419 Y99.51619
G01 X-24.98419 Y99.59983
G01 X-25.00166 Y99.76615
G01 X-25.01904 Y99.84794
G01 X-25.07072 Y100.00702
G01 X-25.10474 Y100.08340
G01 X-25.18835 Y100.22823
G01 X-25.23753 Y100.29590
G01 X-25.34941 Y100.42018
G01 X-25.41157 Y100.47613
G01 X-25.54687 Y100.57443
G01 X-25.61929 Y100.61624
G01 X-25.77207 Y100.68429
G01 X-25.85160 Y100.71012
G01 X-26.01520 Y100.74489
G01 X-26.09836 Y100.75363
G01 X-26.26562 Y100.75363
G01 X-26.34878 Y100.74489
G01 X-26.51238 Y100.71012
G01 X-26.51883 Y100.70801
G01 X-28.46800 Y100.70801
G01 X-28.50719 Y100.70608
G01 X-28.65352 Y100.69168
G01 X-28.73041 Y100.67639
G01 X-28.87112 Y100.63369
G01 X-28.94356 Y100.60369
G01 X-29.02528 Y100.56000
G01 X-29.07323 Y100.53438
G01 X-29.13843 Y100.49082
G01 X-29.25207 Y100.39755
G01 X-29.28116 Y100.37118
G01 X-33.97434 Y95.67802
G01 X-35.74899 Y95.67802
G01 X-35.82702 Y95.67033
G01 X-35.90207 Y95.64757
G01 X-35.97121 Y95.61061
G01 X-36.03184 Y95.56085
G01 X-36.08157 Y95.50025
G01 X-36.11853 Y95.43108
G01 X-36.14129 Y95.35605
G01 X-36.14899 Y95.27802
G01 X-36.14899 Y93.67800
G01 X-36.14129 Y93.59997
G01 X-36.11853 Y93.52494
G01 X-36.08157 Y93.45578
G01 X-36.03184 Y93.39517
G01 X-35.97121 Y93.34541
G01 X-35.90207 Y93.30846
G01 X-35.82702 Y93.28570
G01 X-35.77977 Y93.28105
G01 X-35.74899 Y93.27800
G01 X-33.34899 Y93.27800
G01 X-33.33461 Y93.27942
G01 X-33.29568 Y93.30866
G01 X-33.04183 Y93.49934
G01 X-32.97002 Y93.55260
G01 X-32.91838 Y93.59494
G01 X-32.80932 Y93.69380
G01 X-32.78597 Y93.71603
G01 X-28.72197 Y97.78003
G01 X-28.69863 Y97.80225
G01 X-28.58956 Y97.90111
G01 X-28.53793 Y97.94345
G01 X-28.41855 Y98.03199
G01 X-28.35690 Y98.07314
G01 X-28.28106 Y98.11861
G01 X-28.22241 Y98.13639
G01 X-28.14552 Y98.15168
G01 X-27.99919 Y98.16608
G01 X-27.96000 Y98.16801
G01 X-26.51883 Y98.16801
G01 X-26.51238 Y98.17012
G01 X-26.34878 Y98.20489
G01 X-26.26562 Y98.21363
G01 X-26.09836 Y98.21363
G01 X-26.01520 Y98.20489
G01 X-25.85160 Y98.17012
G01 X-25.77207 Y98.14429
G01 X-25.61929 Y98.07624
G01 X-25.54687 Y98.03443
G01 X-25.41157 Y97.93613
G01 X-25.34941 Y97.88018
G01 X-25.23753 Y97.75590
G01 X-25.18835 Y97.68823
G01 X-25.10474 Y97.54340
G01 X-25.07072 Y97.46702
G01 X-25.01904 Y97.30794
G01 X-25.00166 Y97.22615
G01 X-24.98419 Y97.05983
G01 X-24.98419 Y96.97619
G01 X-25.00166 Y96.80987
G01 X-25.01904 Y96.72808
G01 X-25.07072 Y96.56900
G01 X-25.10474 Y96.49263
G01 X-25.18835 Y96.34780
G01 X-25.23753 Y96.28013
G01 X-25.34941 Y96.15585
G01 X-25.41157 Y96.09989
G01 X-25.54687 Y96.00159
G01 X-25.61929 Y95.95979
G01 X-25.64568 Y95.94803
G01 X-25.77207 Y95.89174
G01 X-25.85160 Y95.86591
G01 X-26.01520 Y95.83113
G01 X-26.09836 Y95.82240
G01 X-26.26562 Y95.82240
G01 X-26.34878 Y95.83113
G01 X-26.51238 Y95.86591
G01 X-26.51883 Y95.86802
G01 X-27.48365 Y95.86802
G01 X-27.77852 Y95.57312
G04 P0 ( dwell for no time -- G64 should not smooth over this point )
G00 Z2.00000 ( retract )

G00 X-32.70086 Y90.84293 ( rapid move to begin. )
G01 F200.00000
( Mill infeed pass 1/1 )
G01 Z-0.20000
G04 P0 ( dwell for no time -- G64 should not smooth over this point )
G01 F400.00000
G01 X-32.70086 Y90.84293
G01 X-32.99575 Y90.54801
G01 X-33.81922 Y90.54801
G01 X-33.85905 Y90.56096
G01 X-33.94084 Y90.57834
G01 X-34.10718 Y90.59581
G01 X-34.14899 Y90.59802
G01 X-34.94899 Y90.59802
G01 X-34.99080 Y90.59581
G01 X-35.15712 Y90.57834
G01 X-35.23893 Y90.56096
G01 X-35.39798 Y90.50928
G01 X-35.47439 Y90.47526
G01 X-35.48691 Y90.46803
G01 X-35.61922 Y90.39165
G01 X-35.68686 Y90.34247
G01 X-35.81117 Y90.23059
G01 X-35.86712 Y90.16843
G01 X-35.96542 Y90.03313
G01 X-36.00723 Y89.96071
G01 X-36.07525 Y89.80793
G01 X-36.10108 Y89.72840
G01 X-36.13585 Y89.56480
G01 X-36.14462 Y89.48164
G01 X-36.14462 Y89.31438
G01 X-36.13585 Y89.23122
G01 X-36.10108 Y89.06762
G01 X-36.07525 Y88.98809
G01 X-36.00723 Y88.83531
G01 X-35.96542 Y88.76290
G01 X-35.86712 Y88.62759
G01 X-35.81117 Y88.56544
G01 X-35.68686 Y88.45355
G01 X-35.61922 Y88.40438
G01 X-35.47439 Y88.32076
G01 X-35.39798 Y88.28675
G01 X-35.23893 Y88.23506
G01 X-35.15712 Y88.21769
G01 X-34.99080 Y88.20021
G01 X-34.94899 Y88.19800
G01 X-34.14899 Y88.19800
G01 X-34.10718 Y88.20021
G01 X-33.94084 Y88.21769
G01 X-33.85905 Y88.23506
G01 X-33.81922 Y88.24802
G01 X-32.51943 Y88.24802
G01 X-32.48021 Y88.24995
G01 X-32.33388 Y88.26435
G01 X-32.25699 Y88.27964
G01 X-32.11628 Y88.32234
G01 X-32.04384 Y88.35233
G01 X-31.96205 Y88.39605
G01 X-31.91417 Y88.42165
G01 X-31.84897 Y88.46521
G01 X-31.73533 Y88.55848
G01 X-31.70625 Y88.58484
G01 X-31.07379 Y89.21725
G04 P0 ( dwell for no time -- G64 should not smooth over this point )
G00 Z2.00000 ( retract )

G00 X-30.17478 Y88.00801 ( rapid move to begin. )
G01 F200.00000
( Mill infeed pass 1/1 )
G01 Z-0.20000
G04 P0 ( dwell for no time -- G64 should not smooth over this point )
G01 F400.00000
G01 X-30.17478 Y88.00801
G01 X-33.81922 Y88.00801
G01 X-33.85905 Y88.02096
G01 X-33.94084 Y88.03834
G01 X-34.10718 Y88.05581
G01 X-34.14899 Y88.05802
G01 X-34.94899 Y88.05802
G01 X-34.99080 Y88.05581
G01 X-35.15712 Y88.03834
G01 X-35.23893 Y88.02096
G01 X-35.39798 Y87.96928
G01 X-35.47439 Y87.93526
G01 X-35.61922 Y87.85165
G01 X-35.68686 Y87.80247
G01 X-35.81117 Y87.69059
G01 X-35.86712 Y87.62843
G01 X-35.96542 Y87.49313
G01 X-36.00723 Y87.42071
G01 X-36.07525 Y87.26793
G01 X-36.10108 Y87.18840
G01 X-36.13585 Y87.02480
G01 X-36.14462 Y86.94164
G01 X-36.14462 Y86.77438
G01 X-36.13585 Y86.69122
G01 X-36.10108 Y86.52762
G01 X-36.07525 Y86.44809
G01 X-36.00723 Y86.29531
G01 X-35.96542 Y86.22290
G01 X-35.86712 Y86.08759
G01 X-35.81117 Y86.02544
G01 X-35.68686 Y85.91355
G01 X-35.61922 Y85.86438
G01 X-35.47439 Y85.78076
G01 X-35.39798 Y85.74675
G01 X-35.23893 Y85.69506
G01 X-35.15712 Y85.67769
G01 X-34.99080 Y85.66021
G01 X-34.94899 Y85.65800
G01 X-34.14899 Y85.65800
G01 X-34.10718 Y85.66021
G01 X-33.94084 Y85.67769
G01 X-33.85905 Y85.69506
G01 X-33.81922 Y85.70802
G01 X-26.51883 Y85.70802
G01 X-26.51238 Y85.70591
G01 X-26.34878 Y85.67113
G01 X-26.26562 Y85.66240
G01 X-26.09836 Y85.66240
G01 X-26.01520 Y85.67113
G01 X-25.85160 Y85.70591
G01 X-25.77207 Y85.73174
G01 X-25.64568 Y85.78803
G01 X-25.61929 Y85.79979
G01 X-25.54687 Y85.84159
G01 X-25.41157 Y85.93989
G01 X-25.34941 Y85.99585
G01 X-25.23753 Y86.12013
G01 X-25.18835 Y86.18780
G01 X-25.10474 Y86.33263
G01 X-25.07072 Y86.40900
G01 X-25.01904 Y86.56808
G01 X-25.00166 Y86.64987
G01 X-24.98419 Y86.81619
G01 X-24.98419 Y86.89983
G01 X-25.00166 Y87.06615
G01 X-25.01904 Y87.14794
G01 X-25.07072 Y87.30702
G01 X-25.10474 Y87.38340
G01 X-25.18835 Y87.52823
G01 X-25.23753 Y87.59590
G01 X-25.34941 Y87.72018
G01 X-25.41157 Y87.77613
G01 X-25.53072 Y87.86272
G01 X-25.54687 Y87.87443
G01 X-25.61929 Y87.91624
G01 X-25.77207 Y87.98429
G01 X-25.85160 Y88.01012
G01 X-26.01520 Y88.04489
G01 X-26.09836 Y88.05363
G01 X-26.26562 Y88.05363
G01 X-26.34878 Y88.04489
G01 X-26.51238 Y88.01012
G01 X-26.51883 Y88.00801
G01 X-29.37709 Y88.00804
G04 P0 ( dwell for no time -- G64 should not smooth over this point )
G00 Z2.00000 ( retract )

G00 X-29.75299 Y90.53808 ( rapid move to begin. )
G01 F200.00000
( Mill infeed pass 1/1 )
G01 Z-0.20000
G04 P0 ( dwell for no time -- G64 should not smooth over this point )
G01 F400.00000
G01 X-29.75299 Y90.53808
G01 X-26.96308 Y93.32802
G01 X-26.51883 Y93.32802
G01 X-26.51238 Y93.32591
G01 X-26.34878 Y93.29113
G01 X-26.26562 Y93.28240
G01 X-26.09836 Y93.28240
G01 X-26.01520 Y93.29113
G01 X-25.85160 Y93.32591
G01 X-25.77207 Y93.35174
G01 X-25.61929 Y93.41979
G01 X-25.54687 Y93.46159
G01 X-25.41157 Y93.55989
G01 X-25.34941 Y93.61585
G01 X-25.23753 Y93.74013
G01 X-25.18835 Y93.80780
G01 X-25.10474 Y93.95263
G01 X-25.07072 Y94.02900
G01 X-25.01904 Y94.18808
G01 X-25.00166 Y94.26987
G01 X-24.98419 Y94.43619
G01 X-24.98419 Y94.51983
G01 X-25.00166 Y94.68615
G01 X-25.01904 Y94.76794
G01 X-25.07072 Y94.92702
G01 X-25.10474 Y95.00340
G01 X-25.18835 Y95.14823
G01 X-25.23753 Y95.21590
G01 X-25.34941 Y95.34018
G01 X-25.41157 Y95.39613
G01 X-25.54687 Y95.49443
G01 X-25.61929 Y95.53624
G01 X-25.77207 Y95.60429
G01 X-25.85160 Y95.63012
G01 X-26.01520 Y95.66489
G01 X-26.09836 Y95.67363
G01 X-26.26562 Y95.67363
G01 X-26.34878 Y95.66489
G01 X-26.51238 Y95.63012
G01 X-26.51883 Y95.62801
G01 X-27.43943 Y95.62801
G01 X-27.47862 Y95.62608
G01 X-27.62495 Y95.61168
G01 X-27.70183 Y95.59639
G01 X-27.77852 Y95.57312
G01 X-27.83770 Y95.53766
G01 X-27.90011 Y95.49598
G01 X-28.01951 Y95.40746
G01 X-28.07181 Y95.36456
G01 X-28.18090 Y95.26570
G01 X-28.20455 Y95.24318
G01 X-32.27483 Y91.17288
G01 X-32.29847 Y91.15035
G01 X-32.40757 Y91.05149
G01 X-32.45986 Y91.00859
G01 X-32.57927 Y90.92007
G01 X-32.64168 Y90.87839
G01 X-32.70086 Y90.84293
G01 X-32.77757 Y90.81964
G01 X-32.85445 Y90.80435
G01 X-33.00078 Y90.78995
G01 X-33.04000 Y90.78802
G01 X-33.81922 Y90.78802
G01 X-33.85905 Y90.77506
G01 X-33.94084 Y90.75769
G01 X-34.10718 Y90.74021
G01 X-34.14899 Y90.73800
G01 X-34.94899 Y90.73800
G01 X-34.99080 Y90.74021
G01 X-35.15712 Y90.75769
G01 X-35.23893 Y90.77506
G01 X-35.39798 Y90.82675
G01 X-35.47439 Y90.86076
G01 X-35.61922 Y90.94438
G01 X-35.68686 Y90.99355
G01 X-35.81117 Y91.10544
G01 X-35.86712 Y91.16759
G01 X-35.96542 Y91.30290
G01 X-36.00723 Y91.37531
G01 X-36.07525 Y91.52809
G01 X-36.10108 Y91.60762
G01 X-36.13585 Y91.77122
G01 X-36.14462 Y91.85438
G01 X-36.14462 Y92.02164
G01 X-36.13585 Y92.10480
G01 X-36.10108 Y92.26840
G01 X-36.07525 Y92.34793
G01 X-36.00723 Y92.50071
G01 X-35.96542 Y92.57313
G01 X-35.86712 Y92.70843
G01 X-35.81117 Y92.77059
G01 X-35.68686 Y92.88247
G01 X-35.61922 Y92.93165
G01 X-35.47439 Y93.01526
G01 X-35.39798 Y93.04928
G01 X-35.23893 Y93.10096
G01 X-35.15712 Y93.11834
G01 X-34.99080 Y93.13581
G01 X-34.94899 Y93.13802
G01 X-34.14899 Y93.13802
G01 X-34.10718 Y93.13581
G01 X-33.94084 Y93.11834
G01 X-33.85905 Y93.10096
G01 X-33.81922 Y93.08801
G01 X-33.51633 Y93.08801
G01 X-33.29568 Y93.30866
G04 P0 ( dwell for no time -- G64 should not smooth over this point )
G00 Z2.00000 ( retract )

G00 X-52.22894 Y106.17793 ( rapid move to begin. )
G01 F200.00000
( Mill infeed pass 1/1 )
G01 Z-0.20000
G04 P0 ( dwell for no time -- G64 should not smooth over this point )
G01 F400.00000
G01 X-52.22894 Y106.17793
G01 X-52.23039 Y106.20673
G01 X-52.24479 Y106.35306
G01 X-52.26008 Y106.42997
G01 X-52.30278 Y106.57066
G01 X-52.33277 Y106.64310
G01 X-52.40209 Y106.77277
G01 X-52.44565 Y106.83797
G01 X-52.53892 Y106.95161
G01 X-52.56528 Y106.98069
G01 X-54.55477 Y108.97017
G01 X-54.54222 Y109.02933
G01 X-54.53345 Y109.11249
G01 X-54.53345 Y109.32153
G01 X-54.54222 Y109.40472
G01 X-54.58568 Y109.60919
G01 X-54.61151 Y109.68871
G01 X-54.69655 Y109.87970
G01 X-54.73836 Y109.95214
G01 X-54.86124 Y110.12125
G01 X-54.91720 Y110.18340
G01 X-55.07254 Y110.32328
G01 X-55.14021 Y110.37243
G01 X-55.32126 Y110.47698
G01 X-55.39764 Y110.51099
G01 X-55.59647 Y110.57558
G01 X-55.67826 Y110.59298
G01 X-55.88618 Y110.61482
G01 X-55.92799 Y110.61701
G01 X-56.92799 Y110.61701
G01 X-56.96980 Y110.61482
G01 X-57.17772 Y110.59298
G01 X-57.25951 Y110.57558
G01 X-57.45834 Y110.51099
G01 X-57.53472 Y110.47698
G01 X-57.71577 Y110.37243
G01 X-57.78344 Y110.32328
G01 X-57.93878 Y110.18340
G01 X-57.99474 Y110.12125
G01 X-58.11762 Y109.95214
G01 X-58.15943 Y109.87970
G01 X-58.24447 Y109.68871
G01 X-58.27030 Y109.60919
G01 X-58.31376 Y109.40472
G01 X-58.32250 Y109.32153
G01 X-58.32250 Y109.11249
G01 X-58.31376 Y109.02933
G01 X-58.27030 Y108.82483
G01 X-58.24447 Y108.74531
G01 X-58.15943 Y108.55432
G01 X-58.11762 Y108.48191
G01 X-57.99474 Y108.31277
G01 X-57.93878 Y108.25062
G01 X-57.78344 Y108.11074
G01 X-57.71577 Y108.06159
G01 X-57.53472 Y107.95707
G01 X-57.45834 Y107.92303
G01 X-57.25951 Y107.85844
G01 X-57.17772 Y107.84107
G01 X-56.96980 Y107.81920
G01 X-56.92799 Y107.81701
G01 X-56.65430 Y107.81701
G01 X-54.52845 Y105.69119
G01 X-54.52845 Y102.71801
G04 P0 ( dwell for no time -- G64 should not smooth over this point )
G00 Z2.00000 ( retract )

G00 X-54.52845 Y100.71604 ( rapid move to begin. )
G01 F200.00000
( Mill infeed pass 1/1 )
G01 Z-0.20000
G04 P0 ( dwell for no time -- G64 should not smooth over this point )
G01 F400.00000
G01 X-54.52845 Y100.71604
G01 X-54.57356 Y100.53565
G01 X-54.59541 Y100.49478
G01 X-54.64514 Y100.43417
G01 X-54.70577 Y100.38441
G01 X-54.77491 Y100.34746
G01 X-54.84994 Y100.32470
G01 X-54.92799 Y100.31700
G01 X-59.07198 Y100.31700
G01 X-59.07198 Y89.65502
G01 X-54.92799 Y89.65502
G01 X-54.84994 Y89.64733
G01 X-54.77491 Y89.62457
G01 X-54.70577 Y89.58761
G01 X-54.64514 Y89.53785
G01 X-54.59541 Y89.47725
G01 X-54.55842 Y89.40808
G01 X-54.53566 Y89.33305
G01 X-54.52799 Y89.25502
G01 X-54.52799 Y87.25500
G01 X-54.53566 Y87.17697
G01 X-54.55842 Y87.10194
G01 X-54.59541 Y87.03278
G01 X-54.64514 Y86.97217
G01 X-54.70577 Y86.92241
G01 X-54.77491 Y86.88546
G01 X-54.84994 Y86.86270
G01 X-54.92799 Y86.85500
G01 X-59.07198 Y86.85500
G01 X-59.07198 Y76.19302
G01 X-54.92799 Y76.19302
G01 X-54.84994 Y76.18533
G01 X-54.77491 Y76.16257
G01 X-54.70577 Y76.12561
G01 X-54.64514 Y76.07585
G01 X-54.59541 Y76.01525
G01 X-54.55842 Y75.94608
G01 X-54.53566 Y75.87105
G01 X-54.52799 Y75.79302
G01 X-54.52799 Y73.79300
G01 X-54.53566 Y73.71497
G01 X-54.55842 Y73.63994
G01 X-54.59541 Y73.57078
G01 X-54.64514 Y73.51017
G01 X-54.70577 Y73.46044
G01 X-54.77491 Y73.42348
G01 X-54.84994 Y73.40072
G01 X-54.92799 Y73.39300
G01 X-59.07198 Y73.39300
G01 X-59.07198 Y62.73102
G01 X-55.84887 Y62.73102
G01 X-54.14999 Y64.42993
G01 X-54.14999 Y66.73587
G01 X-54.21334 Y66.84559
G01 X-54.24735 Y66.92200
G01 X-54.32810 Y67.17051
G01 X-54.34547 Y67.25232
G01 X-54.37280 Y67.51219
G01 X-54.37280 Y67.59583
G01 X-54.34547 Y67.85570
G01 X-54.32810 Y67.93751
G01 X-54.24735 Y68.18603
G01 X-54.21334 Y68.26243
G01 X-54.08268 Y68.48875
G01 X-54.03351 Y68.55639
G01 X-53.85865 Y68.75059
G01 X-53.79652 Y68.80658
G01 X-53.58509 Y68.96014
G01 X-53.51268 Y69.00195
G01 X-53.27394 Y69.10825
G01 X-53.19442 Y69.13408
G01 X-52.93882 Y69.18844
G01 X-52.85566 Y69.19718
G01 X-52.59432 Y69.19718
G01 X-52.51116 Y69.18844
G01 X-52.25556 Y69.13408
G01 X-52.17603 Y69.10825
G01 X-51.93730 Y69.00195
G01 X-51.86488 Y68.96014
G01 X-51.65345 Y68.80658
G01 X-51.59132 Y68.75059
G01 X-51.41647 Y68.55639
G01 X-51.36729 Y68.48875
G01 X-51.23664 Y68.26243
G01 X-51.20263 Y68.18603
G01 X-51.12188 Y67.93751
G01 X-51.10451 Y67.85570
G01 X-51.09940 Y67.80731
G01 X-51.07718 Y67.59583
G01 X-51.07718 Y67.51219
G01 X-51.10451 Y67.25232
G01 X-51.12188 Y67.17051
G01 X-51.20263 Y66.92200
G01 X-51.23664 Y66.84559
G01 X-51.34997 Y66.64928
G01 X-51.34997 Y63.85002
G01 X-51.35190 Y63.81083
G01 X-51.37113 Y63.61573
G01 X-51.38642 Y63.53882
G01 X-51.44332 Y63.35124
G01 X-51.47334 Y63.27880
G01 X-51.56574 Y63.10590
G01 X-51.60931 Y63.04070
G01 X-51.73366 Y62.88916
G01 X-51.76003 Y62.86008
G01 X-54.27902 Y60.34106
G01 X-54.30811 Y60.31470
G01 X-54.45964 Y60.19034
G01 X-54.52484 Y60.14678
G01 X-54.59520 Y60.10918
G01 X-54.59541 Y60.10878
G01 X-54.64514 Y60.04817
G01 X-54.70577 Y59.99841
G01 X-54.77491 Y59.96146
G01 X-54.84994 Y59.93870
G01 X-54.92799 Y59.93100
G01 X-59.07198 Y59.93100
G01 X-59.07198 Y49.20204
G01 X-56.42799 Y49.20204
G01 X-56.42756 Y49.20202
G01 X-54.92799 Y49.20202
G01 X-54.84994 Y49.19432
G01 X-54.77491 Y49.17156
G01 X-54.70577 Y49.13461
G01 X-54.64514 Y49.08485
G01 X-54.59541 Y49.02424
G01 X-54.55842 Y48.95508
G01 X-54.53566 Y48.88005
G01 X-54.52799 Y48.80202
G01 X-54.52799 Y46.80202
G01 X-54.53566 Y46.72397
G01 X-54.55842 Y46.64894
G01 X-54.59541 Y46.57977
G01 X-54.64514 Y46.51917
G01 X-54.70577 Y46.46943
G01 X-54.77491 Y46.43245
G01 X-54.84994 Y46.40969
G01 X-54.92799 Y46.40202
G01 X-59.07198 Y46.40202
G01 X-59.07198 Y35.68002
G01 X-54.92799 Y35.68002
G01 X-54.84994 Y35.67233
G01 X-54.77491 Y35.64957
G01 X-54.70577 Y35.61261
G01 X-54.64514 Y35.56285
G01 X-54.59541 Y35.50225
G01 X-54.55842 Y35.43308
G01 X-54.53566 Y35.35805
G01 X-54.52799 Y35.28002
G01 X-54.52799 Y33.28000
G01 X-54.53566 Y33.20197
G01 X-54.55842 Y33.12694
G01 X-54.59541 Y33.05778
G01 X-54.64514 Y32.99717
G01 X-54.70577 Y32.94741
G01 X-54.77491 Y32.91046
G01 X-54.84994 Y32.88770
G01 X-54.92799 Y32.88000
G01 X-59.07198 Y32.88000
G01 X-59.07198 Y22.19580
G01 X-56.41257 Y22.19577
G01 X-54.91275 Y22.19577
G01 X-54.83472 Y22.18810
G01 X-54.75969 Y22.16534
G01 X-54.69053 Y22.12836
G01 X-54.62990 Y22.07863
G01 X-54.58017 Y22.01800
G01 X-54.54321 Y21.94886
G01 X-54.52045 Y21.87383
G01 X-54.51275 Y21.79577
G01 X-54.51275 Y19.79578
G01 X-54.52045 Y19.71775
G01 X-54.54321 Y19.64272
G01 X-54.58017 Y19.57355
G01 X-54.62990 Y19.51295
G01 X-54.69053 Y19.46319
G01 X-54.75969 Y19.42623
G01 X-54.83472 Y19.40347
G01 X-54.91275 Y19.39578
G01 X-59.07198 Y19.39578
G01 X-59.07198 Y19.04000
G01 X-59.07391 Y19.00081
G01 X-59.09314 Y18.80571
G01 X-59.10843 Y18.72880
G01 X-59.16532 Y18.54122
G01 X-59.19535 Y18.46878
G01 X-59.28775 Y18.29588
G01 X-59.33131 Y18.23068
G01 X-59.45567 Y18.07914
G01 X-59.48203 Y18.05006
G01 X-62.00329 Y15.52881
G01 X-62.03237 Y15.50244
G01 X-62.18391 Y15.37808
G01 X-62.24911 Y15.33452
G01 X-62.42201 Y15.24212
G01 X-62.49445 Y15.21209
G01 X-62.68203 Y15.15520
G01 X-62.75894 Y15.13991
G01 X-62.95404 Y15.12068
G01 X-62.99325 Y15.11875
G01 X-75.56948 Y15.11875
G01 X-76.41060 Y14.27765
G01 X-75.90890 Y13.77598
G01 X-75.87194 Y13.77232
G01 X-75.79691 Y13.74956
G01 X-75.72775 Y13.71260
G01 X-75.66714 Y13.66285
G01 X-75.61741 Y13.60224
G01 X-75.58043 Y13.53308
G01 X-75.55767 Y13.45805
G01 X-75.55404 Y13.42111
G01 X-75.35648 Y13.22353
G01 X-75.33011 Y13.19444
G01 X-75.14357 Y12.96714
G01 X-75.09999 Y12.90194
G01 X-74.96138 Y12.64260
G01 X-74.93138 Y12.57016
G01 X-74.84601 Y12.28878
G01 X-74.83072 Y12.21187
G01 X-74.80189 Y11.91924
G01 X-74.79996 Y11.88002
G01 X-74.79996 Y11.49003
G01 X-73.59999 Y11.49003
G01 X-73.59999 Y11.88002
G01 X-73.59806 Y11.91924
G01 X-73.56923 Y12.21187
G01 X-73.55394 Y12.28878
G01 X-73.46857 Y12.57016
G01 X-73.43857 Y12.64260
G01 X-73.29997 Y12.90194
G01 X-73.25638 Y12.96714
G01 X-73.06984 Y13.19444
G01 X-73.01439 Y13.24989
G01 X-72.78709 Y13.43643
G01 X-72.72189 Y13.48002
G01 X-72.46255 Y13.61862
G01 X-72.39011 Y13.64862
G01 X-72.10873 Y13.73399
G01 X-72.03182 Y13.74928
G01 X-71.87127 Y13.76511
G01 X-71.86154 Y13.76716
G01 X-71.77838 Y13.77590
G01 X-71.76154 Y13.77590
G01 X-71.73919 Y13.77811
G01 X-71.66078 Y13.77811
G01 X-71.63842 Y13.77590
G01 X-71.62158 Y13.77590
G01 X-71.53842 Y13.76716
G01 X-71.52872 Y13.76511
G01 X-71.36814 Y13.74928
G01 X-71.29123 Y13.73399
G01 X-71.00985 Y13.64862
G01 X-70.93741 Y13.61862
G01 X-70.67808 Y13.48002
G01 X-70.61287 Y13.43643
G01 X-70.38557 Y13.24989
G01 X-70.33012 Y13.19444
G01 X-70.14358 Y12.96714
G01 X-70.10000 Y12.90194
G01 X-69.96139 Y12.64260
G01 X-69.93139 Y12.57016
G01 X-69.84602 Y12.28878
G01 X-69.83073 Y12.21187
G01 X-69.80190 Y11.91924
G01 X-69.79997 Y11.88002
G01 X-69.79997 Y6.88000
G01 X-69.80190 Y6.84081
G01 X-69.83073 Y6.54818
G01 X-69.84602 Y6.47127
G01 X-69.93139 Y6.18989
G01 X-69.96139 Y6.11745
G01 X-70.10000 Y5.85811
G01 X-70.14358 Y5.79291
G01 X-70.33012 Y5.56560
G01 X-70.38557 Y5.51016
G01 X-70.61287 Y5.32362
G01 X-70.67808 Y5.28003
G01 X-70.93741 Y5.14142
G01 X-71.00985 Y5.11143
G01 X-71.29123 Y5.02606
G01 X-71.36814 Y5.01077
G01 X-71.52852 Y4.99497
G01 X-71.53842 Y4.99286
G01 X-71.62158 Y4.98412
G01 X-71.63865 Y4.98412
G01 X-71.66078 Y4.98194
G01 X-71.73919 Y4.98194
G01 X-71.76131 Y4.98412
G01 X-71.77838 Y4.98412
G01 X-71.86154 Y4.99286
G01 X-71.87147 Y4.99497
G01 X-72.03182 Y5.01077
G01 X-72.10873 Y5.02606
G01 X-72.39011 Y5.11143
G01 X-72.46255 Y5.14142
G01 X-72.72189 Y5.28003
G01 X-72.78709 Y5.32362
G01 X-73.01439 Y5.51016
G01 X-73.06984 Y5.56560
G01 X-73.25638 Y5.79291
G01 X-73.29997 Y5.85811
G01 X-73.43857 Y6.11745
G01 X-73.46857 Y6.18989
G01 X-73.55394 Y6.47127
G01 X-73.56923 Y6.54818
G01 X-73.59806 Y6.84081
G01 X-73.59999 Y6.88000
G01 X-73.59999 Y7.69001
G01 X-74.79996 Y7.69001
G01 X-74.79996 Y6.88000
G01 X-74.80189 Y6.84081
G01 X-74.83072 Y6.54818
G01 X-74.84601 Y6.47127
G01 X-74.93138 Y6.18989
G01 X-74.96138 Y6.11745
G01 X-75.09999 Y5.85811
G01 X-75.14357 Y5.79291
G01 X-75.33011 Y5.56560
G01 X-75.38556 Y5.51016
G01 X-75.55051 Y5.37477
G01 X-75.55767 Y5.30198
G01 X-75.58043 Y5.22695
G01 X-75.61741 Y5.15778
G01 X-75.66714 Y5.09718
G01 X-75.72775 Y5.04742
G01 X-75.79691 Y5.01046
G01 X-75.87194 Y4.98770
G01 X-75.95000 Y4.98001
G01 X-77.44999 Y4.98001
G01 X-77.52802 Y4.98770
G01 X-77.60306 Y5.01046
G01 X-77.67222 Y5.04742
G01 X-77.73282 Y5.09718
G01 X-77.78258 Y5.15778
G01 X-77.81954 Y5.22695
G01 X-77.84230 Y5.30198
G01 X-77.84949 Y5.37480
G01 X-78.01438 Y5.51016
G01 X-78.06983 Y5.56560
G01 X-78.25637 Y5.79291
G01 X-78.29996 Y5.85811
G01 X-78.43856 Y6.11745
G01 X-78.46856 Y6.18989
G01 X-78.55393 Y6.47127
G01 X-78.56922 Y6.54818
G01 X-78.59805 Y6.84081
G01 X-78.59998 Y6.88000
G01 X-78.59998 Y9.98002
G01 X-80.94996 Y9.98002
G01 X-80.94996 Y6.47500
G01 X-80.95189 Y6.43581
G01 X-80.99992 Y5.94808
G01 X-81.00678 Y5.91361
G01 X-81.00706 Y5.91219
G01 X-81.01524 Y5.87117
G01 X-81.01709 Y5.86502
G01 X-81.02421 Y5.83162
G01 X-81.06985 Y5.69113
G01 X-81.15751 Y5.40218
G01 X-81.18750 Y5.32974
G01 X-81.18956 Y5.32591
G01 X-81.21971 Y5.25816
G01 X-81.30119 Y5.11702
G01 X-81.41852 Y4.89753
G01 X-81.46210 Y4.83233
G01 X-81.47384 Y4.81803
G01 X-81.48103 Y4.80556
G01 X-81.53017 Y4.73790
G01 X-81.63640 Y4.61994
G01 X-81.77300 Y4.45349
G01 X-81.82845 Y4.39804
G01 X-81.85811 Y4.37368
G01 X-81.87991 Y4.34950
G01 X-81.94204 Y4.29355
G01 X-82.06175 Y4.20658
G01 X-82.20729 Y4.08715
G01 X-82.27249 Y4.04356
G01 X-82.32400 Y4.01603
G01 X-82.36487 Y3.98633
G01 X-82.43728 Y3.94453
G01 X-82.55992 Y3.88994
G01 X-82.70470 Y3.81255
G01 X-82.77714 Y3.78255
G01 X-82.85242 Y3.75972
G01 X-82.91475 Y3.73195
G01 X-82.99428 Y3.70612
G01 X-83.11059 Y3.68138
G01 X-83.24612 Y3.64028
G01 X-83.32303 Y3.62497
G01 X-83.42171 Y3.61527
G01 X-83.50551 Y3.59746
G01 X-83.58867 Y3.58870
G01 X-83.69128 Y3.58870
G01 X-83.81076 Y3.57694
G01 X-83.88917 Y3.57694
G01 X-84.00866 Y3.58870
G01 X-84.11130 Y3.58870
G01 X-84.19448 Y3.59746
G01 X-84.27828 Y3.61527
G01 X-84.37691 Y3.62497
G01 X-84.45382 Y3.64028
G01 X-84.58927 Y3.68136
G01 X-84.70568 Y3.70612
G01 X-84.78524 Y3.73195
G01 X-84.84764 Y3.75974
G01 X-84.92280 Y3.78255
G01 X-84.99524 Y3.81255
G01 X-85.13985 Y3.88984
G01 X-85.26268 Y3.94453
G01 X-85.33509 Y3.98633
G01 X-85.37606 Y4.01610
G01 X-85.42745 Y4.04356
G01 X-85.49265 Y4.08715
G01 X-85.63791 Y4.20635
G01 X-85.75793 Y4.29355
G01 X-85.82008 Y4.34950
G01 X-85.84195 Y4.37379
G01 X-85.87149 Y4.39804
G01 X-85.92694 Y4.45349
G01 X-86.06319 Y4.61951
G01 X-86.16979 Y4.73790
G01 X-86.21894 Y4.80556
G01 X-86.22623 Y4.81816
G01 X-86.23784 Y4.83233
G01 X-86.28142 Y4.89753
G01 X-86.39829 Y5.11620
G01 X-86.48025 Y5.25816
G01 X-86.51058 Y5.32629
G01 X-86.51244 Y5.32974
G01 X-86.54243 Y5.40218
G01 X-86.62958 Y5.68948
G01 X-86.67578 Y5.83162
G01 X-86.68295 Y5.86540
G01 X-86.68470 Y5.87117
G01 X-86.69237 Y5.90962
G01 X-86.69316 Y5.91343
G01 X-86.69323 Y5.91397
G01 X-86.70001 Y5.94808
G01 X-86.74807 Y6.43578
G01 X-86.74792 Y6.47518
G01 X-86.74998 Y6.47518
G01 X-86.74998 Y14.47501
G01 X-86.74779 Y14.51682
G01 X-86.74766 Y14.51806
G01 X-86.70001 Y15.00196
G01 X-86.69323 Y15.03607
G01 X-86.69316 Y15.03660
G01 X-86.69237 Y15.04029
G01 X-86.68470 Y15.07887
G01 X-86.68295 Y15.08466
G01 X-86.67578 Y15.11839
G01 X-86.62963 Y15.26038
G01 X-86.54243 Y15.54786
G01 X-86.51244 Y15.62030
G01 X-86.51056 Y15.62380
G01 X-86.48025 Y15.69185
G01 X-86.39836 Y15.83368
G01 X-86.28142 Y16.05250
G01 X-86.23784 Y16.11770
G01 X-86.22620 Y16.13190
G01 X-86.21894 Y16.14448
G01 X-86.16979 Y16.21212
G01 X-86.06329 Y16.33040
G01 X-85.92694 Y16.49655
G01 X-85.87149 Y16.55199
G01 X-85.84190 Y16.57628
G01 X-85.82008 Y16.60053
G01 X-85.75793 Y16.65649
G01 X-85.63804 Y16.74359
G01 X-85.49265 Y16.86289
G01 X-85.42745 Y16.90648
G01 X-85.37599 Y16.93396
G01 X-85.33509 Y16.96368
G01 X-85.26268 Y17.00549
G01 X-85.13997 Y17.06012
G01 X-84.99524 Y17.13749
G01 X-84.92280 Y17.16749
G01 X-84.84754 Y17.19032
G01 X-84.78524 Y17.21808
G01 X-84.70568 Y17.24392
G01 X-84.58940 Y17.26863
G01 X-84.45382 Y17.30975
G01 X-84.37691 Y17.32507
G01 X-84.27818 Y17.33477
G01 X-84.19448 Y17.35258
G01 X-84.11130 Y17.36131
G01 X-84.00878 Y17.36131
G01 X-83.88917 Y17.37310
G01 X-83.84998 Y17.37503
G01 X-81.51567 Y17.37503
G01 X-79.61275 Y19.27795
G01 X-79.61275 Y20.67386
G01 X-79.60869 Y20.75696
G01 X-79.60775 Y20.79578
G01 X-79.60775 Y28.29581
G01 X-79.60869 Y28.33462
G01 X-79.61275 Y28.41771
G01 X-79.61275 Y34.10578
G01 X-79.62297 Y34.20944
G01 X-79.62297 Y41.78004
G01 X-79.62393 Y41.81885
G01 X-79.62797 Y41.90109
G01 X-79.62797 Y47.68094
G01 X-79.62393 Y47.76321
G01 X-79.62297 Y47.80202
G01 X-79.62297 Y55.30203
G01 X-79.62393 Y55.34084
G01 X-79.62797 Y55.42309
G01 X-79.62797 Y61.20994
G01 X-79.62393 Y61.29219
G01 X-79.62297 Y61.33103
G01 X-79.62297 Y68.83101
G01 X-79.62393 Y68.86985
G01 X-79.62797 Y68.95209
G01 X-79.62797 Y74.67192
G01 X-79.62393 Y74.75419
G01 X-79.62297 Y74.79303
G01 X-79.62297 Y82.29304
G01 X-79.62393 Y82.33185
G01 X-79.62797 Y82.41412
G01 X-79.62797 Y88.13392
G01 X-79.62393 Y88.21619
G01 X-79.62297 Y88.25500
G01 X-79.62297 Y95.75501
G01 X-79.62393 Y95.79385
G01 X-79.62797 Y95.87612
G01 X-79.62797 Y101.59592
G01 X-79.62393 Y101.67819
G01 X-79.62297 Y101.71700
G01 X-79.62297 Y109.21704
G01 X-79.62393 Y109.25585
G01 X-79.62797 Y109.33809
G01 X-79.62797 Y114.85274
G01 X-79.62073 Y114.92612
G01 X-79.60404 Y115.26602
G01 X-79.60386 Y115.26917
G01 X-79.60209 Y115.30290
G01 X-79.60191 Y115.30600
G01 X-79.58299 Y115.69147
G01 X-79.58299 Y122.80601
G01 X-79.58393 Y122.84485
G01 X-79.58796 Y122.92714
G01 X-79.58799 Y124.73280
G01 X-80.98519 Y126.13001
G01 X-94.58898 Y126.13001
G01 X-94.62817 Y126.13194
G01 X-94.74765 Y126.14370
G01 X-94.85032 Y126.14370
G01 X-94.93348 Y126.15246
G01 X-95.01730 Y126.17027
G01 X-95.11590 Y126.17997
G01 X-95.19281 Y126.19528
G01 X-95.32824 Y126.23636
G01 X-95.44470 Y126.26112
G01 X-95.52423 Y126.28695
G01 X-95.58666 Y126.31474
G01 X-95.66179 Y126.33755
G01 X-95.73424 Y126.36755
G01 X-95.87879 Y126.44481
G01 X-96.00167 Y126.49953
G01 X-96.07411 Y126.54133
G01 X-96.11508 Y126.57110
G01 X-96.16644 Y126.59856
G01 X-96.23164 Y126.64215
G01 X-96.37686 Y126.76130
G01 X-96.49692 Y126.84855
G01 X-96.55908 Y126.90450
G01 X-96.58097 Y126.92881
G01 X-96.61048 Y126.95304
G01 X-96.66593 Y127.00849
G01 X-96.80210 Y127.17440
G01 X-96.90878 Y127.29290
G01 X-96.95793 Y127.36056
G01 X-96.96525 Y127.37321
G01 X-96.97683 Y127.38733
G01 X-97.02042 Y127.45253
G01 X-97.13720 Y127.67102
G01 X-97.21927 Y127.81316
G01 X-97.24963 Y127.88136
G01 X-97.25143 Y127.88474
G01 X-97.28143 Y127.95718
G01 X-97.36850 Y128.24415
G01 X-97.41478 Y128.38662
G01 X-97.42196 Y128.42048
G01 X-97.42369 Y128.42617
G01 X-97.43126 Y128.46414
G01 X-97.43218 Y128.46843
G01 X-97.43223 Y128.46904
G01 X-97.43901 Y128.50305
G01 X-97.48706 Y128.99078
G01 X-97.48678 Y129.07183
G01 X-97.48653 Y129.07425
G01 X-97.43901 Y129.55695
G01 X-97.43223 Y129.59096
G01 X-97.43218 Y129.59160
G01 X-97.43124 Y129.59594
G01 X-97.42369 Y129.63386
G01 X-97.42196 Y129.63955
G01 X-97.41478 Y129.67341
G01 X-97.36850 Y129.81585
G01 X-97.28143 Y130.10285
G01 X-97.25143 Y130.17529
G01 X-97.24963 Y130.17867
G01 X-97.21927 Y130.24686
G01 X-97.13720 Y130.38898
G01 X-97.02042 Y130.60749
G01 X-96.97683 Y130.67270
G01 X-96.96525 Y130.68684
G01 X-96.95793 Y130.69947
G01 X-96.90878 Y130.76713
G01 X-96.80213 Y130.88560
G01 X-96.66593 Y131.05154
G01 X-96.64998 Y131.06749
G01 X-96.64998 Y146.25001
G01 X-96.64805 Y146.28922
G01 X-96.62882 Y146.48432
G01 X-96.61353 Y146.56123
G01 X-96.55664 Y146.74881
G01 X-96.52661 Y146.82125
G01 X-96.43421 Y146.99415
G01 X-96.39997 Y147.04538
G01 X-96.40000 Y150.50001
G01 X-96.40000 Y152.00001
G01 X-96.39779 Y152.04182
G01 X-96.38140 Y152.19775
G01 X-96.36403 Y152.27956
G01 X-96.31557 Y152.42868
G01 X-96.28155 Y152.50506
G01 X-96.20317 Y152.64085
G01 X-96.15400 Y152.70852
G01 X-96.04909 Y152.82503
G01 X-95.98694 Y152.88098
G01 X-95.86009 Y152.97313
G01 X-95.78768 Y153.01494
G01 X-95.64445 Y153.07872
G01 X-95.56492 Y153.10455
G01 X-95.41155 Y153.13717
G01 X-95.32839 Y153.14590
G01 X-95.17160 Y153.14590
G01 X-95.08842 Y153.13717
G01 X-94.93505 Y153.10455
G01 X-94.85552 Y153.07872
G01 X-94.71229 Y153.01494
G01 X-94.63988 Y152.97313
G01 X-94.51303 Y152.88098
G01 X-94.45088 Y152.82503
G01 X-94.34597 Y152.70852
G01 X-94.29682 Y152.64085
G01 X-94.21841 Y152.50506
G01 X-94.18440 Y152.42868
G01 X-94.17511 Y152.40003
G01 X-91.32487 Y152.40003
G01 X-91.31558 Y152.42868
G01 X-91.28156 Y152.50506
G01 X-91.20316 Y152.64085
G01 X-91.15401 Y152.70852
G01 X-91.04910 Y152.82503
G01 X-90.98695 Y152.88098
G01 X-90.86010 Y152.97313
G01 X-90.78769 Y153.01494
G01 X-90.64446 Y153.07872
G01 X-90.56490 Y153.10455
G01 X-90.41154 Y153.13717
G01 X-90.32838 Y153.14590
G01 X-90.17158 Y153.14590
G01 X-90.08843 Y153.13717
G01 X-89.93506 Y153.10455
G01 X-89.85553 Y153.07872
G01 X-89.71230 Y153.01494
G01 X-89.63986 Y152.97313
G01 X-89.51301 Y152.88098
G01 X-89.45089 Y152.82503
G01 X-89.34596 Y152.70852
G01 X-89.29681 Y152.64085
G01 X-89.21842 Y152.50506
G01 X-89.18441 Y152.42868
G01 X-89.13595 Y152.27956
G01 X-89.11858 Y152.19775
G01 X-89.10217 Y152.04182
G01 X-89.09998 Y152.00001
G01 X-89.09998 Y145.50002
G01 X-89.10217 Y145.45821
G01 X-89.11858 Y145.30226
G01 X-89.13595 Y145.22047
G01 X-89.18441 Y145.07135
G01 X-89.21842 Y144.99497
G01 X-89.29681 Y144.85918
G01 X-89.34596 Y144.79151
G01 X-89.45089 Y144.67500
G01 X-89.51301 Y144.61905
G01 X-89.63986 Y144.52690
G01 X-89.71230 Y144.48506
G01 X-89.85553 Y144.42131
G01 X-89.93506 Y144.39545
G01 X-90.08843 Y144.36286
G01 X-90.17158 Y144.35413
G01 X-90.32838 Y144.35413
G01 X-90.41154 Y144.36286
G01 X-90.56490 Y144.39545
G01 X-90.64446 Y144.42131
G01 X-90.78769 Y144.48506
G01 X-90.86010 Y144.52690
G01 X-90.98695 Y144.61905
G01 X-91.04910 Y144.67500
G01 X-91.15401 Y144.79151
G01 X-91.20316 Y144.85918
G01 X-91.28156 Y144.99497
G01 X-91.31558 Y145.07135
G01 X-91.32487 Y145.10002
G01 X-93.84996 Y145.10002
G01 X-93.84996 Y131.93002
G01 X-79.78398 Y131.93002
G01 X-79.74476 Y131.92809
G01 X-79.25703 Y131.88006
G01 X-79.18012 Y131.86474
G01 X-78.71113 Y131.72248
G01 X-78.63869 Y131.69248
G01 X-78.20648 Y131.46147
G01 X-78.14128 Y131.41788
G01 X-77.76244 Y131.10698
G01 X-77.73336 Y131.08062
G01 X-74.63738 Y127.98464
G01 X-74.61101 Y127.95556
G01 X-74.30012 Y127.57671
G01 X-74.25653 Y127.51151
G01 X-74.02552 Y127.07931
G01 X-73.99552 Y127.00687
G01 X-73.85325 Y126.53788
G01 X-73.83794 Y126.46097
G01 X-73.78991 Y125.97324
G01 X-73.78798 Y125.93402
G01 X-73.78798 Y115.30600
G01 X-73.78991 Y115.26678
G01 X-73.82798 Y114.88035
G01 X-73.82798 Y41.78296
G01 X-73.81277 Y34.27068
G01 X-73.81274 Y34.27027
G01 X-73.81274 Y18.07671
G01 X-73.81467 Y18.03751
G01 X-73.82638 Y17.91877
G01 X-63.57314 Y17.91877
G01 X-61.87200 Y19.61991
G01 X-61.87200 Y111.22201
G01 X-61.87007 Y111.26123
G01 X-61.85084 Y111.45633
G01 X-61.83555 Y111.53324
G01 X-61.77865 Y111.72082
G01 X-61.74863 Y111.79326
G01 X-61.65622 Y111.96615
G01 X-61.61266 Y112.03136
G01 X-61.48830 Y112.18289
G01 X-61.46194 Y112.21198
G01 X-58.28798 Y115.38591
G01 X-58.28798 Y116.30602
G01 X-58.28031 Y116.38405
G01 X-58.25755 Y116.45908
G01 X-58.22057 Y116.52825
G01 X-58.17084 Y116.58885
G01 X-58.11021 Y116.63861
G01 X-58.04107 Y116.67557
G01 X-57.96604 Y116.69833
G01 X-57.88798 Y116.70602
G01 X-54.88799 Y116.70602
G01 X-54.80996 Y116.69833
G01 X-54.73490 Y116.67557
G01 X-54.66576 Y116.63861
G01 X-54.60513 Y116.58885
G01 X-54.55540 Y116.52825
G01 X-54.51844 Y116.45908
G01 X-54.49568 Y116.38405
G01 X-54.48799 Y116.30602
G01 X-54.48799 Y114.30600
G01 X-54.49568 Y114.22797
G01 X-54.51844 Y114.15294
G01 X-54.55540 Y114.08378
G01 X-54.60513 Y114.02317
G01 X-54.66576 Y113.97341
G01 X-54.73490 Y113.93646
G01 X-54.80996 Y113.91370
G01 X-54.88799 Y113.90600
G01 X-55.80808 Y113.90600
G01 X-59.07198 Y110.64213
G01 X-59.07198 Y103.11702
G01 X-54.92799 Y103.11702
G01 X-54.84994 Y103.10933
G01 X-54.77491 Y103.08657
G01 X-54.70577 Y103.04961
G01 X-54.64514 Y102.99985
G01 X-54.59541 Y102.93925
G01 X-54.57354 Y102.89833
G01 X-54.52845 Y102.71801
G01 X-54.52822 Y102.71702
G01 X-54.52822 Y100.71700
G01 X-54.52845 Y100.71604
G01 X-54.52845 Y97.23154
G01 X-54.52652 Y97.19235
G01 X-54.51832 Y97.10903
G01 X-54.51212 Y97.04602
G01 X-54.49683 Y96.96913
G01 X-54.45413 Y96.82841
G01 X-54.42413 Y96.75597
G01 X-54.35482 Y96.62631
G01 X-54.31126 Y96.56110
G01 X-54.21799 Y96.44747
G01 X-54.19843 Y96.42588
G01 X-54.19144 Y96.41856
G01 X-48.89793 Y91.12502
G01 X-48.89120 Y91.11862
G01 X-48.89110 Y91.11852
G01 X-48.89059 Y91.11804
G01 X-48.86903 Y91.09848
G01 X-48.75539 Y91.00521
G01 X-48.69018 Y90.96165
G01 X-48.56052 Y90.89233
G01 X-48.48808 Y90.86234
G01 X-48.34736 Y90.81964
G01 X-48.27048 Y90.80435
G01 X-48.12415 Y90.78995
G01 X-48.08495 Y90.78802
G01 X-42.89876 Y90.78802
G01 X-42.85893 Y90.77506
G01 X-42.77712 Y90.75769
G01 X-42.61080 Y90.74021
G01 X-42.56899 Y90.73800
G01 X-41.76896 Y90.73800
G01 X-41.72716 Y90.74021
G01 X-41.56084 Y90.75769
G01 X-41.47905 Y90.77506
G01 X-41.31997 Y90.82675
G01 X-41.24359 Y90.86076
G01 X-41.23102 Y90.86803
G01 X-41.09876 Y90.94438
G01 X-41.03112 Y90.99355
G01 X-40.90679 Y91.10544
G01 X-40.85086 Y91.16759
G01 X-40.75256 Y91.30290
G01 X-40.71075 Y91.37531
G01 X-40.64273 Y91.52809
G01 X-40.61687 Y91.60762
G01 X-40.58207 Y91.77122
G01 X-40.57334 Y91.85438
G01 X-40.57334 Y92.02164
G01 X-40.58207 Y92.10480
G01 X-40.61687 Y92.26840
G01 X-40.64273 Y92.34793
G01 X-40.71075 Y92.50071
G01 X-40.75256 Y92.57313
G01 X-40.85086 Y92.70843
G01 X-40.90679 Y92.77059
G01 X-41.03112 Y92.88247
G01 X-41.09876 Y92.93165
G01 X-41.24359 Y93.01526
G01 X-41.31997 Y93.04928
G01 X-41.47905 Y93.10096
G01 X-41.56084 Y93.11834
G01 X-41.72716 Y93.13581
G01 X-41.76896 Y93.13802
G01 X-42.56899 Y93.13802
G01 X-42.61080 Y93.13581
G01 X-42.77712 Y93.11834
G01 X-42.85893 Y93.10096
G01 X-42.89876 Y93.08801
G01 X-47.60860 Y93.08801
G01 X-48.17855 Y93.65799
G04 P0 ( dwell for no time -- G64 should not smooth over this point )
G00 Z2.00000 ( retract )

G00 X-51.89841 Y97.37784 ( rapid move to begin. )
G01 F200.00000
( Mill infeed pass 1/1 )
G01 Z-0.20000
G04 P0 ( dwell for no time -- G64 should not smooth over this point )
G01 F400.00000
G01 X-51.89841 Y97.37784
G01 X-51.89193 Y97.37106
G01 X-48.18592 Y93.66502
G01 X-48.17906 Y93.65849
G01 X-48.17855 Y93.65799
G01 X-48.15701 Y93.63848
G01 X-48.04337 Y93.54521
G01 X-47.97817 Y93.50165
G01 X-47.84850 Y93.43233
G01 X-47.77606 Y93.40234
G01 X-47.63535 Y93.35964
G01 X-47.55846 Y93.34435
G01 X-47.41213 Y93.32995
G01 X-47.37294 Y93.32802
G01 X-42.89876 Y93.32802
G01 X-42.85893 Y93.31506
G01 X-42.77712 Y93.29769
G01 X-42.61080 Y93.28021
G01 X-42.56899 Y93.27800
G01 X-41.76896 Y93.27800
G01 X-41.72716 Y93.28021
G01 X-41.56084 Y93.29769
G01 X-41.47905 Y93.31506
G01 X-41.31997 Y93.36675
G01 X-41.24359 Y93.40076
G01 X-41.09876 Y93.48438
G01 X-41.03112 Y93.53355
G01 X-40.90679 Y93.64544
G01 X-40.85086 Y93.70759
G01 X-40.75256 Y93.84290
G01 X-40.71075 Y93.91531
G01 X-40.64273 Y94.06809
G01 X-40.61687 Y94.14762
G01 X-40.58207 Y94.31122
G01 X-40.57334 Y94.39438
G01 X-40.57334 Y94.56164
G01 X-40.58207 Y94.64480
G01 X-40.61687 Y94.80840
G01 X-40.64273 Y94.88793
G01 X-40.71075 Y95.04071
G01 X-40.75256 Y95.11313
G01 X-40.85086 Y95.24843
G01 X-40.90679 Y95.31059
G01 X-41.03112 Y95.42247
G01 X-41.09876 Y95.47165
G01 X-41.24359 Y95.55526
G01 X-41.31997 Y95.58928
G01 X-41.47905 Y95.64096
G01 X-41.56084 Y95.65834
G01 X-41.72716 Y95.67581
G01 X-41.76896 Y95.67802
G01 X-42.56899 Y95.67802
G01 X-42.61080 Y95.67581
G01 X-42.77712 Y95.65834
G01 X-42.85893 Y95.64096
G01 X-42.89876 Y95.62801
G01 X-46.89659 Y95.62801
G01 X-49.92894 Y98.66039
G01 X-49.92894 Y117.49698
G01 X-49.93087 Y117.53620
G01 X-49.94527 Y117.68253
G01 X-49.96057 Y117.75941
G01 X-50.00326 Y117.90013
G01 X-50.03326 Y117.97257
G01 X-50.10258 Y118.10224
G01 X-50.14614 Y118.16744
G01 X-50.23941 Y118.28108
G01 X-50.26577 Y118.31016
G01 X-54.51479 Y122.55917
G01 X-54.50221 Y122.61836
G01 X-54.49348 Y122.70149
G01 X-54.49348 Y122.91053
G01 X-54.50221 Y122.99372
G01 X-54.54567 Y123.19819
G01 X-54.57150 Y123.27771
G01 X-54.65654 Y123.46870
G01 X-54.69835 Y123.54114
G01 X-54.82124 Y123.71025
G01 X-54.87719 Y123.77243
G01 X-55.03254 Y123.91228
G01 X-55.10020 Y123.96143
G01 X-55.28126 Y124.06600
G01 X-55.35763 Y124.09999
G01 X-55.55647 Y124.16458
G01 X-55.63825 Y124.18198
G01 X-55.84618 Y124.20385
G01 X-55.88799 Y124.20603
G01 X-56.88798 Y124.20603
G01 X-56.92979 Y124.20385
G01 X-57.13772 Y124.18198
G01 X-57.21950 Y124.16458
G01 X-57.41834 Y124.09999
G01 X-57.49471 Y124.06600
G01 X-57.67576 Y123.96143
G01 X-57.74343 Y123.91228
G01 X-57.89878 Y123.77243
G01 X-57.95473 Y123.71025
G01 X-58.07762 Y123.54114
G01 X-58.11943 Y123.46870
G01 X-58.20447 Y123.27771
G01 X-58.23030 Y123.19819
G01 X-58.27376 Y122.99372
G01 X-58.28252 Y122.91053
G01 X-58.28252 Y122.70149
G01 X-58.27376 Y122.61836
G01 X-58.23030 Y122.41383
G01 X-58.20447 Y122.33431
G01 X-58.11943 Y122.14332
G01 X-58.07762 Y122.07091
G01 X-57.95473 Y121.90177
G01 X-57.89878 Y121.83962
G01 X-57.74343 Y121.69974
G01 X-57.67576 Y121.65059
G01 X-57.49471 Y121.54607
G01 X-57.41834 Y121.51203
G01 X-57.21950 Y121.44744
G01 X-57.13772 Y121.43007
G01 X-56.92979 Y121.40820
G01 X-56.88798 Y121.40601
G01 X-56.61430 Y121.40601
G01 X-52.22894 Y117.02065
G01 X-52.22894 Y106.17793
G01 X-52.22868 Y106.16751
G01 X-52.22868 Y98.18404
G01 X-52.22843 Y98.17362
G01 X-52.22701 Y98.14485
G01 X-52.21261 Y97.99852
G01 X-52.19731 Y97.92163
G01 X-52.15462 Y97.78091
G01 X-52.12462 Y97.70847
G01 X-52.05530 Y97.57881
G01 X-52.01174 Y97.51363
G01 X-51.91847 Y97.39997
G01 X-51.89884 Y97.37830
G01 X-51.89841 Y97.37784
G01 X-52.22846 Y97.70789
G01 X-52.22846 Y98.17467
G04 P0 ( dwell for no time -- G64 should not smooth over this point )
G00 Z2.00000 ( retract )

G00 X-54.19741 Y96.42481 ( rapid move to begin. )
G01 F200.00000
( Mill infeed pass 1/1 )
G01 Z-0.20000
G04 P0 ( dwell for no time -- G64 should not smooth over this point )
G01 F400.00000
G01 X-54.19741 Y96.42481
G01 X-54.34080 Y96.56819
G01 X-54.36988 Y96.59456
G01 X-54.48352 Y96.68783
G01 X-54.54872 Y96.73139
G01 X-54.67839 Y96.80070
G01 X-54.75083 Y96.83070
G01 X-54.89154 Y96.87340
G01 X-54.96843 Y96.88869
G01 X-55.11476 Y96.90309
G01 X-55.13122 Y96.90390
G01 X-55.14021 Y96.91043
G01 X-55.32126 Y97.01498
G01 X-55.39764 Y97.04899
G01 X-55.59647 Y97.11358
G01 X-55.67826 Y97.13098
G01 X-55.88618 Y97.15282
G01 X-55.92799 Y97.15501
G01 X-56.92799 Y97.15501
G01 X-56.96980 Y97.15282
G01 X-57.17772 Y97.13098
G01 X-57.25951 Y97.11358
G01 X-57.45834 Y97.04899
G01 X-57.53472 Y97.01498
G01 X-57.71577 Y96.91043
G01 X-57.78344 Y96.86128
G01 X-57.93878 Y96.72140
G01 X-57.99474 Y96.65925
G01 X-58.11762 Y96.49014
G01 X-58.15943 Y96.41770
G01 X-58.24447 Y96.22671
G01 X-58.27030 Y96.14719
G01 X-58.31376 Y95.94272
G01 X-58.32250 Y95.85953
G01 X-58.32250 Y95.65049
G01 X-58.31376 Y95.56733
G01 X-58.27030 Y95.36283
G01 X-58.24447 Y95.28331
G01 X-58.15943 Y95.09232
G01 X-58.11762 Y95.01991
G01 X-57.99474 Y94.85077
G01 X-57.93878 Y94.78862
G01 X-57.78344 Y94.64874
G01 X-57.71577 Y94.59959
G01 X-57.53472 Y94.49507
G01 X-57.45834 Y94.46103
G01 X-57.25951 Y94.39644
G01 X-57.17772 Y94.37907
G01 X-56.96980 Y94.35720
G01 X-56.92799 Y94.35501
G01 X-55.92799 Y94.35501
G01 X-55.88618 Y94.35720
G01 X-55.67826 Y94.37907
G01 X-55.59647 Y94.39644
G01 X-55.46459 Y94.43929
G01 X-49.61012 Y88.58484
G01 X-49.58104 Y88.55848
G01 X-49.46740 Y88.46521
G01 X-49.40220 Y88.42165
G01 X-49.27253 Y88.35233
G01 X-49.20009 Y88.32234
G01 X-49.05937 Y88.27964
G01 X-48.98249 Y88.26435
G01 X-48.83616 Y88.24995
G01 X-48.79697 Y88.24802
G01 X-42.89876 Y88.24802
G01 X-42.85893 Y88.23506
G01 X-42.77712 Y88.21769
G01 X-42.61080 Y88.20021
G01 X-42.56899 Y88.19800
G01 X-41.76896 Y88.19800
G01 X-41.72716 Y88.20021
G01 X-41.56084 Y88.21769
G01 X-41.47905 Y88.23506
G01 X-41.31997 Y88.28675
G01 X-41.24359 Y88.32076
G01 X-41.23102 Y88.32803
G01 X-41.09876 Y88.40438
G01 X-41.03112 Y88.45355
G01 X-40.90679 Y88.56544
G01 X-40.85086 Y88.62759
G01 X-40.75256 Y88.76290
G01 X-40.71075 Y88.83531
G01 X-40.64273 Y88.98809
G01 X-40.61687 Y89.06762
G01 X-40.58207 Y89.23122
G01 X-40.57334 Y89.31438
G01 X-40.57334 Y89.48164
G01 X-40.58207 Y89.56480
G01 X-40.61687 Y89.72840
G01 X-40.64273 Y89.80793
G01 X-40.71075 Y89.96071
G01 X-40.75256 Y90.03313
G01 X-40.85086 Y90.16843
G01 X-40.90679 Y90.23059
G01 X-41.03112 Y90.34247
G01 X-41.09876 Y90.39165
G01 X-41.23104 Y90.46803
G01 X-41.24359 Y90.47526
G01 X-41.31997 Y90.50928
G01 X-41.47905 Y90.56096
G01 X-41.56084 Y90.57834
G01 X-41.72716 Y90.59581
G01 X-41.76896 Y90.59802
G01 X-42.56899 Y90.59802
G01 X-42.61080 Y90.59581
G01 X-42.77712 Y90.57834
G01 X-42.85893 Y90.56096
G01 X-42.89876 Y90.54801
G01 X-48.32061 Y90.54801
G01 X-48.89110 Y91.11852
G04 P0 ( dwell for no time -- G64 should not smooth over this point )
G00 Z2.00000 ( retract )

G00 X-47.09913 Y85.13756 ( rapid move to begin. )
G01 F200.00000
( Mill infeed pass 1/1 )
G01 Z-0.20000
G04 P0 ( dwell for no time -- G64 should not smooth over this point )
G01 F400.00000
G01 X-47.09913 Y85.13756
G01 X-47.07708 Y85.15755
G01 X-46.96344 Y85.25082
G01 X-46.89824 Y85.29438
G01 X-46.76857 Y85.36369
G01 X-46.69613 Y85.39369
G01 X-46.55542 Y85.43639
G01 X-46.47853 Y85.45168
G01 X-46.33220 Y85.46608
G01 X-46.29301 Y85.46801
G01 X-42.89876 Y85.46801
G01 X-42.85893 Y85.48096
G01 X-42.77712 Y85.49834
G01 X-42.61080 Y85.51581
G01 X-42.56899 Y85.51802
G01 X-41.76896 Y85.51802
G01 X-41.72716 Y85.51581
G01 X-41.56084 Y85.49834
G01 X-41.47905 Y85.48096
G01 X-41.31997 Y85.42928
G01 X-41.24359 Y85.39526
G01 X-41.09876 Y85.31165
G01 X-41.03112 Y85.26247
G01 X-40.90679 Y85.15059
G01 X-40.85086 Y85.08843
G01 X-40.75256 Y84.95313
G01 X-40.71075 Y84.88071
G01 X-40.64273 Y84.72793
G01 X-40.61687 Y84.64840
G01 X-40.58207 Y84.48480
G01 X-40.57334 Y84.40164
G01 X-40.57334 Y84.23438
G01 X-40.58207 Y84.15122
G01 X-40.61687 Y83.98762
G01 X-40.64273 Y83.90809
G01 X-40.71075 Y83.75531
G01 X-40.75256 Y83.68290
G01 X-40.85086 Y83.54759
G01 X-40.90679 Y83.48544
G01 X-41.03112 Y83.37355
G01 X-41.09876 Y83.32438
G01 X-41.23102 Y83.24803
G01 X-41.24359 Y83.24076
G01 X-41.31997 Y83.20675
G01 X-41.47905 Y83.15506
G01 X-41.56084 Y83.13769
G01 X-41.72716 Y83.12021
G01 X-41.76896 Y83.11800
G01 X-42.56899 Y83.11800
G01 X-42.61080 Y83.12021
G01 X-42.77712 Y83.13769
G01 X-42.85893 Y83.15506
G01 X-42.89876 Y83.16802
G01 X-45.81666 Y83.16802
G01 X-46.38722 Y82.59745
G01 X-46.38724 Y82.59745
G01 X-46.39397 Y82.59103
G01 X-50.36298 Y78.62205
G01 X-50.37004 Y78.61463
G01 X-50.69950 Y78.28520
G01 X-50.69950 Y77.81847
G01 X-50.69973 Y77.80905
G01 X-50.69973 Y73.40949
G01 X-50.69999 Y73.39912
G01 X-50.70143 Y73.37030
G01 X-50.71583 Y73.22399
G01 X-50.73113 Y73.14708
G01 X-50.77382 Y73.00636
G01 X-50.80382 Y72.93392
G01 X-50.87314 Y72.80426
G01 X-50.91670 Y72.73905
G01 X-51.00997 Y72.62541
G01 X-51.03633 Y72.59633
G01 X-54.55479 Y69.07787
G01 X-54.54222 Y69.01872
G01 X-54.53345 Y68.93553
G01 X-54.53345 Y68.72651
G01 X-54.54222 Y68.64333
G01 X-54.58568 Y68.43883
G01 X-54.61151 Y68.35931
G01 X-54.69655 Y68.16832
G01 X-54.73836 Y68.09591
G01 X-54.86124 Y67.92677
G01 X-54.91720 Y67.86462
G01 X-55.07254 Y67.72474
G01 X-55.14021 Y67.67559
G01 X-55.32126 Y67.57107
G01 X-55.39764 Y67.53703
G01 X-55.59647 Y67.47244
G01 X-55.67826 Y67.45507
G01 X-55.88618 Y67.43320
G01 X-55.92799 Y67.43101
G01 X-56.92799 Y67.43101
G01 X-56.96980 Y67.43320
G01 X-57.17772 Y67.45507
G01 X-57.25951 Y67.47244
G01 X-57.45834 Y67.53703
G01 X-57.53472 Y67.57107
G01 X-57.71577 Y67.67559
G01 X-57.78344 Y67.72474
G01 X-57.93878 Y67.86462
G01 X-57.99474 Y67.92677
G01 X-58.11762 Y68.09591
G01 X-58.15943 Y68.16832
G01 X-58.24447 Y68.35931
G01 X-58.27030 Y68.43883
G01 X-58.31376 Y68.64333
G01 X-58.32250 Y68.72651
G01 X-58.32250 Y68.93553
G01 X-58.31376 Y69.01872
G01 X-58.27030 Y69.22319
G01 X-58.24447 Y69.30271
G01 X-58.15943 Y69.49370
G01 X-58.11762 Y69.56614
G01 X-57.99474 Y69.73525
G01 X-57.93878 Y69.79740
G01 X-57.78344 Y69.93731
G01 X-57.71577 Y69.98643
G01 X-57.53472 Y70.09098
G01 X-57.45834 Y70.12501
G01 X-57.25951 Y70.18958
G01 X-57.17772 Y70.20700
G01 X-56.96980 Y70.22882
G01 X-56.92799 Y70.23101
G01 X-56.65433 Y70.23101
G01 X-52.99950 Y73.88584
G01 X-52.99950 Y78.76152
G01 X-52.99757 Y78.80074
G01 X-52.98317 Y78.94707
G01 X-52.96787 Y79.02395
G01 X-52.92518 Y79.16467
G01 X-52.89518 Y79.23711
G01 X-52.82586 Y79.36678
G01 X-52.78230 Y79.43198
G01 X-52.68903 Y79.54562
G01 X-52.66267 Y79.57470
G01 X-50.76422 Y81.47315
G01 X-50.75698 Y81.48003
G01 X-47.10599 Y85.13103
G01 X-47.09913 Y85.13756
G01 X-46.52867 Y85.70802
G01 X-42.89876 Y85.70802
G01 X-42.85893 Y85.69506
G01 X-42.77712 Y85.67769
G01 X-42.61080 Y85.66021
G01 X-42.56899 Y85.65800
G01 X-41.76896 Y85.65800
G01 X-41.72716 Y85.66021
G01 X-41.56084 Y85.67769
G01 X-41.47905 Y85.69506
G01 X-41.31997 Y85.74675
G01 X-41.24359 Y85.78076
G01 X-41.23102 Y85.78803
G01 X-41.09876 Y85.86438
G01 X-41.03112 Y85.91355
G01 X-40.90679 Y86.02544
G01 X-40.85086 Y86.08759
G01 X-40.75256 Y86.22290
G01 X-40.71075 Y86.29531
G01 X-40.64273 Y86.44809
G01 X-40.61687 Y86.52762
G01 X-40.58207 Y86.69122
G01 X-40.57334 Y86.77438
G01 X-40.57334 Y86.94164
G01 X-40.58207 Y87.02480
G01 X-40.61687 Y87.18840
G01 X-40.64273 Y87.26793
G01 X-40.71075 Y87.42071
G01 X-40.75256 Y87.49313
G01 X-40.85086 Y87.62843
G01 X-40.90679 Y87.69059
G01 X-41.03112 Y87.80247
G01 X-41.09876 Y87.85165
G01 X-41.23104 Y87.92803
G01 X-41.24359 Y87.93526
G01 X-41.31997 Y87.96928
G01 X-41.47905 Y88.02096
G01 X-41.56084 Y88.03834
G01 X-41.72716 Y88.05581
G01 X-41.76896 Y88.05802
G01 X-42.56899 Y88.05802
G01 X-42.61080 Y88.05581
G01 X-42.77712 Y88.03834
G01 X-42.85893 Y88.02096
G01 X-42.89876 Y88.00801
G01 X-47.00502 Y88.00801
G01 X-47.04421 Y88.00608
G01 X-47.19054 Y87.99168
G01 X-47.26743 Y87.97639
G01 X-47.40815 Y87.93369
G01 X-47.48059 Y87.90369
G01 X-47.61025 Y87.83438
G01 X-47.67545 Y87.79082
G01 X-47.78909 Y87.69755
G01 X-47.81818 Y87.67118
G01 X-52.04634 Y83.44302
G01 X-55.13274 Y83.44302
G01 X-55.14021 Y83.44843
G01 X-55.32126 Y83.55298
G01 X-55.39764 Y83.58699
G01 X-55.59647 Y83.65158
G01 X-55.67826 Y83.66898
G01 X-55.88618 Y83.69082
G01 X-55.92799 Y83.69301
G01 X-56.92799 Y83.69301
G01 X-56.96980 Y83.69082
G01 X-57.17772 Y83.66898
G01 X-57.25951 Y83.65158
G01 X-57.45834 Y83.58699
G01 X-57.53472 Y83.55298
G01 X-57.71577 Y83.44843
G01 X-57.78344 Y83.39928
G01 X-57.93878 Y83.25940
G01 X-57.99474 Y83.19725
G01 X-58.11762 Y83.02814
G01 X-58.15943 Y82.95570
G01 X-58.24447 Y82.76471
G01 X-58.27030 Y82.68519
G01 X-58.31376 Y82.48072
G01 X-58.32250 Y82.39753
G01 X-58.32250 Y82.18849
G01 X-58.31376 Y82.10533
G01 X-58.27030 Y81.90083
G01 X-58.24447 Y81.82131
G01 X-58.15943 Y81.63032
G01 X-58.11762 Y81.55791
G01 X-57.99474 Y81.38877
G01 X-57.93878 Y81.32662
G01 X-57.78344 Y81.18674
G01 X-57.71577 Y81.13759
G01 X-57.53472 Y81.03307
G01 X-57.45834 Y80.99903
G01 X-57.25951 Y80.93444
G01 X-57.17772 Y80.91707
G01 X-56.96980 Y80.89520
G01 X-56.92799 Y80.89301
G01 X-55.92799 Y80.89301
G01 X-55.88618 Y80.89520
G01 X-55.67826 Y80.91707
G01 X-55.59647 Y80.93444
G01 X-55.39764 Y80.99903
G01 X-55.32126 Y81.03307
G01 X-55.14021 Y81.13759
G01 X-55.13272 Y81.14303
G01 X-51.57001 Y81.14303
G01 X-51.53079 Y81.14496
G01 X-51.38446 Y81.15936
G01 X-51.30758 Y81.17465
G01 X-51.16686 Y81.21735
G01 X-51.09442 Y81.24734
G01 X-50.96475 Y81.31666
G01 X-50.89955 Y81.36022
G01 X-50.78591 Y81.45349
G01 X-50.76422 Y81.47315
G04 P0 ( dwell for no time -- G64 should not smooth over this point )
G00 Z2.00000 ( retract )

G00 X-46.39397 Y82.59103 ( rapid move to begin. )
G01 F200.00000
( Mill infeed pass 1/1 )
G01 Z-0.20000
G04 P0 ( dwell for no time -- G64 should not smooth over this point )
G01 F400.00000
G01 X-46.39397 Y82.59103
G01 X-46.38722 Y82.59745
G01 X-46.36507 Y82.61755
G01 X-46.25140 Y82.71082
G01 X-46.18623 Y82.75438
G01 X-46.05656 Y82.82369
G01 X-45.98412 Y82.85369
G01 X-45.84340 Y82.89639
G01 X-45.76652 Y82.91168
G01 X-45.62019 Y82.92608
G01 X-45.58100 Y82.92801
G01 X-42.89876 Y82.92801
G01 X-42.85893 Y82.94096
G01 X-42.77712 Y82.95834
G01 X-42.61080 Y82.97581
G01 X-42.56899 Y82.97802
G01 X-41.76896 Y82.97802
G01 X-41.72716 Y82.97581
G01 X-41.56084 Y82.95834
G01 X-41.47905 Y82.94096
G01 X-41.31997 Y82.88928
G01 X-41.24359 Y82.85526
G01 X-41.09876 Y82.77165
G01 X-41.03112 Y82.72247
G01 X-40.90679 Y82.61059
G01 X-40.85086 Y82.54843
G01 X-40.75256 Y82.41313
G01 X-40.71075 Y82.34071
G01 X-40.64273 Y82.18793
G01 X-40.61687 Y82.10840
G01 X-40.58207 Y81.94480
G01 X-40.57334 Y81.86164
G01 X-40.57334 Y81.69438
G01 X-40.58207 Y81.61122
G01 X-40.61687 Y81.44762
G01 X-40.64273 Y81.36809
G01 X-40.71075 Y81.21531
G01 X-40.75256 Y81.14290
G01 X-40.85086 Y81.00759
G01 X-40.90679 Y80.94544
G01 X-41.03112 Y80.83355
G01 X-41.09876 Y80.78438
G01 X-41.23102 Y80.70803
G01 X-41.24359 Y80.70076
G01 X-41.31997 Y80.66675
G01 X-41.47905 Y80.61506
G01 X-41.56084 Y80.59769
G01 X-41.72716 Y80.58021
G01 X-41.76896 Y80.57800
G01 X-42.56899 Y80.57800
G01 X-42.61080 Y80.58021
G01 X-42.77712 Y80.59769
G01 X-42.85893 Y80.61506
G01 X-42.89876 Y80.62802
G01 X-45.10464 Y80.62802
G01 X-45.67515 Y80.05751
G01 X-45.67520 Y80.05748
G01 X-45.68196 Y80.05103
G01 X-48.03100 Y77.70201
G01 X-48.03751 Y77.69520
G01 X-48.03799 Y77.69467
G01 X-48.03799 Y77.69465
G01 X-48.05755 Y77.67308
G01 X-48.15082 Y77.55944
G01 X-48.19438 Y77.49424
G01 X-48.26369 Y77.36457
G01 X-48.29369 Y77.29213
G01 X-48.33639 Y77.15144
G01 X-48.35168 Y77.07453
G01 X-48.36608 Y76.92820
G01 X-48.36801 Y76.88898
G01 X-48.36801 Y61.01431
G01 X-48.73049 Y60.65183
G01 X-48.73697 Y60.64502
G01 X-53.28398 Y56.09804
G01 X-53.29091 Y56.09075
G01 X-53.31052 Y56.06911
G01 X-53.40379 Y55.95547
G01 X-53.44735 Y55.89027
G01 X-53.51667 Y55.76060
G01 X-53.54666 Y55.68816
G01 X-53.58936 Y55.54745
G01 X-53.60465 Y55.47056
G01 X-53.61905 Y55.32423
G01 X-53.62099 Y55.28501
G01 X-53.62099 Y46.31335
G01 X-56.75433 Y43.18001
G01 X-56.92799 Y43.18001
G01 X-56.96980 Y43.17782
G01 X-57.17772 Y43.15598
G01 X-57.25951 Y43.13858
G01 X-57.45834 Y43.07399
G01 X-57.53472 Y43.03998
G01 X-57.71577 Y42.93543
G01 X-57.78344 Y42.88628
G01 X-57.93878 Y42.74640
G01 X-57.99474 Y42.68425
G01 X-58.11762 Y42.51514
G01 X-58.15943 Y42.44270
G01 X-58.24447 Y42.25171
G01 X-58.27030 Y42.17219
G01 X-58.31376 Y41.96772
G01 X-58.32250 Y41.88453
G01 X-58.32250 Y41.67549
G01 X-58.31376 Y41.59233
G01 X-58.27030 Y41.38783
G01 X-58.24447 Y41.30831
G01 X-58.15943 Y41.11732
G01 X-58.11762 Y41.04491
G01 X-57.99474 Y40.87577
G01 X-57.93878 Y40.81362
G01 X-57.78344 Y40.67374
G01 X-57.71577 Y40.62459
G01 X-57.53472 Y40.52007
G01 X-57.45834 Y40.48603
G01 X-57.25951 Y40.42144
G01 X-57.17772 Y40.40407
G01 X-56.96980 Y40.38220
G01 X-56.92799 Y40.38001
G01 X-55.92799 Y40.38001
G01 X-55.88618 Y40.38220
G01 X-55.67826 Y40.40407
G01 X-55.59647 Y40.42144
G01 X-55.39764 Y40.48603
G01 X-55.32126 Y40.52007
G01 X-55.14021 Y40.62459
G01 X-55.07254 Y40.67374
G01 X-54.91720 Y40.81362
G01 X-54.86124 Y40.87577
G01 X-54.73836 Y41.04491
G01 X-54.69655 Y41.11732
G01 X-54.61151 Y41.30831
G01 X-54.58568 Y41.38783
G01 X-54.54222 Y41.59233
G01 X-54.53345 Y41.67549
G01 X-54.53345 Y41.88453
G01 X-54.54222 Y41.96772
G01 X-54.57232 Y42.10935
G01 X-53.98911 Y42.69253
G01 X-53.29104 Y43.39060
G01 X-53.29101 Y43.39060
G01 X-53.28398 Y43.39804
G04 P0 ( dwell for no time -- G64 should not smooth over this point )
G00 Z2.00000 ( retract )

G00 X-51.65106 Y45.03126 ( rapid move to begin. )
G01 F200.00000
( Mill infeed pass 1/1 )
G01 Z-0.20000
G04 P0 ( dwell for no time -- G64 should not smooth over this point )
G01 F400.00000
G01 X-51.65106 Y45.03126
G01 X-51.63145 Y45.05293
G01 X-51.53818 Y45.16657
G01 X-51.49462 Y45.23177
G01 X-51.42531 Y45.36144
G01 X-51.39531 Y45.43388
G01 X-51.35261 Y45.57459
G01 X-51.33732 Y45.65148
G01 X-51.32292 Y45.79781
G01 X-51.32099 Y45.83700
G01 X-51.32099 Y54.80869
G01 X-50.92762 Y55.20203
G01 X-50.92097 Y55.20904
G04 P0 ( dwell for no time -- G64 should not smooth over this point )
G00 Z2.00000 ( retract )

G00 X-53.29091 Y56.09075 ( rapid move to begin. )
G01 F200.00000
( Mill infeed pass 1/1 )
G01 Z-0.20000
G04 P0 ( dwell for no time -- G64 should not smooth over this point )
G01 F400.00000
G01 X-53.29091 Y56.09075
G01 X-54.65979 Y54.72187
G01 X-54.69655 Y54.63932
G01 X-54.73836 Y54.56690
G01 X-54.86124 Y54.39777
G01 X-54.91720 Y54.33564
G01 X-55.07254 Y54.19573
G01 X-55.14021 Y54.14658
G01 X-55.32126 Y54.04206
G01 X-55.39764 Y54.00805
G01 X-55.59647 Y53.94344
G01 X-55.67826 Y53.92606
G01 X-55.88618 Y53.90419
G01 X-55.92799 Y53.90201
G01 X-56.92799 Y53.90201
G01 X-56.96980 Y53.90419
G01 X-57.17772 Y53.92606
G01 X-57.25951 Y53.94344
G01 X-57.45834 Y54.00805
G01 X-57.53472 Y54.04206
G01 X-57.71577 Y54.14658
G01 X-57.78344 Y54.19573
G01 X-57.93878 Y54.33564
G01 X-57.99474 Y54.39777
G01 X-58.11762 Y54.56690
G01 X-58.15943 Y54.63932
G01 X-58.24447 Y54.83030
G01 X-58.27030 Y54.90983
G01 X-58.31376 Y55.11432
G01 X-58.32250 Y55.19748
G01 X-58.32250 Y55.40655
G01 X-58.31376 Y55.48971
G01 X-58.27030 Y55.69421
G01 X-58.24447 Y55.77373
G01 X-58.15943 Y55.96472
G01 X-58.11762 Y56.03713
G01 X-57.99474 Y56.20625
G01 X-57.93878 Y56.26840
G01 X-57.78344 Y56.40828
G01 X-57.71577 Y56.45745
G01 X-57.53472 Y56.56197
G01 X-57.45834 Y56.59598
G01 X-57.25951 Y56.66058
G01 X-57.17772 Y56.67797
G01 X-56.96980 Y56.69982
G01 X-56.92799 Y56.70200
G01 X-55.93233 Y56.70200
G01 X-50.69999 Y61.93435
G01 X-50.69999 Y73.39912
G04 P0 ( dwell for no time -- G64 should not smooth over this point )
G00 Z2.00000 ( retract )

G00 X-50.69973 Y77.80905 ( rapid move to begin. )
G01 F200.00000
( Mill infeed pass 1/1 )
G01 Z-0.20000
G04 P0 ( dwell for no time -- G64 should not smooth over this point )
G01 F400.00000
G01 X-50.69973 Y77.80905
G01 X-50.69948 Y77.81944
G01 X-50.69805 Y77.84824
G01 X-50.68365 Y77.99457
G01 X-50.66836 Y78.07145
G01 X-50.62566 Y78.21217
G01 X-50.59567 Y78.28461
G01 X-50.52635 Y78.41428
G01 X-50.48279 Y78.47948
G01 X-50.38952 Y78.59312
G01 X-50.36951 Y78.61519
G04 P0 ( dwell for no time -- G64 should not smooth over this point )
G00 Z2.00000 ( retract )

G00 X-48.03100 Y77.70201 ( rapid move to begin. )
G01 F200.00000
( Mill infeed pass 1/1 )
G01 Z-0.20000
G04 P0 ( dwell for no time -- G64 should not smooth over this point )
G01 F400.00000
G01 X-48.03100 Y77.70201
G01 X-48.03799 Y77.69467
G04 P0 ( dwell for no time -- G64 should not smooth over this point )
G00 Z2.00000 ( retract )

G00 X-48.03799 Y77.69465 ( rapid move to begin. )
G01 F200.00000
( Mill infeed pass 1/1 )
G01 Z-0.20000
G04 P0 ( dwell for no time -- G64 should not smooth over this point )
G01 F400.00000
G01 X-48.03799 Y77.69465
G01 X-48.39999 Y77.33270
G01 X-48.39999 Y61.45800
G01 X-48.40192 Y61.41881
G01 X-48.41632 Y61.27248
G01 X-48.43161 Y61.19559
G01 X-48.47431 Y61.05488
G01 X-48.50431 Y60.98244
G01 X-48.57362 Y60.85277
G01 X-48.61719 Y60.78757
G01 X-48.71045 Y60.67393
G01 X-48.73006 Y60.65226
G01 X-48.73697 Y60.64502
G04 P0 ( dwell for no time -- G64 should not smooth over this point )
G00 Z2.00000 ( retract )

G00 X-46.39809 Y59.73225 ( rapid move to begin. )
G01 F200.00000
( Mill infeed pass 1/1 )
G01 Z-0.20000
G04 P0 ( dwell for no time -- G64 should not smooth over this point )
G01 F400.00000
G01 X-46.39809 Y59.73225
G01 X-46.37848 Y59.75389
G01 X-46.28521 Y59.86753
G01 X-46.24165 Y59.93273
G01 X-46.17233 Y60.06240
G01 X-46.14234 Y60.13484
G01 X-46.09964 Y60.27555
G01 X-46.08435 Y60.35244
G01 X-46.06995 Y60.49877
G01 X-46.06847 Y60.52864
G01 X-46.06824 Y60.53796
G04 P0 ( dwell for no time -- G64 should not smooth over this point )
G00 Z2.00000 ( retract )

G00 X-41.05812 Y66.31613 ( rapid move to begin. )
G01 F200.00000
( Mill infeed pass 1/1 )
G01 Z-0.20000
G04 P0 ( dwell for no time -- G64 should not smooth over this point )
G01 F400.00000
G01 X-41.05812 Y66.31613
G01 X-41.23351 Y66.16635
G01 X-41.23353 Y66.16630
G01 X-41.25888 Y66.14788
G01 X-41.33132 Y66.10607
G01 X-41.57003 Y65.99977
G01 X-41.64958 Y65.97394
G01 X-41.90518 Y65.91961
G01 X-41.98834 Y65.91085
G01 X-42.24966 Y65.91085
G01 X-42.33284 Y65.91961
G01 X-42.58844 Y65.97394
G01 X-42.66797 Y65.99977
G01 X-42.90671 Y66.10607
G01 X-42.97912 Y66.14788
G01 X-43.19053 Y66.30148
G01 X-43.25268 Y66.35743
G01 X-43.39251 Y66.51273
G01 X-43.42753 Y66.55164
G01 X-43.47668 Y66.61928
G01 X-43.60734 Y66.84559
G01 X-43.64135 Y66.92200
G01 X-43.72212 Y67.17051
G01 X-43.73950 Y67.25232
G01 X-43.76683 Y67.51219
G01 X-43.76683 Y67.59583
G01 X-43.73950 Y67.85570
G01 X-43.72212 Y67.93751
G01 X-43.64135 Y68.18603
G01 X-43.60734 Y68.26243
G01 X-43.51900 Y68.41547
G01 X-43.51900 Y73.43148
G01 X-43.58542 Y73.52292
G01 X-43.62723 Y73.59531
G01 X-43.69525 Y73.74809
G01 X-43.72108 Y73.82762
G01 X-43.75585 Y73.99122
G01 X-43.76462 Y74.07438
G01 X-43.76462 Y74.24164
G01 X-43.75585 Y74.32480
G01 X-43.72108 Y74.48840
G01 X-43.69525 Y74.56793
G01 X-43.62723 Y74.72071
G01 X-43.58542 Y74.79313
G01 X-43.48712 Y74.92843
G01 X-43.43117 Y74.99059
G01 X-43.30686 Y75.10247
G01 X-43.23922 Y75.15165
G01 X-43.09439 Y75.23526
G01 X-43.01798 Y75.26928
G01 X-42.85893 Y75.32096
G01 X-42.77691 Y75.33836
G01 X-42.69022 Y75.38469
G01 X-42.61778 Y75.41472
G01 X-42.43020 Y75.47161
G01 X-42.35329 Y75.48690
G01 X-42.24049 Y75.49800
G01 X-42.24036 Y75.49803
G01 X-42.15784 Y75.50209
G01 X-42.08016 Y75.50209
G01 X-41.99746 Y75.49800
G01 X-41.88469 Y75.48690
G01 X-41.80778 Y75.47161
G01 X-41.62017 Y75.41472
G01 X-41.54776 Y75.38469
G01 X-41.37483 Y75.29229
G01 X-41.35974 Y75.28218
G01 X-41.31997 Y75.26928
G01 X-41.24359 Y75.23526
G01 X-41.23104 Y75.22803
G01 X-41.09876 Y75.15165
G01 X-41.03112 Y75.10247
G01 X-40.90679 Y74.99059
G01 X-40.85086 Y74.92843
G01 X-40.75256 Y74.79313
G01 X-40.71075 Y74.72071
G01 X-40.64273 Y74.56793
G01 X-40.61687 Y74.48840
G01 X-40.58207 Y74.32480
G01 X-40.57334 Y74.24164
G01 X-40.57334 Y74.07438
G01 X-40.58207 Y73.99122
G01 X-40.61687 Y73.82762
G01 X-40.64273 Y73.74809
G01 X-40.71075 Y73.59531
G01 X-40.71898 Y73.58104
G01 X-40.71898 Y68.41542
G01 X-40.63064 Y68.26243
G01 X-40.59665 Y68.18603
G01 X-40.51588 Y67.93751
G01 X-40.49851 Y67.85570
G01 X-40.47118 Y67.59583
G01 X-40.47118 Y67.51219
G01 X-40.49851 Y67.25232
G01 X-40.51588 Y67.17051
G01 X-40.59665 Y66.92200
G01 X-40.63064 Y66.84559
G01 X-40.73496 Y66.66492
G04 P0 ( dwell for no time -- G64 should not smooth over this point )
G00 Z2.00000 ( retract )

G00 X-46.06802 Y75.14062 ( rapid move to begin. )
G01 F200.00000
( Mill infeed pass 1/1 )
G01 Z-0.20000
G04 P0 ( dwell for no time -- G64 should not smooth over this point )
G01 F400.00000
G01 X-46.06802 Y75.14062
G01 X-46.06802 Y76.41266
G01 X-44.39263 Y78.08802
G01 X-42.89876 Y78.08802
G01 X-42.85893 Y78.07506
G01 X-42.77712 Y78.05769
G01 X-42.61080 Y78.04021
G01 X-42.56899 Y78.03800
G01 X-41.76896 Y78.03800
G01 X-41.72716 Y78.04021
G01 X-41.56084 Y78.05769
G01 X-41.47905 Y78.07506
G01 X-41.31997 Y78.12675
G01 X-41.24359 Y78.16076
G01 X-41.23102 Y78.16803
G01 X-41.09876 Y78.24438
G01 X-41.03112 Y78.29355
G01 X-40.90679 Y78.40544
G01 X-40.85086 Y78.46759
G01 X-40.75256 Y78.60290
G01 X-40.71075 Y78.67531
G01 X-40.64273 Y78.82809
G01 X-40.61687 Y78.90762
G01 X-40.58207 Y79.07122
G01 X-40.57334 Y79.15438
G01 X-40.57334 Y79.32164
G01 X-40.58207 Y79.40480
G01 X-40.61687 Y79.56840
G01 X-40.64273 Y79.64793
G01 X-40.71075 Y79.80071
G01 X-40.75256 Y79.87313
G01 X-40.85086 Y80.00843
G01 X-40.90679 Y80.07059
G01 X-41.03112 Y80.18247
G01 X-41.09876 Y80.23165
G01 X-41.23104 Y80.30803
G01 X-41.24359 Y80.31526
G01 X-41.31997 Y80.34928
G01 X-41.47905 Y80.40096
G01 X-41.56084 Y80.41834
G01 X-41.72716 Y80.43581
G01 X-41.76896 Y80.43802
G01 X-42.56899 Y80.43802
G01 X-42.61080 Y80.43581
G01 X-42.77712 Y80.41834
G01 X-42.85893 Y80.40096
G01 X-42.89876 Y80.38801
G01 X-44.86898 Y80.38801
G01 X-44.90818 Y80.38608
G01 X-45.05450 Y80.37168
G01 X-45.13139 Y80.35639
G01 X-45.27211 Y80.31369
G01 X-45.34455 Y80.28369
G01 X-45.47421 Y80.21438
G01 X-45.53939 Y80.17082
G01 X-45.65306 Y80.07755
G01 X-45.67515 Y80.05751
G01 X-45.68196 Y80.05103
