( pcb2gcode 2.4.0 )
( Software-independent Gcode )

( This file uses 2 drill bit sizes. )
( Bit sizes: [0.8mm] [1mm] )

G94       (Millimeters per minute feed rate.)
G21       (Units == Millimeters.)
G90       (Absolute coordinates.)
G00 S20000     (RPM spindle speed.)

G00 Z30.00000 (Retract)
T1
M5      (Spindle stop.)
G04 P1.00000
(MSG, Change tool bit to drill size 0.8mm)
M6      (Tool change.)
M0      (Temporary machine stop.)
M3      (Spindle on clockwise.)
G0 Z2.00000
G04 P1.00000

G81 R2.00000 Z-1.75000 F200.00000 X-52.51800 Y27.93000
X-42.51800 Y27.93000
X-33.15000 Y18.05000
X-25.65000 Y18.05000
X-18.05000 Y18.05000
X-10.65000 Y18.05000
X-3.05000 Y18.05000
X-3.05000 Y28.05000
X-10.65000 Y28.05000
X-18.05000 Y28.05000
X-25.65000 Y28.05000
X-33.15000 Y28.05000
X-32.48500 Y38.97900
X-42.48500 Y38.97900
X-44.89800 Y49.77400
X-52.75000 Y63.85000
X-52.72500 Y67.55400
X-42.16900 Y74.15800
X-42.16900 Y76.69800
X-42.16900 Y79.23800
X-42.16900 Y81.77800
X-42.16900 Y84.31800
X-42.16900 Y86.85800
X-42.16900 Y89.39800
X-42.16900 Y91.93800
X-42.16900 Y94.47800
X-34.54900 Y94.47800
X-34.54900 Y91.93800
X-34.54900 Y89.39800
X-34.54900 Y86.85800
X-34.54900 Y84.31800
X-34.54900 Y81.77800
X-34.54900 Y79.23800
X-34.54900 Y76.69800
X-34.54900 Y74.15800
X-34.55000 Y70.05000
X-42.11900 Y67.55400
X-37.75000 Y63.85000
X-35.85000 Y60.95000
X-35.85000 Y55.95000
X-34.89800 Y49.77400
X-32.21000 Y49.77400
X-22.21000 Y49.77400
X-23.58600 Y54.05000
X-23.58600 Y64.05000
X-29.55000 Y70.05000
X-26.18200 Y70.09400
X-29.77600 Y74.24300
X-26.18200 Y74.15800
X-26.18200 Y76.69800
X-26.18200 Y79.23800
X-18.56200 Y74.15800
X-18.56200 Y76.69800
X-18.56200 Y79.23800
X-18.56200 Y81.77800
X-18.56200 Y84.31800
X-18.56200 Y86.85800
X-18.56200 Y89.39800
X-18.56200 Y91.93800
X-18.56200 Y94.47800
X-18.56200 Y97.01800
X-26.18200 Y89.39800
X-26.18200 Y86.85800
X-26.18200 Y84.31800
X-26.18200 Y81.77800
X-29.77600 Y89.24300
X-26.18200 Y91.93800
X-26.18200 Y94.47800
X-26.18200 Y97.01800
X-26.18200 Y99.55800
X-26.18200 Y102.09800
X-29.73800 Y104.63800
X-26.18200 Y104.63800
X-26.18200 Y107.17800
X-20.97000 Y111.02000
X-18.56200 Y107.17800
X-18.56200 Y104.63800
X-18.56200 Y102.09800
X-18.56200 Y99.55800
X-13.99000 Y94.43800
X-13.99000 Y89.43800
X-10.29300 Y92.19200
X-3.20900 Y92.19200
X-14.10300 Y99.55800
X-14.17400 Y104.49800
X-11.70400 Y107.17800
X-11.70400 Y110.98300
X-7.46200 Y122.07200
X-5.02200 Y134.01000
X-5.02200 Y138.09400
X-15.02200 Y134.01000
X-15.02200 Y138.09400
X-19.14600 Y138.09400
X-19.14600 Y134.01000
X-12.46200 Y122.07200
X-21.51900 Y122.07200
X-26.51900 Y122.07200
X-30.84900 Y118.04900
X-29.73800 Y114.63800
X-35.61600 Y121.29000
X-37.25000 Y118.10000
X-40.61600 Y121.29000
X-29.14600 Y134.01000
X-29.14600 Y138.09400
X-33.37000 Y138.07400
X-33.37000 Y133.99000
X-43.37000 Y133.99000
X-43.37000 Y138.07400
X-46.49800 Y147.04400
X-46.49800 Y152.04400
X-63.77400 Y135.77900
X-63.77400 Y140.77900
X-64.02400 Y145.73400
X-64.02400 Y150.73400
X-85.25000 Y139.65000
X-85.25000 Y135.25000
X-95.25000 Y139.65000
X-95.25000 Y135.25000
G80

G00 Z30.00000 (Retract)
T3
M5      (Spindle stop.)
G04 P1.00000
(MSG, Change tool bit to drill size 1mm)
M6      (Tool change.)
M0      (Temporary machine stop.)
M3      (Spindle on clockwise.)
G0 Z2.00000
G04 P1.00000

G81 R2.00000 Z-1.75000 F200.00000 X-94.65000 Y37.98000
X-94.65000 Y51.53200
X-94.65000 Y65.09100
X-94.65000 Y78.58300
X-94.65000 Y92.07500
X-94.65000 Y105.56700
X-94.61000 Y119.18600
X-94.58900 Y129.03000
X-86.58900 Y129.03000
X-81.53400 Y135.25000
X-81.53400 Y139.56800
X-90.25000 Y146.25000
X-95.25000 Y146.25000
X-95.25000 Y151.25000
X-90.25000 Y151.25000
X-85.25000 Y151.25000
X-80.25000 Y151.25000
X-85.25000 Y146.25000
X-80.25000 Y146.25000
X-71.53400 Y139.56800
X-71.53400 Y135.25000
X-55.38800 Y146.96400
X-55.38800 Y149.50400
X-55.38800 Y152.04400
X-33.27400 Y145.99600
X-33.27400 Y150.99600
X-28.27400 Y145.99600
X-28.27400 Y150.99600
X-23.27400 Y150.99600
X-18.27400 Y145.99600
X-18.27400 Y150.99600
X-23.27400 Y145.99600
X-43.37000 Y129.92600
X-43.37000 Y125.86200
X-33.37000 Y129.92600
X-33.37000 Y125.86200
X-29.14600 Y125.88200
X-29.14600 Y129.94600
X-19.14600 Y129.94600
X-19.14600 Y125.88200
X-15.02200 Y129.94600
X-15.02200 Y125.88200
X-5.02200 Y129.94600
X-5.02200 Y125.88200
X-4.59200 Y112.25800
X-7.13200 Y112.25800
X-7.13200 Y109.71800
X-4.59200 Y109.71800
X-4.59200 Y107.17800
X-7.13200 Y107.17800
X-7.13200 Y104.63800
X-4.59200 Y102.09800
X-4.59200 Y104.63800
X-7.13200 Y102.09800
X-23.38800 Y115.81400
X-25.92800 Y115.81400
X-38.12000 Y110.58200
X-45.72000 Y110.58200
X-56.42800 Y109.21700
X-56.38800 Y115.30600
X-56.38800 Y122.80600
X-71.64800 Y122.80600
X-76.68800 Y122.80600
X-81.72800 Y122.80600
X-86.61000 Y119.18600
X-81.72800 Y115.30600
X-76.68800 Y115.30600
X-71.64800 Y115.30600
X-71.68800 Y109.21700
X-76.72800 Y109.21700
X-81.76800 Y109.21700
X-86.65000 Y105.56700
X-81.76800 Y101.71700
X-76.72800 Y101.71700
X-71.68800 Y101.71700
X-71.68800 Y95.75500
X-76.72800 Y95.75500
X-81.76800 Y95.75500
X-86.65000 Y92.07500
X-81.76800 Y88.25500
X-76.72800 Y88.25500
X-71.68800 Y88.25500
X-71.68800 Y82.29300
X-76.72800 Y82.29300
X-81.76800 Y82.29300
X-86.65000 Y78.58300
X-81.76800 Y74.79300
X-76.72800 Y74.79300
X-71.68800 Y74.79300
X-71.68800 Y68.83100
X-76.72800 Y68.83100
X-81.76800 Y68.83100
X-86.65000 Y65.09100
X-81.76800 Y61.33100
X-76.72800 Y61.33100
X-71.68800 Y61.33100
X-71.68800 Y55.30200
X-76.72800 Y55.30200
X-81.76800 Y55.30200
X-86.65000 Y51.53200
X-81.76800 Y47.80200
X-76.72800 Y47.80200
X-71.68800 Y47.80200
X-71.68800 Y41.78000
X-76.72800 Y41.78000
X-81.76800 Y41.78000
X-86.65000 Y37.98000
X-81.76800 Y34.28000
X-76.72800 Y34.28000
X-86.74700 Y24.26600
X-94.74700 Y24.26600
X-83.85000 Y14.47500
X-83.85000 Y6.47500
X-76.70000 Y6.88000
X-76.70000 Y11.88000
X-71.70000 Y6.88000
X-71.70000 Y11.88000
X-66.70000 Y6.88000
X-61.70000 Y6.88000
X-61.70000 Y11.88000
X-66.70000 Y11.88000
X-71.67300 Y20.79600
X-76.71300 Y20.79600
X-81.75300 Y20.79600
X-81.75300 Y28.29600
X-76.71300 Y28.29600
X-71.67300 Y28.29600
X-71.68800 Y34.28000
X-56.42800 Y41.78000
X-56.42800 Y47.80200
X-56.42800 Y55.30200
X-56.42800 Y61.33100
X-56.42800 Y68.83100
X-56.42800 Y74.79300
X-56.42800 Y82.29300
X-56.42800 Y88.25500
X-56.42800 Y95.75500
X-56.42800 Y101.71700
X-27.65000 Y64.05000
X-31.71400 Y64.05000
X-27.65000 Y54.05000
X-31.71400 Y54.05000
X-37.10400 Y43.74900
X-39.64400 Y43.74900
X-42.18400 Y43.74900
X-36.85000 Y33.10400
X-29.48400 Y33.10400
X-21.86400 Y33.10400
X-14.45000 Y33.10400
X-6.87800 Y33.10400
X-6.87800 Y23.10400
X-14.45000 Y23.10400
X-21.86400 Y23.10400
X-29.48400 Y23.10400
X-36.85000 Y23.10400
X-43.57000 Y22.65000
X-46.11000 Y22.65000
X-48.65000 Y22.65000
X-56.42800 Y34.28000
X-56.41300 Y28.29600
X-56.41300 Y20.79600
X-53.10600 Y14.45000
X-53.10600 Y6.45000
X-45.74000 Y6.84800
X-45.74000 Y11.84800
X-40.74000 Y11.84800
X-40.74000 Y6.84800
X-31.65000 Y11.85000
X-31.65000 Y6.85000
X-26.65000 Y11.85000
X-26.65000 Y6.85000
X-21.65000 Y6.85000
X-21.65000 Y11.85000
X-16.65000 Y11.85000
X-16.65000 Y6.85000
X-11.65000 Y11.85000
X-11.65000 Y6.85000
X-6.65000 Y11.85000
X-6.65000 Y6.85000
G80

G00 Z30.000 ( All done -- retract )

M5      (Spindle off.)
G04 P1.000000
M9      (Coolant off.)
M2      (Program end.)

