( pcb2gcode 2.4.0 )
( Software-independent Gcode )

( This file uses 2 drill bit sizes. )
( Bit sizes: [0.8mm] [1mm] )

G94       (Millimeters per minute feed rate.)
G21       (Units == Millimeters.)
G91.1     (Incremental arc distance mode.)
G90       (Absolute coordinates.)
G00 S20000     (RPM spindle speed.)

G00 Z30.00000 (Retract)
T1
M5      (Spindle stop.)
G04 P1.00000
(MSG, Change tool bit to drill size 0.8mm)
M6      (Tool change.)
M0      (Temporary machine stop.)
M3      (Spindle on clockwise.)
G0 Z2.00000
G04 P1.00000

G81 R2.00000 Z-1.75000 F200.00000 X-55.51800 Y30.93000
X-45.51800 Y30.93000
X-36.15000 Y21.05000
X-28.65000 Y21.05000
X-21.05000 Y21.05000
X-13.65000 Y21.05000
X-6.05000 Y21.05000
X-6.05000 Y31.05000
X-13.65000 Y31.05000
X-21.05000 Y31.05000
X-28.65000 Y31.05000
X-36.15000 Y31.05000
X-35.48500 Y41.97900
X-45.48500 Y41.97900
X-47.89800 Y52.77400
X-55.75000 Y66.85000
X-55.72500 Y70.55400
X-45.16900 Y77.15800
X-45.16900 Y79.69800
X-45.16900 Y82.23800
X-45.16900 Y84.77800
X-45.16900 Y87.31800
X-45.16900 Y89.85800
X-45.16900 Y92.39800
X-45.16900 Y94.93800
X-45.16900 Y97.47800
X-37.54900 Y97.47800
X-37.54900 Y94.93800
X-37.54900 Y92.39800
X-37.54900 Y89.85800
X-37.54900 Y87.31800
X-37.54900 Y84.77800
X-37.54900 Y82.23800
X-37.54900 Y79.69800
X-37.54900 Y77.15800
X-37.55000 Y73.05000
X-45.11900 Y70.55400
X-40.75000 Y66.85000
X-38.85000 Y63.95000
X-38.85000 Y58.95000
X-37.89800 Y52.77400
X-35.21000 Y52.77400
X-25.21000 Y52.77400
X-26.58600 Y57.05000
X-26.58600 Y67.05000
X-32.55000 Y73.05000
X-29.18200 Y73.09400
X-32.77600 Y77.24300
X-29.18200 Y77.15800
X-29.18200 Y79.69800
X-29.18200 Y82.23800
X-21.56200 Y77.15800
X-21.56200 Y79.69800
X-21.56200 Y82.23800
X-21.56200 Y84.77800
X-21.56200 Y87.31800
X-21.56200 Y89.85800
X-21.56200 Y92.39800
X-21.56200 Y94.93800
X-21.56200 Y97.47800
X-21.56200 Y100.01800
X-29.18200 Y92.39800
X-29.18200 Y89.85800
X-29.18200 Y87.31800
X-29.18200 Y84.77800
X-32.77600 Y92.24300
X-29.18200 Y94.93800
X-29.18200 Y97.47800
X-29.18200 Y100.01800
X-29.18200 Y102.55800
X-29.18200 Y105.09800
X-32.73800 Y107.63800
X-29.18200 Y107.63800
X-29.18200 Y110.17800
X-23.97000 Y114.02000
X-14.70400 Y113.98300
X-14.70400 Y110.17800
X-17.17400 Y107.49800
X-6.20900 Y95.19200
X-13.29300 Y95.19200
X-16.99000 Y92.43800
X-16.99000 Y97.43800
X-17.10300 Y102.55800
X-21.56200 Y102.55800
X-21.56200 Y105.09800
X-21.56200 Y107.63800
X-21.56200 Y110.17800
X-32.73800 Y117.63800
X-33.34800 Y122.52200
X-29.52300 Y127.70400
X-24.52300 Y127.70400
X-15.46600 Y127.70400
X-10.46600 Y127.70400
X-8.02600 Y139.64200
X-8.02600 Y143.72600
X-18.02600 Y143.72600
X-18.02600 Y139.64200
X-22.15000 Y143.72600
X-22.15000 Y139.64200
X-32.15000 Y143.72600
X-32.15000 Y139.64200
X-36.37400 Y143.70600
X-36.37400 Y139.62200
X-43.62000 Y126.92200
X-39.74800 Y122.57300
X-38.62000 Y126.92200
X-46.37400 Y139.62200
X-46.37400 Y143.70600
X-49.50200 Y152.67600
X-49.50200 Y157.67600
X-67.02800 Y156.36600
X-67.02800 Y151.36600
X-67.02800 Y143.96000
X-67.02800 Y138.96000
X-88.19000 Y143.78800
X-88.19000 Y139.38800
X-98.19000 Y143.78800
X-98.19000 Y139.38800
G80

G00 Z30.00000 (Retract)
T3
M5      (Spindle stop.)
G04 P1.00000
(MSG, Change tool bit to drill size 1mm)
M6      (Tool change.)
M0      (Temporary machine stop.)
M3      (Spindle on clockwise.)
G0 Z2.00000
G04 P1.00000

G81 R2.00000 Z-1.75000 F200.00000 X-97.74700 Y27.26600
X-97.65000 Y40.98000
X-97.65000 Y54.53200
X-97.65000 Y68.09100
X-97.65000 Y81.58300
X-97.65000 Y95.07500
X-97.65000 Y108.56700
X-97.61000 Y122.18600
X-97.58900 Y132.03000
X-89.58900 Y132.03000
X-84.47400 Y139.38800
X-84.47400 Y143.70600
X-93.25400 Y151.88200
X-98.25400 Y151.88200
X-98.25400 Y156.88200
X-93.25400 Y156.88200
X-88.25400 Y156.88200
X-83.25400 Y156.88200
X-88.25400 Y151.88200
X-83.25400 Y151.88200
X-74.47400 Y143.70600
X-58.39200 Y152.59600
X-58.39200 Y155.13600
X-58.39200 Y157.67600
X-36.27800 Y151.62800
X-36.27800 Y156.62800
X-31.27800 Y151.62800
X-31.27800 Y156.62800
X-26.27800 Y156.62800
X-21.27800 Y156.62800
X-21.27800 Y151.62800
X-26.27800 Y151.62800
X-46.37400 Y135.55800
X-46.37400 Y131.49400
X-36.37400 Y135.55800
X-36.37400 Y131.49400
X-32.15000 Y131.51400
X-32.15000 Y135.57800
X-22.15000 Y135.57800
X-22.15000 Y131.51400
X-18.02600 Y135.57800
X-18.02600 Y131.51400
X-8.02600 Y135.57800
X-8.02600 Y131.51400
X-7.59200 Y115.25800
X-7.59200 Y112.71800
X-7.59200 Y110.17800
X-7.59200 Y107.63800
X-7.59200 Y105.09800
X-10.13200 Y105.09800
X-10.13200 Y107.63800
X-10.13200 Y110.17800
X-10.13200 Y112.71800
X-10.13200 Y115.25800
X-26.38800 Y118.81400
X-28.92800 Y118.81400
X-41.12000 Y113.58200
X-48.72000 Y113.58200
X-59.42800 Y112.21700
X-59.38800 Y118.30600
X-59.38800 Y125.80600
X-74.47400 Y139.38800
X-74.64800 Y125.80600
X-79.68800 Y125.80600
X-84.72800 Y125.80600
X-89.61000 Y122.18600
X-84.72800 Y118.30600
X-79.68800 Y118.30600
X-74.64800 Y118.30600
X-74.68800 Y112.21700
X-79.72800 Y112.21700
X-84.76800 Y112.21700
X-89.65000 Y108.56700
X-84.76800 Y104.71700
X-79.72800 Y104.71700
X-74.68800 Y104.71700
X-74.68800 Y98.75500
X-79.72800 Y98.75500
X-84.76800 Y98.75500
X-89.65000 Y95.07500
X-84.76800 Y91.25500
X-79.72800 Y91.25500
X-74.68800 Y91.25500
X-74.68800 Y85.29300
X-79.72800 Y85.29300
X-84.76800 Y85.29300
X-89.65000 Y81.58300
X-84.76800 Y77.79300
X-79.72800 Y77.79300
X-74.68800 Y77.79300
X-74.68800 Y71.83100
X-79.72800 Y71.83100
X-84.76800 Y71.83100
X-89.65000 Y68.09100
X-84.76800 Y64.33100
X-79.72800 Y64.33100
X-74.68800 Y64.33100
X-74.68800 Y58.30200
X-79.72800 Y58.30200
X-84.76800 Y58.30200
X-89.65000 Y54.53200
X-84.76800 Y50.80200
X-79.72800 Y50.80200
X-74.68800 Y50.80200
X-74.68800 Y44.78000
X-79.72800 Y44.78000
X-84.76800 Y44.78000
X-89.65000 Y40.98000
X-84.76800 Y37.28000
X-79.72800 Y37.28000
X-74.68800 Y37.28000
X-74.67300 Y31.29600
X-79.71300 Y31.29600
X-84.75300 Y31.29600
X-89.74700 Y27.26600
X-84.75300 Y23.79600
X-86.85000 Y17.47500
X-86.85000 Y9.47500
X-79.70000 Y9.88000
X-79.70000 Y14.88000
X-74.70000 Y9.88000
X-74.70000 Y14.88000
X-69.70000 Y9.88000
X-64.70000 Y9.88000
X-64.70000 Y14.88000
X-69.70000 Y14.88000
X-74.67300 Y23.79600
X-79.71300 Y23.79600
X-59.42800 Y44.78000
X-59.42800 Y50.80200
X-59.42800 Y58.30200
X-59.42800 Y64.33100
X-59.42800 Y71.83100
X-59.42800 Y77.79300
X-59.42800 Y85.29300
X-59.42800 Y91.25500
X-59.42800 Y98.75500
X-59.42800 Y104.71700
X-30.65000 Y67.05000
X-34.71400 Y67.05000
X-30.65000 Y57.05000
X-34.71400 Y57.05000
X-40.10400 Y46.74900
X-42.64400 Y46.74900
X-45.18400 Y46.74900
X-39.85000 Y36.10400
X-32.48400 Y36.10400
X-24.86400 Y36.10400
X-17.45000 Y36.10400
X-9.87800 Y36.10400
X-9.87800 Y26.10400
X-17.45000 Y26.10400
X-24.86400 Y26.10400
X-32.48400 Y26.10400
X-39.85000 Y26.10400
X-46.57000 Y25.65000
X-49.11000 Y25.65000
X-51.65000 Y25.65000
X-59.42800 Y37.28000
X-59.41300 Y31.29600
X-59.41300 Y23.79600
X-56.10600 Y17.45000
X-56.10600 Y9.45000
X-48.74000 Y9.84800
X-48.74000 Y14.84800
X-43.74000 Y14.84800
X-43.74000 Y9.84800
X-34.65000 Y14.85000
X-34.65000 Y9.85000
X-29.65000 Y14.85000
X-29.65000 Y9.85000
X-24.65000 Y9.85000
X-24.65000 Y14.85000
X-19.65000 Y14.85000
X-19.65000 Y9.85000
X-14.65000 Y14.85000
X-14.65000 Y9.85000
X-9.65000 Y14.85000
X-9.65000 Y9.85000
G80

G00 Z30.000 ( All done -- retract )

M5      (Spindle off.)
G04 P1.000000
M9      (Coolant off.)
M2      (Program end.)

