( pcb2gcode 2.4.0 )
( Software-independent Gcode )

G94 ( Millimeters per minute feed rate. )
G21 ( Units == Millimeters. )

G90 ( Absolute coordinates. )
G00 S20000 ( RPM spindle speed. )
G64 P0.05000 ( set maximum deviation from commanded toolpath )
G01 F300.00000 ( Feedrate. )


G00 Z40.00000 (Retract to tool change height)
T0
M5      (Spindle stop.)
G04 P1.00000 (Wait for spindle to stop)
(MSG, Change tool bit to mill diameter 0.24000mm)
M6      (Tool change.)
M0      (Temporary machine stop.)
M3 ( Spindle on clockwise. )
G04 P1.00000 (Wait for spindle to get up to speed)
G04 P0 ( dwell for no time -- G64 should not smooth over this point )
G00 Z5.00000 ( retract )

G00 X9.01265 Y105.11055 ( rapid move to begin. )
G01 F150.00000
( Mill infeed pass 1/1 )
G01 Z-0.20000
G04 P0 ( dwell for no time -- G64 should not smooth over this point )
G01 F300.00000
G01 X9.01265 Y105.11055
G01 X9.03449 Y105.31847
G01 X9.03972 Y105.34301
G01 X9.10432 Y105.54184
G01 X9.11453 Y105.56475
G01 X9.21905 Y105.74580
G01 X9.23381 Y105.76610
G01 X9.37368 Y105.92144
G01 X9.39233 Y105.93823
G01 X9.56147 Y106.06112
G01 X9.58318 Y106.07366
G01 X9.77416 Y106.15870
G01 X9.79802 Y106.16645
G01 X10.00251 Y106.20991
G01 X10.02745 Y106.21253
G01 X10.23652 Y106.21253
G01 X10.26146 Y106.20991
G01 X10.46596 Y106.16645
G01 X10.48981 Y106.15870
G01 X10.68079 Y106.07366
G01 X10.70251 Y106.06112
G01 X10.87165 Y105.93823
G01 X10.89029 Y105.92144
G01 X11.03017 Y105.76610
G01 X11.04493 Y105.74580
G01 X11.14945 Y105.56475
G01 X11.15966 Y105.54184
G01 X11.22425 Y105.34301
G01 X11.22948 Y105.31847
G01 X11.25133 Y105.11055
G01 X11.25133 Y105.08548
G01 X11.22948 Y104.87755
G01 X11.22425 Y104.85302
G01 X11.15966 Y104.65419
G01 X11.14945 Y104.63127
G01 X11.04493 Y104.45022
G01 X11.03017 Y104.42993
G01 X10.89029 Y104.27458
G01 X10.87165 Y104.25779
G01 X10.70251 Y104.13491
G01 X10.68079 Y104.12236
G01 X10.48981 Y104.03732
G01 X10.46596 Y104.02957
G01 X10.26146 Y103.98611
G01 X10.23652 Y103.98350
G01 X10.02745 Y103.98350
G01 X10.00251 Y103.98611
G01 X9.79802 Y104.02957
G01 X9.77416 Y104.03732
G01 X9.58318 Y104.12236
G01 X9.56147 Y104.13491
G01 X9.39233 Y104.25779
G01 X9.37368 Y104.27458
G01 X9.23381 Y104.42993
G01 X9.21905 Y104.45022
G01 X9.11453 Y104.63127
G01 X9.10432 Y104.65419
G01 X9.03972 Y104.85302
G01 X9.03449 Y104.87755
G01 X9.01265 Y105.08548
G01 X9.01265 Y107.65055
G01 X9.01265 Y107.62548
G01 X9.03449 Y107.41755
G01 X9.03972 Y107.39302
G01 X9.10432 Y107.19419
G01 X9.11453 Y107.17128
G01 X9.21905 Y106.99022
G01 X9.23381 Y106.96993
G01 X9.37368 Y106.81458
G01 X9.39233 Y106.79779
G01 X9.56147 Y106.67491
G01 X9.58318 Y106.66236
G01 X9.77416 Y106.57732
G01 X9.79802 Y106.56957
G01 X10.00251 Y106.52611
G01 X10.02745 Y106.52350
G01 X10.23652 Y106.52350
G01 X10.26146 Y106.52611
G01 X10.46596 Y106.56957
G01 X10.48981 Y106.57732
G01 X10.68079 Y106.66236
G01 X10.70251 Y106.67491
G01 X10.87165 Y106.79779
G01 X10.89029 Y106.81458
G01 X11.03017 Y106.96993
G01 X11.04493 Y106.99022
G01 X11.14945 Y107.17128
G01 X11.15966 Y107.19419
G01 X11.22425 Y107.39302
G01 X11.22948 Y107.41755
G01 X11.25133 Y107.62548
G01 X11.25133 Y107.65055
G01 X11.22948 Y107.85847
G01 X11.22425 Y107.88301
G01 X11.15966 Y108.08184
G01 X11.14945 Y108.10475
G01 X11.04493 Y108.28580
G01 X11.03017 Y108.30610
G01 X10.89029 Y108.46144
G01 X10.87165 Y108.47823
G01 X10.70251 Y108.60112
G01 X10.68079 Y108.61366
G01 X10.48981 Y108.69870
G01 X10.46596 Y108.70645
G01 X10.26146 Y108.74991
G01 X10.23652 Y108.75253
G01 X10.02745 Y108.75253
G01 X10.00251 Y108.74991
G01 X9.79802 Y108.70645
G01 X9.77416 Y108.69870
G01 X9.58318 Y108.61366
G01 X9.56147 Y108.60112
G01 X9.39233 Y108.47823
G01 X9.37368 Y108.46144
G01 X9.23381 Y108.30610
G01 X9.21905 Y108.28580
G01 X9.11453 Y108.10475
G01 X9.10432 Y108.08184
G01 X9.03972 Y107.88301
G01 X9.03449 Y107.85847
G01 X9.01265 Y107.65055
G01 X9.01265 Y110.19055
G01 X9.01265 Y110.16548
G01 X9.03449 Y109.95755
G01 X9.03972 Y109.93302
G01 X9.10432 Y109.73419
G01 X9.11453 Y109.71128
G01 X9.21905 Y109.53022
G01 X9.23381 Y109.50993
G01 X9.37368 Y109.35458
G01 X9.39233 Y109.33779
G01 X9.56147 Y109.21491
G01 X9.58318 Y109.20236
G01 X9.77416 Y109.11732
G01 X9.79802 Y109.10957
G01 X10.00251 Y109.06612
G01 X10.02745 Y109.06350
G01 X10.23652 Y109.06350
G01 X10.26146 Y109.06612
G01 X10.46596 Y109.10957
G01 X10.48981 Y109.11732
G01 X10.68079 Y109.20236
G01 X10.70251 Y109.21491
G01 X10.87165 Y109.33779
G01 X10.89029 Y109.35458
G01 X11.03017 Y109.50993
G01 X11.04493 Y109.53022
G01 X11.14945 Y109.71128
G01 X11.15966 Y109.73419
G01 X11.22425 Y109.93302
G01 X11.22948 Y109.95755
G01 X11.25133 Y110.16548
G01 X11.25133 Y110.19055
G01 X11.22948 Y110.39847
G01 X11.22425 Y110.42301
G01 X11.15966 Y110.62184
G01 X11.14945 Y110.64475
G01 X11.04493 Y110.82580
G01 X11.03017 Y110.84610
G01 X10.89029 Y111.00144
G01 X10.87165 Y111.01823
G01 X10.70251 Y111.14112
G01 X10.68079 Y111.15366
G01 X10.48981 Y111.23870
G01 X10.46596 Y111.24645
G01 X10.26146 Y111.28991
G01 X10.23652 Y111.29253
G01 X10.02745 Y111.29253
G01 X10.00251 Y111.28991
G01 X9.79802 Y111.24645
G01 X9.77416 Y111.23870
G01 X9.58318 Y111.15366
G01 X9.56147 Y111.14112
G01 X9.39233 Y111.01823
G01 X9.37368 Y111.00144
G01 X9.23381 Y110.84610
G01 X9.21905 Y110.82580
G01 X9.11453 Y110.64475
G01 X9.10432 Y110.62184
G01 X9.03972 Y110.42301
G01 X9.03449 Y110.39847
G01 X9.01265 Y110.19055
G01 X9.01265 Y112.73055
G01 X9.01265 Y112.70548
G01 X9.03449 Y112.49755
G01 X9.03972 Y112.47302
G01 X9.10432 Y112.27419
G01 X9.11453 Y112.25128
G01 X9.21905 Y112.07022
G01 X9.23381 Y112.04993
G01 X9.37368 Y111.89458
G01 X9.39233 Y111.87779
G01 X9.56147 Y111.75491
G01 X9.58318 Y111.74236
G01 X9.77416 Y111.65732
G01 X9.79802 Y111.64957
G01 X10.00251 Y111.60612
G01 X10.02745 Y111.60350
G01 X10.23652 Y111.60350
G01 X10.26146 Y111.60612
G01 X10.46596 Y111.64957
G01 X10.48981 Y111.65732
G01 X10.68079 Y111.74236
G01 X10.70251 Y111.75491
G01 X10.87165 Y111.87779
G01 X10.89029 Y111.89458
G01 X11.03017 Y112.04993
G01 X11.04493 Y112.07022
G01 X11.14945 Y112.25128
G01 X11.15966 Y112.27419
G01 X11.22425 Y112.47302
G01 X11.22948 Y112.49755
G01 X11.25133 Y112.70548
G01 X11.25133 Y112.73055
G01 X11.22948 Y112.93847
G01 X11.22425 Y112.96301
G01 X11.15966 Y113.16184
G01 X11.14945 Y113.18475
G01 X11.04493 Y113.36580
G01 X11.03017 Y113.38610
G01 X10.89029 Y113.54144
G01 X10.87165 Y113.55823
G01 X10.70251 Y113.68112
G01 X10.68079 Y113.69366
G01 X10.48981 Y113.77870
G01 X10.46596 Y113.78645
G01 X10.26146 Y113.82991
G01 X10.23652 Y113.83253
G01 X10.02745 Y113.83253
G01 X10.00251 Y113.82991
G01 X9.79802 Y113.78645
G01 X9.77416 Y113.77870
G01 X9.58318 Y113.69366
G01 X9.56147 Y113.68112
G01 X9.39233 Y113.55823
G01 X9.37368 Y113.54144
G01 X9.23381 Y113.38610
G01 X9.21905 Y113.36580
G01 X9.11453 Y113.18475
G01 X9.10432 Y113.16184
G01 X9.03972 Y112.96301
G01 X9.03449 Y112.93847
G01 X9.01265 Y112.73055
G01 X9.01265 Y115.24548
G01 X9.01445 Y115.28785
G01 X9.03449 Y115.47847
G01 X9.03972 Y115.50301
G01 X9.10432 Y115.70184
G01 X9.11453 Y115.72475
G01 X9.21905 Y115.90580
G01 X9.23381 Y115.92610
G01 X9.37368 Y116.08144
G01 X9.39233 Y116.09823
G01 X9.56147 Y116.22112
G01 X9.58318 Y116.23366
G01 X9.77416 Y116.31870
G01 X9.79802 Y116.32645
G01 X10.00251 Y116.36991
G01 X10.02745 Y116.37253
G01 X10.23652 Y116.37253
G01 X10.26146 Y116.36991
G01 X10.46596 Y116.32645
G01 X10.48981 Y116.31870
G01 X10.68079 Y116.23366
G01 X10.70251 Y116.22112
G01 X10.87165 Y116.09823
G01 X10.89029 Y116.08144
G01 X11.03017 Y115.92610
G01 X11.04493 Y115.90580
G01 X11.14945 Y115.72475
G01 X11.15966 Y115.70184
G01 X11.22425 Y115.50301
G01 X11.22948 Y115.47847
G01 X11.25133 Y115.27055
G01 X11.25133 Y115.24548
G01 X11.22948 Y115.03755
G01 X11.22425 Y115.01302
G01 X11.15966 Y114.81419
G01 X11.14945 Y114.79127
G01 X11.04493 Y114.61022
G01 X11.03017 Y114.58993
G01 X10.89029 Y114.43458
G01 X10.87165 Y114.41779
G01 X10.70251 Y114.29491
G01 X10.68079 Y114.28236
G01 X10.48981 Y114.19732
G01 X10.46596 Y114.18957
G01 X10.26146 Y114.14612
G01 X10.23652 Y114.14350
G01 X10.02745 Y114.14350
G01 X10.00251 Y114.14612
G01 X9.79802 Y114.18957
G01 X9.77416 Y114.19732
G01 X9.58318 Y114.28236
G01 X9.56147 Y114.29491
G01 X9.39233 Y114.41779
G01 X9.37368 Y114.43458
G01 X9.23381 Y114.58993
G01 X9.21905 Y114.61022
G01 X9.11453 Y114.79127
G01 X9.10432 Y114.81419
G01 X9.03972 Y115.01302
G01 X9.03449 Y115.03755
G01 X9.01265 Y115.24548
G01 X9.01265 Y115.27055
G01 X9.01445 Y115.28785
G01 X9.54666 Y127.69148
G01 X9.56413 Y127.52513
G01 X9.56934 Y127.50060
G01 X9.62103 Y127.34154
G01 X9.63124 Y127.31863
G01 X9.71486 Y127.17378
G01 X9.72959 Y127.15348
G01 X9.84150 Y127.02920
G01 X9.86014 Y127.01243
G01 X9.99545 Y126.91414
G01 X10.01717 Y126.90156
G01 X10.16997 Y126.83354
G01 X10.19382 Y126.82580
G01 X10.35742 Y126.79102
G01 X10.38237 Y126.78841
G01 X10.54960 Y126.78841
G01 X10.57457 Y126.79102
G01 X10.73815 Y126.82580
G01 X10.76202 Y126.83354
G01 X10.91480 Y126.90156
G01 X10.93652 Y126.91414
G01 X11.07183 Y127.01243
G01 X11.09047 Y127.02920
G01 X11.20238 Y127.15348
G01 X11.21711 Y127.17378
G01 X11.30076 Y127.31863
G01 X11.31094 Y127.34154
G01 X11.36263 Y127.50060
G01 X11.36784 Y127.52513
G01 X11.38534 Y127.69148
G01 X11.38534 Y127.71655
G01 X11.36784 Y127.88289
G01 X11.36263 Y127.90743
G01 X11.31094 Y128.06648
G01 X11.30076 Y128.08939
G01 X11.21711 Y128.23425
G01 X11.20238 Y128.25455
G01 X11.09047 Y128.37883
G01 X11.07183 Y128.39562
G01 X10.93652 Y128.49391
G01 X10.91480 Y128.50646
G01 X10.76202 Y128.57448
G01 X10.73815 Y128.58223
G01 X10.57457 Y128.61700
G01 X10.54960 Y128.61962
G01 X10.38237 Y128.61962
G01 X10.35742 Y128.61700
G01 X10.19382 Y128.58223
G01 X10.16997 Y128.57448
G01 X10.01717 Y128.50646
G01 X9.99545 Y128.49391
G01 X9.86014 Y128.39562
G01 X9.84150 Y128.37883
G01 X9.72959 Y128.25455
G01 X9.71486 Y128.23425
G01 X9.63124 Y128.08939
G01 X9.62103 Y128.06648
G01 X9.56934 Y127.90743
G01 X9.56413 Y127.88289
G01 X9.54666 Y127.71655
G01 X9.54666 Y127.69148
G01 X6.47265 Y115.24548
G01 X6.49449 Y115.03755
G01 X6.49972 Y115.01302
G01 X6.56432 Y114.81419
G01 X6.57453 Y114.79127
G01 X6.67905 Y114.61022
G01 X6.69381 Y114.58993
G01 X6.83368 Y114.43458
G01 X6.85233 Y114.41779
G01 X7.02147 Y114.29491
G01 X7.04318 Y114.28236
G01 X7.23416 Y114.19732
G01 X7.25802 Y114.18957
G01 X7.46251 Y114.14612
G01 X7.48745 Y114.14350
G01 X7.69652 Y114.14350
G01 X7.72146 Y114.14612
G01 X7.92596 Y114.18957
G01 X7.94981 Y114.19732
G01 X8.14079 Y114.28236
G01 X8.16251 Y114.29491
G01 X8.33165 Y114.41779
G01 X8.35029 Y114.43458
G01 X8.49017 Y114.58993
G01 X8.50493 Y114.61022
G01 X8.60945 Y114.79127
G01 X8.61966 Y114.81419
G01 X8.68425 Y115.01302
G01 X8.68948 Y115.03755
G01 X8.71133 Y115.24548
G01 X8.71133 Y115.27055
G01 X8.68948 Y115.47847
G01 X8.68425 Y115.50301
G01 X8.61966 Y115.70184
G01 X8.60945 Y115.72475
G01 X8.50493 Y115.90580
G01 X8.49017 Y115.92610
G01 X8.35029 Y116.08144
G01 X8.33165 Y116.09823
G01 X8.16251 Y116.22112
G01 X8.14079 Y116.23366
G01 X7.94981 Y116.31870
G01 X7.92596 Y116.32645
G01 X7.72146 Y116.36991
G01 X7.69652 Y116.37253
G01 X7.48745 Y116.37253
G01 X7.46251 Y116.36991
G01 X7.25802 Y116.32645
G01 X7.23416 Y116.31870
G01 X7.04318 Y116.23366
G01 X7.02147 Y116.22112
G01 X6.85233 Y116.09823
G01 X6.83368 Y116.08144
G01 X6.69381 Y115.92610
G01 X6.67905 Y115.90580
G01 X6.57453 Y115.72475
G01 X6.56432 Y115.70184
G01 X6.49972 Y115.50301
G01 X6.49449 Y115.47847
G01 X6.47265 Y115.27055
G01 X6.47265 Y112.70548
G01 X6.47265 Y112.73055
G01 X6.49449 Y112.93847
G01 X6.49972 Y112.96301
G01 X6.56432 Y113.16184
G01 X6.57453 Y113.18475
G01 X6.67905 Y113.36580
G01 X6.69381 Y113.38610
G01 X6.83368 Y113.54144
G01 X6.85233 Y113.55823
G01 X7.02147 Y113.68112
G01 X7.04318 Y113.69366
G01 X7.23416 Y113.77870
G01 X7.25802 Y113.78645
G01 X7.46251 Y113.82991
G01 X7.48745 Y113.83253
G01 X7.69652 Y113.83253
G01 X7.72146 Y113.82991
G01 X7.92596 Y113.78645
G01 X7.94981 Y113.77870
G01 X8.14079 Y113.69366
G01 X8.16251 Y113.68112
G01 X8.33165 Y113.55823
G01 X8.35029 Y113.54144
G01 X8.49017 Y113.38610
G01 X8.50493 Y113.36580
G01 X8.60945 Y113.18475
G01 X8.61966 Y113.16184
G01 X8.68425 Y112.96301
G01 X8.68948 Y112.93847
G01 X8.71133 Y112.73055
G01 X8.71133 Y112.70548
G01 X8.68948 Y112.49755
G01 X8.68425 Y112.47302
G01 X8.61966 Y112.27419
G01 X8.60945 Y112.25128
G01 X8.50493 Y112.07022
G01 X8.49017 Y112.04993
G01 X8.35029 Y111.89458
G01 X8.33165 Y111.87779
G01 X8.16251 Y111.75491
G01 X8.14079 Y111.74236
G01 X7.94981 Y111.65732
G01 X7.92596 Y111.64957
G01 X7.72146 Y111.60612
G01 X7.69652 Y111.60350
G01 X7.48745 Y111.60350
G01 X7.46251 Y111.60612
G01 X7.25802 Y111.64957
G01 X7.23416 Y111.65732
G01 X7.04318 Y111.74236
G01 X7.02147 Y111.75491
G01 X6.85233 Y111.87779
G01 X6.83368 Y111.89458
G01 X6.69381 Y112.04993
G01 X6.67905 Y112.07022
G01 X6.57453 Y112.25128
G01 X6.56432 Y112.27419
G01 X6.49972 Y112.47302
G01 X6.49449 Y112.49755
G01 X6.47265 Y112.70548
G01 X6.47265 Y110.16548
G01 X6.47265 Y110.19055
G01 X6.49449 Y110.39847
G01 X6.49972 Y110.42301
G01 X6.56432 Y110.62184
G01 X6.57453 Y110.64475
G01 X6.67905 Y110.82580
G01 X6.69381 Y110.84610
G01 X6.83368 Y111.00144
G01 X6.85233 Y111.01823
G01 X7.02147 Y111.14112
G01 X7.04318 Y111.15366
G01 X7.23416 Y111.23870
G01 X7.25802 Y111.24645
G01 X7.46251 Y111.28991
G01 X7.48745 Y111.29253
G01 X7.69652 Y111.29253
G01 X7.72146 Y111.28991
G01 X7.92596 Y111.24645
G01 X7.94981 Y111.23870
G01 X8.14079 Y111.15366
G01 X8.16251 Y111.14112
G01 X8.33165 Y111.01823
G01 X8.35029 Y111.00144
G01 X8.49017 Y110.84610
G01 X8.50493 Y110.82580
G01 X8.60945 Y110.64475
G01 X8.61966 Y110.62184
G01 X8.68425 Y110.42301
G01 X8.68948 Y110.39847
G01 X8.71133 Y110.19055
G01 X8.71133 Y110.16548
G01 X8.68948 Y109.95755
G01 X8.68425 Y109.93302
G01 X8.61966 Y109.73419
G01 X8.60945 Y109.71128
G01 X8.50493 Y109.53022
G01 X8.49017 Y109.50993
G01 X8.35029 Y109.35458
G01 X8.33165 Y109.33779
G01 X8.16251 Y109.21491
G01 X8.14079 Y109.20236
G01 X7.94981 Y109.11732
G01 X7.92596 Y109.10957
G01 X7.72146 Y109.06612
G01 X7.69652 Y109.06350
G01 X7.48745 Y109.06350
G01 X7.46251 Y109.06612
G01 X7.25802 Y109.10957
G01 X7.23416 Y109.11732
G01 X7.04318 Y109.20236
G01 X7.02147 Y109.21491
G01 X6.85233 Y109.33779
G01 X6.83368 Y109.35458
G01 X6.69381 Y109.50993
G01 X6.67905 Y109.53022
G01 X6.57453 Y109.71128
G01 X6.56432 Y109.73419
G01 X6.49972 Y109.93302
G01 X6.49449 Y109.95755
G01 X6.47265 Y110.16548
G01 X6.47265 Y107.62548
G01 X6.47265 Y107.65055
G01 X6.49449 Y107.85847
G01 X6.49972 Y107.88301
G01 X6.56432 Y108.08184
G01 X6.57453 Y108.10475
G01 X6.67905 Y108.28580
G01 X6.69381 Y108.30610
G01 X6.83368 Y108.46144
G01 X6.85233 Y108.47823
G01 X7.02147 Y108.60112
G01 X7.04318 Y108.61366
G01 X7.23416 Y108.69870
G01 X7.25802 Y108.70645
G01 X7.46251 Y108.74991
G01 X7.48745 Y108.75253
G01 X7.69652 Y108.75253
G01 X7.72146 Y108.74991
G01 X7.92596 Y108.70645
G01 X7.94981 Y108.69870
G01 X8.14079 Y108.61366
G01 X8.16251 Y108.60112
G01 X8.33165 Y108.47823
G01 X8.35029 Y108.46144
G01 X8.49017 Y108.30610
G01 X8.50493 Y108.28580
G01 X8.60945 Y108.10475
G01 X8.61966 Y108.08184
G01 X8.68425 Y107.88301
G01 X8.68948 Y107.85847
G01 X8.71133 Y107.65055
G01 X8.71133 Y107.62548
G01 X8.68948 Y107.41755
G01 X8.68425 Y107.39302
G01 X8.61966 Y107.19419
G01 X8.60945 Y107.17128
G01 X8.50493 Y106.99022
G01 X8.49017 Y106.96993
G01 X8.35029 Y106.81458
G01 X8.33165 Y106.79779
G01 X8.16251 Y106.67491
G01 X8.14079 Y106.66236
G01 X7.94981 Y106.57732
G01 X7.92596 Y106.56957
G01 X7.72146 Y106.52611
G01 X7.69652 Y106.52350
G01 X7.48745 Y106.52350
G01 X7.46251 Y106.52611
G01 X7.25802 Y106.56957
G01 X7.23416 Y106.57732
G01 X7.04318 Y106.66236
G01 X7.02147 Y106.67491
G01 X6.85233 Y106.79779
G01 X6.83368 Y106.81458
G01 X6.69381 Y106.96993
G01 X6.67905 Y106.99022
G01 X6.57453 Y107.17128
G01 X6.56432 Y107.19419
G01 X6.49972 Y107.39302
G01 X6.49449 Y107.41755
G01 X6.47265 Y107.62548
G01 X6.47265 Y105.08548
G01 X6.47265 Y105.11055
G01 X6.49449 Y105.31847
G01 X6.49972 Y105.34301
G01 X6.56432 Y105.54184
G01 X6.57453 Y105.56475
G01 X6.67905 Y105.74580
G01 X6.69381 Y105.76610
G01 X6.83368 Y105.92144
G01 X6.85233 Y105.93823
G01 X7.02147 Y106.06112
G01 X7.04318 Y106.07366
G01 X7.23416 Y106.15870
G01 X7.25802 Y106.16645
G01 X7.46251 Y106.20991
G01 X7.48745 Y106.21253
G01 X7.69652 Y106.21253
G01 X7.72146 Y106.20991
G01 X7.92596 Y106.16645
G01 X7.94981 Y106.15870
G01 X8.14079 Y106.07366
G01 X8.16251 Y106.06112
G01 X8.33165 Y105.93823
G01 X8.35029 Y105.92144
G01 X8.49017 Y105.76610
G01 X8.50493 Y105.74580
G01 X8.60945 Y105.56475
G01 X8.61966 Y105.54184
G01 X8.68425 Y105.34301
G01 X8.68948 Y105.31847
G01 X8.71133 Y105.11055
G01 X8.71133 Y105.08548
G01 X8.68948 Y104.87755
G01 X8.68425 Y104.85302
G01 X8.61966 Y104.65419
G01 X8.60945 Y104.63127
G01 X8.50493 Y104.45022
G01 X8.49017 Y104.42993
G01 X8.35029 Y104.27458
G01 X8.33165 Y104.25779
G01 X8.16251 Y104.13491
G01 X8.14079 Y104.12236
G01 X7.94981 Y104.03732
G01 X7.92596 Y104.02957
G01 X7.72146 Y103.98611
G01 X7.69652 Y103.98350
G01 X7.48745 Y103.98350
G01 X7.46251 Y103.98611
G01 X7.25802 Y104.02957
G01 X7.23416 Y104.03732
G01 X7.04318 Y104.12236
G01 X7.02147 Y104.13491
G01 X6.85233 Y104.25779
G01 X6.83368 Y104.27458
G01 X6.69381 Y104.42993
G01 X6.67905 Y104.45022
G01 X6.57453 Y104.63127
G01 X6.56432 Y104.65419
G01 X6.49972 Y104.85302
G01 X6.49449 Y104.87755
G01 X6.47265 Y105.08548
G01 X4.90923 Y95.60460
G01 X4.83915 Y95.17948
G01 X4.86645 Y94.91959
G01 X4.87169 Y94.89505
G01 X4.95243 Y94.64651
G01 X4.96264 Y94.62360
G01 X5.09330 Y94.39728
G01 X5.10803 Y94.37699
G01 X5.28289 Y94.18278
G01 X5.30153 Y94.16599
G01 X5.51296 Y94.01240
G01 X5.53468 Y93.99985
G01 X5.77341 Y93.89358
G01 X5.79726 Y93.88581
G01 X6.05289 Y93.83147
G01 X6.07783 Y93.82886
G01 X6.33914 Y93.82886
G01 X6.36409 Y93.83147
G01 X6.61971 Y93.88581
G01 X6.64356 Y93.89358
G01 X6.88230 Y93.99985
G01 X6.90402 Y94.01240
G01 X7.11545 Y94.16599
G01 X7.13409 Y94.18278
G01 X7.25944 Y94.32202
G01 X12.24254 Y94.32202
G01 X12.36789 Y94.18278
G01 X12.38653 Y94.16599
G01 X12.59796 Y94.01240
G01 X12.61968 Y93.99985
G01 X12.85841 Y93.89358
G01 X12.88226 Y93.88581
G01 X13.13789 Y93.83147
G01 X13.16283 Y93.82886
G01 X13.42414 Y93.82886
G01 X13.44909 Y93.83147
G01 X13.70471 Y93.88581
G01 X13.72856 Y93.89358
G01 X13.96730 Y93.99985
G01 X13.98902 Y94.01240
G01 X14.20044 Y94.16599
G01 X14.21909 Y94.18278
G01 X14.39394 Y94.37699
G01 X14.40867 Y94.39728
G01 X14.53933 Y94.62360
G01 X14.54954 Y94.64651
G01 X14.63029 Y94.89505
G01 X14.63552 Y94.91959
G01 X14.66283 Y95.17948
G01 X14.66283 Y95.20455
G01 X14.63552 Y95.46444
G01 X14.63029 Y95.48898
G01 X14.54954 Y95.73752
G01 X14.53933 Y95.76043
G01 X14.40867 Y95.98674
G01 X14.39394 Y96.00704
G01 X14.21909 Y96.20124
G01 X14.20044 Y96.21803
G01 X13.98902 Y96.37163
G01 X13.96730 Y96.38417
G01 X13.72856 Y96.49045
G01 X13.70471 Y96.49822
G01 X13.44909 Y96.55255
G01 X13.42414 Y96.55517
G01 X13.16283 Y96.55517
G01 X13.13789 Y96.55255
G01 X12.88226 Y96.49822
G01 X12.85841 Y96.49045
G01 X12.61968 Y96.38417
G01 X12.59796 Y96.37163
G01 X12.38653 Y96.21803
G01 X12.36789 Y96.20124
G01 X12.24254 Y96.06200
G01 X7.25944 Y96.06200
G01 X7.13409 Y96.20124
G01 X7.11545 Y96.21803
G01 X6.90402 Y96.37163
G01 X6.88230 Y96.38417
G01 X6.64356 Y96.49045
G01 X6.61971 Y96.49822
G01 X6.36409 Y96.55255
G01 X6.33914 Y96.55517
G01 X6.07783 Y96.55517
G01 X6.05289 Y96.55255
G01 X5.79726 Y96.49822
G01 X5.77341 Y96.49045
G01 X5.53468 Y96.38417
G01 X5.51296 Y96.37163
G01 X5.30153 Y96.21803
G01 X5.28289 Y96.20124
G01 X5.10803 Y96.00704
G01 X5.09330 Y95.98674
G01 X4.96264 Y95.76043
G01 X4.95243 Y95.73752
G01 X4.90923 Y95.60460
G01 X4.87169 Y95.48898
G01 X4.86645 Y95.46444
G01 X4.83915 Y95.20455
G01 X4.83915 Y95.17948
G04 P0 ( dwell for no time -- G64 should not smooth over this point )
G00 Z5.00000 ( retract )

G00 X16.07065 Y96.49969 ( rapid move to begin. )
G01 F150.00000
( Mill infeed pass 1/1 )
G01 Z-0.20000
G04 P0 ( dwell for no time -- G64 should not smooth over this point )
G01 F300.00000
G01 X16.07065 Y96.49969
G01 X16.07121 Y96.49786
G01 X16.07580 Y96.47480
G01 X16.08540 Y96.37727
G01 X16.08599 Y96.36548
G01 X16.08599 Y93.31748
G01 X16.08540 Y93.30572
G01 X16.07580 Y93.20818
G01 X16.07121 Y93.18512
G01 X16.07065 Y93.18329
G01 X16.04276 Y93.09132
G01 X16.03377 Y93.06958
G01 X15.98756 Y92.98314
G01 X15.97448 Y92.96358
G01 X15.91230 Y92.88781
G01 X15.90440 Y92.87908
G01 X15.83199 Y92.80669
G01 X15.83199 Y76.14482
G01 X18.51679 Y73.46001
G01 X27.86760 Y73.46001
G01 X27.92592 Y73.63957
G01 X27.93613 Y73.66248
G01 X28.06679 Y73.88877
G01 X28.08154 Y73.90904
G01 X28.25640 Y74.10324
G01 X28.27504 Y74.12003
G01 X28.48645 Y74.27363
G01 X28.50819 Y74.28617
G01 X28.74690 Y74.39247
G01 X28.77077 Y74.40022
G01 X29.02637 Y74.45455
G01 X29.05132 Y74.45719
G01 X29.31266 Y74.45719
G01 X29.33760 Y74.45455
G01 X29.59320 Y74.40022
G01 X29.61708 Y74.39247
G01 X29.85579 Y74.28617
G01 X29.87753 Y74.27363
G01 X30.08893 Y74.12003
G01 X30.10758 Y74.10324
G01 X30.28243 Y73.90904
G01 X30.29719 Y73.88877
G01 X30.42784 Y73.66248
G01 X30.43806 Y73.63957
G01 X30.51880 Y73.39100
G01 X30.52401 Y73.36647
G01 X30.55134 Y73.10655
G01 X30.55134 Y73.08148
G01 X30.52401 Y72.82158
G01 X30.51880 Y72.79707
G01 X30.43806 Y72.54851
G01 X30.42784 Y72.52560
G01 X30.29719 Y72.29931
G01 X30.28243 Y72.27899
G01 X30.10758 Y72.08483
G01 X30.08893 Y72.06804
G01 X29.87753 Y71.91440
G01 X29.85579 Y71.90185
G01 X29.61708 Y71.79560
G01 X29.59320 Y71.78786
G01 X29.33760 Y71.73347
G01 X29.31266 Y71.73088
G01 X29.05132 Y71.73088
G01 X29.02637 Y71.73347
G01 X28.77077 Y71.78786
G01 X28.74690 Y71.79560
G01 X28.50819 Y71.90185
G01 X28.48645 Y71.91440
G01 X28.27504 Y72.06804
G01 X28.25640 Y72.08483
G01 X28.13463 Y72.22001
G01 X18.26000 Y72.22001
G01 X18.24821 Y72.22060
G01 X18.15068 Y72.23025
G01 X18.12762 Y72.23479
G01 X18.03381 Y72.26324
G01 X18.01207 Y72.27223
G01 X17.92563 Y72.31844
G01 X17.90608 Y72.33152
G01 X17.83031 Y72.39372
G01 X17.82157 Y72.40165
G01 X14.77357 Y75.44962
G01 X14.76567 Y75.45833
G01 X14.70349 Y75.53410
G01 X14.69041 Y75.55366
G01 X14.64421 Y75.64010
G01 X14.63522 Y75.66186
G01 X14.60677 Y75.75564
G01 X14.60217 Y75.77870
G01 X14.59257 Y75.87624
G01 X14.59199 Y75.88800
G01 X14.59199 Y93.06348
G01 X14.59257 Y93.07527
G01 X14.60217 Y93.17280
G01 X14.60677 Y93.19586
G01 X14.63522 Y93.28967
G01 X14.64421 Y93.31141
G01 X14.69041 Y93.39785
G01 X14.70349 Y93.41740
G01 X14.76567 Y93.49317
G01 X14.77357 Y93.50191
G01 X14.84599 Y93.57430
G01 X14.84599 Y96.10869
G01 X14.26557 Y96.68908
G01 X14.25767 Y96.69781
G01 X14.19549 Y96.77358
G01 X14.18241 Y96.79314
G01 X14.13621 Y96.87958
G01 X14.12722 Y96.90132
G01 X14.09877 Y96.99512
G01 X14.09417 Y97.01818
G01 X14.08457 Y97.11572
G01 X14.08399 Y97.12748
G01 X14.08399 Y108.96190
G01 X14.03019 Y108.98585
G01 X14.00845 Y108.99840
G01 X13.79704 Y109.15199
G01 X13.77840 Y109.16878
G01 X13.60354 Y109.36299
G01 X13.58879 Y109.38328
G01 X13.45813 Y109.60960
G01 X13.44792 Y109.63251
G01 X13.36717 Y109.88105
G01 X13.36197 Y109.90559
G01 X13.33464 Y110.16548
G01 X13.33464 Y113.99547
G01 X13.36197 Y114.25536
G01 X13.36717 Y114.27990
G01 X13.44792 Y114.52844
G01 X13.45813 Y114.55135
G01 X13.58879 Y114.77766
G01 X13.60354 Y114.79796
G01 X13.60697 Y114.80177
G01 X13.60697 Y117.77593
G01 X13.60753 Y117.78771
G01 X13.62196 Y117.93402
G01 X13.62653 Y117.95711
G01 X13.66923 Y118.09780
G01 X13.67822 Y118.11951
G01 X13.74754 Y118.24918
G01 X13.76059 Y118.26874
G01 X13.85389 Y118.38240
G01 X13.86179 Y118.39114
G01 X15.26740 Y119.79673
G01 X15.27611 Y119.80463
G01 X15.38977 Y119.89789
G01 X15.40933 Y119.91095
G01 X15.53900 Y119.98027
G01 X15.56074 Y119.98926
G01 X15.70143 Y120.03196
G01 X15.72450 Y120.03653
G01 X15.87080 Y120.05095
G01 X15.88259 Y120.05151
G01 X18.90849 Y120.05151
G01 X18.92037 Y120.05093
G01 X19.06851 Y120.03617
G01 X19.09185 Y120.03145
G01 X19.23412 Y119.98773
G01 X19.25609 Y119.97851
G01 X19.38692 Y119.90755
G01 X19.40663 Y119.89416
G01 X19.52088 Y119.79876
G01 X19.52964 Y119.79066
G01 X23.85176 Y115.38317
G01 X24.10065 Y115.38317
G01 X24.12560 Y115.38056
G01 X24.38120 Y115.32620
G01 X24.40507 Y115.31845
G01 X24.64381 Y115.21218
G01 X24.66552 Y115.19963
G01 X24.87693 Y115.04604
G01 X24.89557 Y115.02925
G01 X25.07043 Y114.83504
G01 X25.08518 Y114.81474
G01 X25.21584 Y114.58843
G01 X25.22605 Y114.56552
G01 X25.30680 Y114.31698
G01 X25.31201 Y114.29244
G01 X25.33934 Y114.03255
G01 X25.33934 Y114.00748
G01 X25.31201 Y113.74759
G01 X25.30680 Y113.72305
G01 X25.22605 Y113.47451
G01 X25.21584 Y113.45160
G01 X25.08518 Y113.22529
G01 X25.07043 Y113.20499
G01 X24.89557 Y113.01079
G01 X24.87693 Y112.99400
G01 X24.66552 Y112.84040
G01 X24.64381 Y112.82786
G01 X24.40507 Y112.72156
G01 X24.38120 Y112.71381
G01 X24.12560 Y112.65948
G01 X24.10065 Y112.65686
G01 X23.83934 Y112.65686
G01 X23.81437 Y112.65948
G01 X23.55877 Y112.71381
G01 X23.53492 Y112.72156
G01 X23.29618 Y112.82786
G01 X23.27444 Y112.84040
G01 X23.06304 Y112.99400
G01 X23.04439 Y113.01079
G01 X22.86954 Y113.20499
G01 X22.85478 Y113.22529
G01 X22.72413 Y113.45160
G01 X22.71394 Y113.47451
G01 X22.63317 Y113.72305
G01 X22.62796 Y113.74759
G01 X22.60066 Y114.00748
G01 X22.60066 Y114.03255
G01 X22.61407 Y114.16016
G01 X18.54311 Y118.31154
G01 X16.24294 Y118.31154
G01 X15.34695 Y117.41558
G01 X15.34695 Y115.18881
G01 X15.37779 Y115.17509
G01 X15.39953 Y115.16255
G01 X15.61093 Y115.00895
G01 X15.62958 Y114.99216
G01 X15.80443 Y114.79796
G01 X15.81919 Y114.77766
G01 X15.94984 Y114.55135
G01 X15.96006 Y114.52844
G01 X16.04080 Y114.27990
G01 X16.04601 Y114.25536
G01 X16.07334 Y113.99547
G01 X16.07334 Y113.97040
G01 X16.04601 Y113.71050
G01 X16.04080 Y113.68597
G01 X15.96006 Y113.43743
G01 X15.94984 Y113.41452
G01 X15.81919 Y113.18820
G01 X15.80443 Y113.16791
G01 X15.62958 Y112.97370
G01 X15.61093 Y112.95691
G01 X15.39953 Y112.80332
G01 X15.37779 Y112.79077
G01 X15.13908 Y112.68450
G01 X15.11520 Y112.67673
G01 X14.85960 Y112.62239
G01 X14.83466 Y112.61978
G01 X14.57332 Y112.61978
G01 X14.54837 Y112.62239
G01 X14.29277 Y112.67673
G01 X14.26890 Y112.68450
G01 X14.03019 Y112.79077
G01 X14.00845 Y112.80332
G01 X13.79704 Y112.95691
G01 X13.77840 Y112.97370
G01 X13.60354 Y113.16791
G01 X13.58879 Y113.18820
G01 X13.45813 Y113.41452
G01 X13.44792 Y113.43743
G01 X13.36717 Y113.68597
G01 X13.36197 Y113.71050
G01 X13.33464 Y113.97040
G01 X13.33464 Y110.19055
G01 X13.36197 Y110.45044
G01 X13.36717 Y110.47498
G01 X13.44792 Y110.72352
G01 X13.45813 Y110.74643
G01 X13.58879 Y110.97274
G01 X13.60354 Y110.99304
G01 X13.77840 Y111.18724
G01 X13.79704 Y111.20403
G01 X14.00845 Y111.35763
G01 X14.03019 Y111.37017
G01 X14.26890 Y111.47645
G01 X14.29277 Y111.48422
G01 X14.54837 Y111.53855
G01 X14.57332 Y111.54117
G01 X14.83466 Y111.54117
G01 X14.85960 Y111.53855
G01 X15.11520 Y111.48422
G01 X15.13908 Y111.47645
G01 X15.37779 Y111.37017
G01 X15.39953 Y111.35763
G01 X15.61093 Y111.20403
G01 X15.62958 Y111.18724
G01 X15.80443 Y110.99304
G01 X15.81919 Y110.97274
G01 X15.94984 Y110.74643
G01 X15.96006 Y110.72352
G01 X16.04080 Y110.47498
G01 X16.04601 Y110.45044
G01 X16.07334 Y110.19055
G01 X16.07334 Y110.16548
G01 X16.04601 Y109.90559
G01 X16.04080 Y109.88105
G01 X15.96006 Y109.63251
G01 X15.94984 Y109.60960
G01 X15.81919 Y109.38328
G01 X15.80443 Y109.36299
G01 X15.62958 Y109.16878
G01 X15.61093 Y109.15199
G01 X15.39953 Y108.99840
G01 X15.37779 Y108.98585
G01 X15.32399 Y108.96190
G01 X15.32399 Y97.38430
G01 X15.90440 Y96.80391
G01 X15.91230 Y96.79517
G01 X15.97448 Y96.71940
G01 X15.98756 Y96.69985
G01 X16.03377 Y96.61341
G01 X16.04276 Y96.59167
G01 X16.07065 Y96.49969
G01 X16.07065 Y92.42546
G01 X16.08812 Y92.25914
G01 X16.09335 Y92.23460
G01 X16.14502 Y92.07555
G01 X16.15523 Y92.05261
G01 X16.23885 Y91.90778
G01 X16.25360 Y91.88749
G01 X16.36552 Y91.76320
G01 X16.38416 Y91.74641
G01 X16.51947 Y91.64812
G01 X16.54118 Y91.63557
G01 X16.69396 Y91.56755
G01 X16.71781 Y91.55980
G01 X16.88141 Y91.52503
G01 X16.90636 Y91.52239
G01 X17.07362 Y91.52239
G01 X17.09856 Y91.52503
G01 X17.26216 Y91.55980
G01 X17.28601 Y91.56755
G01 X17.43879 Y91.63557
G01 X17.46051 Y91.64812
G01 X17.59582 Y91.74641
G01 X17.61446 Y91.76320
G01 X17.72637 Y91.88749
G01 X17.74113 Y91.90778
G01 X17.82475 Y92.05261
G01 X17.83496 Y92.07555
G01 X17.88662 Y92.23460
G01 X17.89185 Y92.25914
G01 X17.90933 Y92.42546
G01 X17.90933 Y92.45055
G01 X17.89185 Y92.61690
G01 X17.88662 Y92.64143
G01 X17.83496 Y92.80049
G01 X17.82475 Y92.82340
G01 X17.74113 Y92.96823
G01 X17.72637 Y92.98852
G01 X17.61446 Y93.11283
G01 X17.59582 Y93.12962
G01 X17.46051 Y93.22792
G01 X17.43879 Y93.24047
G01 X17.28601 Y93.30849
G01 X17.26216 Y93.31624
G01 X17.09856 Y93.35101
G01 X17.07362 Y93.35362
G01 X16.90636 Y93.35362
G01 X16.88141 Y93.35101
G01 X16.71781 Y93.31624
G01 X16.69396 Y93.30849
G01 X16.54118 Y93.24047
G01 X16.51947 Y93.22792
G01 X16.38416 Y93.12962
G01 X16.36552 Y93.11283
G01 X16.25360 Y92.98852
G01 X16.23885 Y92.96823
G01 X16.15523 Y92.82340
G01 X16.14502 Y92.80049
G01 X16.09335 Y92.64143
G01 X16.08812 Y92.61690
G01 X16.07065 Y92.45055
G01 X16.07065 Y97.45057
G01 X16.08812 Y97.61689
G01 X16.09335 Y97.64142
G01 X16.14502 Y97.80048
G01 X16.15523 Y97.82341
G01 X16.23885 Y97.96825
G01 X16.25360 Y97.98854
G01 X16.36552 Y98.11282
G01 X16.38416 Y98.12961
G01 X16.51947 Y98.22791
G01 X16.54118 Y98.24046
G01 X16.69396 Y98.30848
G01 X16.71781 Y98.31623
G01 X16.88141 Y98.35100
G01 X16.90636 Y98.35364
G01 X17.07362 Y98.35364
G01 X17.09856 Y98.35100
G01 X17.26216 Y98.31623
G01 X17.28601 Y98.30848
G01 X17.43879 Y98.24046
G01 X17.46051 Y98.22791
G01 X17.59582 Y98.12961
G01 X17.61446 Y98.11282
G01 X17.72637 Y97.98854
G01 X17.74113 Y97.96825
G01 X17.82475 Y97.82341
G01 X17.83496 Y97.80048
G01 X17.88662 Y97.64142
G01 X17.89185 Y97.61689
G01 X17.90933 Y97.45057
G01 X17.90933 Y97.42547
G01 X17.89185 Y97.25913
G01 X17.88662 Y97.23459
G01 X17.83496 Y97.07554
G01 X17.82475 Y97.05263
G01 X17.74113 Y96.90780
G01 X17.72637 Y96.88750
G01 X17.61446 Y96.76319
G01 X17.59582 Y96.74640
G01 X17.46051 Y96.64811
G01 X17.43879 Y96.63556
G01 X17.28601 Y96.56754
G01 X17.26216 Y96.55979
G01 X17.09856 Y96.52502
G01 X17.07362 Y96.52240
G01 X16.90636 Y96.52240
G01 X16.88141 Y96.52502
G01 X16.71781 Y96.55979
G01 X16.69396 Y96.56754
G01 X16.54118 Y96.63556
G01 X16.51947 Y96.64811
G01 X16.38416 Y96.74640
G01 X16.36552 Y96.76319
G01 X16.25360 Y96.88750
G01 X16.23885 Y96.90780
G01 X16.15523 Y97.05263
G01 X16.14502 Y97.07554
G01 X16.09335 Y97.23459
G01 X16.08812 Y97.25913
G01 X16.07065 Y97.42547
G01 X15.73415 Y102.54548
G01 X15.73415 Y102.57055
G01 X15.76145 Y102.83044
G01 X15.76669 Y102.85498
G01 X15.84743 Y103.10352
G01 X15.85764 Y103.12643
G01 X15.98830 Y103.35274
G01 X16.00303 Y103.37304
G01 X16.17789 Y103.56724
G01 X16.19653 Y103.58403
G01 X16.30359 Y103.66178
G01 X16.30359 Y106.44466
G01 X16.26663 Y106.47151
G01 X16.24799 Y106.48829
G01 X16.07314 Y106.68248
G01 X16.05838 Y106.70277
G01 X15.92772 Y106.92909
G01 X15.91751 Y106.95202
G01 X15.83676 Y107.20054
G01 X15.83156 Y107.22507
G01 X15.80423 Y107.48497
G01 X15.80423 Y107.51006
G01 X15.83156 Y107.76995
G01 X15.83676 Y107.79449
G01 X15.91751 Y108.04300
G01 X15.92772 Y108.06594
G01 X16.05838 Y108.29225
G01 X16.07314 Y108.31255
G01 X16.24799 Y108.50673
G01 X16.26663 Y108.52352
G01 X16.47804 Y108.67711
G01 X16.49978 Y108.68966
G01 X16.73849 Y108.79596
G01 X16.76237 Y108.80371
G01 X17.01797 Y108.85804
G01 X17.04291 Y108.86065
G01 X17.30425 Y108.86065
G01 X17.32919 Y108.85804
G01 X17.58479 Y108.80371
G01 X17.60867 Y108.79596
G01 X17.84738 Y108.68966
G01 X17.86912 Y108.67711
G01 X18.08052 Y108.52352
G01 X18.09917 Y108.50673
G01 X18.27402 Y108.31255
G01 X18.28878 Y108.29225
G01 X18.41944 Y108.06594
G01 X18.42965 Y108.04300
G01 X18.51039 Y107.79449
G01 X18.51560 Y107.76995
G01 X18.54293 Y107.51006
G01 X18.54293 Y107.48497
G01 X18.51560 Y107.22507
G01 X18.51039 Y107.20054
G01 X18.42965 Y106.95202
G01 X18.41944 Y106.92909
G01 X18.28878 Y106.70277
G01 X18.27402 Y106.68248
G01 X18.09917 Y106.48829
G01 X18.08052 Y106.47151
G01 X18.04357 Y106.44466
G01 X18.04357 Y103.55114
G01 X18.20394 Y103.37304
G01 X18.21867 Y103.35274
G01 X18.34933 Y103.12643
G01 X18.35954 Y103.10352
G01 X18.44029 Y102.85498
G01 X18.44552 Y102.83044
G01 X18.47283 Y102.57055
G01 X18.47283 Y102.54548
G01 X18.44552 Y102.28558
G01 X18.44029 Y102.26105
G01 X18.35954 Y102.01251
G01 X18.34933 Y101.98960
G01 X18.21867 Y101.76328
G01 X18.20394 Y101.74299
G01 X18.02909 Y101.54878
G01 X18.01045 Y101.53199
G01 X17.79902 Y101.37840
G01 X17.77730 Y101.36585
G01 X17.53856 Y101.25958
G01 X17.51471 Y101.25181
G01 X17.25909 Y101.19747
G01 X17.23414 Y101.19486
G01 X16.97283 Y101.19486
G01 X16.94789 Y101.19747
G01 X16.69226 Y101.25181
G01 X16.66841 Y101.25958
G01 X16.42968 Y101.36585
G01 X16.40796 Y101.37840
G01 X16.19653 Y101.53199
G01 X16.17789 Y101.54878
G01 X16.00303 Y101.74299
G01 X15.98830 Y101.76328
G01 X15.85764 Y101.98960
G01 X15.84743 Y102.01251
G01 X15.76669 Y102.26105
G01 X15.76145 Y102.28558
G01 X15.73415 Y102.54548
G04 P0 ( dwell for no time -- G64 should not smooth over this point )
G00 Z5.00000 ( retract )

G00 X20.64265 Y110.16548 ( rapid move to begin. )
G01 F150.00000
( Mill infeed pass 1/1 )
G01 Z-0.20000
G04 P0 ( dwell for no time -- G64 should not smooth over this point )
G01 F300.00000
G01 X20.64265 Y110.16548
G01 X20.66012 Y109.99913
G01 X20.66535 Y109.97460
G01 X20.71702 Y109.81554
G01 X20.72723 Y109.79263
G01 X20.81085 Y109.64778
G01 X20.82560 Y109.62748
G01 X20.93752 Y109.50320
G01 X20.95616 Y109.48641
G01 X21.09146 Y109.38811
G01 X21.11318 Y109.37556
G01 X21.26596 Y109.30754
G01 X21.28981 Y109.29980
G01 X21.45341 Y109.26502
G01 X21.47836 Y109.26241
G01 X21.64562 Y109.26241
G01 X21.67056 Y109.26502
G01 X21.83416 Y109.29980
G01 X21.85801 Y109.30754
G01 X22.01079 Y109.37556
G01 X22.03251 Y109.38811
G01 X22.16782 Y109.48641
G01 X22.18646 Y109.50320
G01 X22.29837 Y109.62748
G01 X22.31313 Y109.64778
G01 X22.39675 Y109.79263
G01 X22.40696 Y109.81554
G01 X22.45862 Y109.97460
G01 X22.46385 Y109.99913
G01 X22.48133 Y110.16548
G01 X22.48133 Y110.19055
G01 X22.46385 Y110.35689
G01 X22.45862 Y110.38143
G01 X22.40696 Y110.54048
G01 X22.39675 Y110.56339
G01 X22.31313 Y110.70825
G01 X22.29837 Y110.72854
G01 X22.18646 Y110.85283
G01 X22.16782 Y110.86962
G01 X22.03251 Y110.96791
G01 X22.01079 Y110.98046
G01 X21.85801 Y111.04848
G01 X21.83416 Y111.05623
G01 X21.67056 Y111.09100
G01 X21.64562 Y111.09362
G01 X21.47836 Y111.09362
G01 X21.45341 Y111.09100
G01 X21.28981 Y111.05623
G01 X21.26596 Y111.04848
G01 X21.11318 Y110.98046
G01 X21.09146 Y110.96791
G01 X20.95616 Y110.86962
G01 X20.93752 Y110.85283
G01 X20.82560 Y110.72854
G01 X20.81085 Y110.70825
G01 X20.72723 Y110.56339
G01 X20.71702 Y110.54048
G01 X20.66535 Y110.38143
G01 X20.66012 Y110.35689
G01 X20.64265 Y110.19055
G01 X20.64265 Y107.62548
G01 X20.64265 Y107.65055
G01 X20.66012 Y107.81689
G01 X20.66535 Y107.84143
G01 X20.71702 Y108.00048
G01 X20.72723 Y108.02339
G01 X20.81085 Y108.16825
G01 X20.82560 Y108.18855
G01 X20.93752 Y108.31283
G01 X20.95616 Y108.32962
G01 X21.09146 Y108.42791
G01 X21.11318 Y108.44046
G01 X21.26596 Y108.50848
G01 X21.28981 Y108.51623
G01 X21.45341 Y108.55100
G01 X21.47836 Y108.55362
G01 X21.64562 Y108.55362
G01 X21.67056 Y108.55100
G01 X21.83416 Y108.51623
G01 X21.85801 Y108.50848
G01 X22.01079 Y108.44046
G01 X22.03251 Y108.42791
G01 X22.16782 Y108.32962
G01 X22.18646 Y108.31283
G01 X22.29837 Y108.18855
G01 X22.31313 Y108.16825
G01 X22.39675 Y108.02339
G01 X22.40696 Y108.00048
G01 X22.45862 Y107.84143
G01 X22.46385 Y107.81689
G01 X22.48133 Y107.65055
G01 X22.48133 Y107.62548
G01 X22.46385 Y107.45913
G01 X22.45862 Y107.43460
G01 X22.40696 Y107.27554
G01 X22.39675 Y107.25263
G01 X22.31313 Y107.10777
G01 X22.29837 Y107.08748
G01 X22.18646 Y106.96320
G01 X22.16782 Y106.94641
G01 X22.03251 Y106.84811
G01 X22.01079 Y106.83556
G01 X21.85801 Y106.76754
G01 X21.83416 Y106.75979
G01 X21.67056 Y106.72502
G01 X21.64562 Y106.72241
G01 X21.47836 Y106.72241
G01 X21.45341 Y106.72502
G01 X21.28981 Y106.75979
G01 X21.26596 Y106.76754
G01 X21.11318 Y106.83556
G01 X21.09146 Y106.84811
G01 X20.95616 Y106.94641
G01 X20.93752 Y106.96320
G01 X20.82560 Y107.08748
G01 X20.81085 Y107.10777
G01 X20.72723 Y107.25263
G01 X20.71702 Y107.27554
G01 X20.66535 Y107.43460
G01 X20.66012 Y107.45913
G01 X20.64265 Y107.62548
G01 X20.64265 Y105.08548
G01 X20.64265 Y105.11055
G01 X20.66012 Y105.27689
G01 X20.66535 Y105.30143
G01 X20.71702 Y105.46048
G01 X20.72723 Y105.48339
G01 X20.81085 Y105.62825
G01 X20.82560 Y105.64855
G01 X20.93752 Y105.77283
G01 X20.95616 Y105.78962
G01 X21.09146 Y105.88791
G01 X21.11318 Y105.90046
G01 X21.26596 Y105.96848
G01 X21.28981 Y105.97623
G01 X21.45341 Y106.01100
G01 X21.47836 Y106.01362
G01 X21.64562 Y106.01362
G01 X21.67056 Y106.01100
G01 X21.83416 Y105.97623
G01 X21.85801 Y105.96848
G01 X22.01079 Y105.90046
G01 X22.03251 Y105.88791
G01 X22.16782 Y105.78962
G01 X22.18646 Y105.77283
G01 X22.29837 Y105.64855
G01 X22.31313 Y105.62825
G01 X22.39675 Y105.48339
G01 X22.40696 Y105.46048
G01 X22.45862 Y105.30143
G01 X22.46385 Y105.27689
G01 X22.48133 Y105.11055
G01 X22.48133 Y105.08548
G01 X22.46385 Y104.91913
G01 X22.45862 Y104.89460
G01 X22.40696 Y104.73554
G01 X22.39675 Y104.71263
G01 X22.31313 Y104.56777
G01 X22.29837 Y104.54748
G01 X22.18646 Y104.42320
G01 X22.16782 Y104.40641
G01 X22.03251 Y104.30811
G01 X22.01079 Y104.29556
G01 X21.85801 Y104.22754
G01 X21.83416 Y104.21980
G01 X21.67056 Y104.18502
G01 X21.64562 Y104.18241
G01 X21.47836 Y104.18241
G01 X21.45341 Y104.18502
G01 X21.28981 Y104.21980
G01 X21.26596 Y104.22754
G01 X21.11318 Y104.29556
G01 X21.09146 Y104.30811
G01 X20.95616 Y104.40641
G01 X20.93752 Y104.42320
G01 X20.82560 Y104.54748
G01 X20.81085 Y104.56777
G01 X20.72723 Y104.71263
G01 X20.71702 Y104.73554
G01 X20.66535 Y104.89460
G01 X20.66012 Y104.91913
G01 X20.64265 Y105.08548
G01 X20.64265 Y102.54548
G01 X20.64265 Y102.57055
G01 X20.66012 Y102.73689
G01 X20.66535 Y102.76143
G01 X20.71702 Y102.92048
G01 X20.72723 Y102.94339
G01 X20.81085 Y103.08825
G01 X20.82560 Y103.10855
G01 X20.93752 Y103.23283
G01 X20.95616 Y103.24962
G01 X21.09146 Y103.34791
G01 X21.11318 Y103.36046
G01 X21.26596 Y103.42848
G01 X21.28981 Y103.43623
G01 X21.45341 Y103.47100
G01 X21.47836 Y103.47362
G01 X21.64562 Y103.47362
G01 X21.67056 Y103.47100
G01 X21.83416 Y103.43623
G01 X21.85801 Y103.42848
G01 X22.01079 Y103.36046
G01 X22.03251 Y103.34791
G01 X22.16782 Y103.24962
G01 X22.18646 Y103.23283
G01 X22.29837 Y103.10855
G01 X22.31313 Y103.08825
G01 X22.39675 Y102.94339
G01 X22.40696 Y102.92048
G01 X22.45862 Y102.76143
G01 X22.46385 Y102.73689
G01 X22.48133 Y102.57055
G01 X22.48133 Y102.54548
G01 X22.46385 Y102.37913
G01 X22.45862 Y102.35460
G01 X22.40696 Y102.19554
G01 X22.39675 Y102.17263
G01 X22.31313 Y102.02778
G01 X22.29837 Y102.00748
G01 X22.18646 Y101.88320
G01 X22.16782 Y101.86641
G01 X22.03251 Y101.76811
G01 X22.01079 Y101.75556
G01 X21.85801 Y101.68754
G01 X21.83416 Y101.67980
G01 X21.67056 Y101.64502
G01 X21.64562 Y101.64241
G01 X21.47836 Y101.64241
G01 X21.45341 Y101.64502
G01 X21.28981 Y101.67980
G01 X21.26596 Y101.68754
G01 X21.11318 Y101.75556
G01 X21.09146 Y101.76811
G01 X20.95616 Y101.86641
G01 X20.93752 Y101.88320
G01 X20.82560 Y102.00748
G01 X20.81085 Y102.02778
G01 X20.72723 Y102.17263
G01 X20.71702 Y102.19554
G01 X20.66535 Y102.35460
G01 X20.66012 Y102.37913
G01 X20.64265 Y102.54548
G01 X20.64265 Y100.00548
G01 X20.64265 Y100.03055
G01 X20.66012 Y100.19689
G01 X20.66535 Y100.22143
G01 X20.71702 Y100.38048
G01 X20.72723 Y100.40339
G01 X20.81085 Y100.54825
G01 X20.82560 Y100.56855
G01 X20.93752 Y100.69283
G01 X20.95616 Y100.70962
G01 X21.09146 Y100.80791
G01 X21.11318 Y100.82046
G01 X21.26596 Y100.88848
G01 X21.28981 Y100.89623
G01 X21.45341 Y100.93100
G01 X21.47836 Y100.93362
G01 X21.64562 Y100.93362
G01 X21.67056 Y100.93100
G01 X21.83416 Y100.89623
G01 X21.85801 Y100.88848
G01 X22.01079 Y100.82046
G01 X22.03251 Y100.80791
G01 X22.16782 Y100.70962
G01 X22.18646 Y100.69283
G01 X22.29837 Y100.56855
G01 X22.31313 Y100.54825
G01 X22.39675 Y100.40339
G01 X22.40696 Y100.38048
G01 X22.45862 Y100.22143
G01 X22.46385 Y100.19689
G01 X22.48133 Y100.03055
G01 X22.48133 Y100.00548
G01 X22.46385 Y99.83913
G01 X22.45862 Y99.81460
G01 X22.40696 Y99.65554
G01 X22.39675 Y99.63263
G01 X22.31313 Y99.48778
G01 X22.29837 Y99.46748
G01 X22.18646 Y99.34320
G01 X22.16782 Y99.32641
G01 X22.03251 Y99.22811
G01 X22.01079 Y99.21556
G01 X21.85801 Y99.14754
G01 X21.83416 Y99.13980
G01 X21.67056 Y99.10502
G01 X21.64562 Y99.10241
G01 X21.47836 Y99.10241
G01 X21.45341 Y99.10502
G01 X21.28981 Y99.13980
G01 X21.26596 Y99.14754
G01 X21.11318 Y99.21556
G01 X21.09146 Y99.22811
G01 X20.95616 Y99.32641
G01 X20.93752 Y99.34320
G01 X20.82560 Y99.46748
G01 X20.81085 Y99.48778
G01 X20.72723 Y99.63263
G01 X20.71702 Y99.65554
G01 X20.66535 Y99.81460
G01 X20.66012 Y99.83913
G01 X20.64265 Y100.00548
G01 X20.64265 Y97.46548
G01 X20.64265 Y97.49055
G01 X20.66012 Y97.65689
G01 X20.66535 Y97.68143
G01 X20.71702 Y97.84048
G01 X20.72723 Y97.86339
G01 X20.81085 Y98.00825
G01 X20.82560 Y98.02855
G01 X20.93752 Y98.15283
G01 X20.95616 Y98.16962
G01 X21.09146 Y98.26791
G01 X21.11318 Y98.28046
G01 X21.26596 Y98.34848
G01 X21.28981 Y98.35623
G01 X21.45341 Y98.39100
G01 X21.47836 Y98.39362
G01 X21.64562 Y98.39362
G01 X21.67056 Y98.39100
G01 X21.83416 Y98.35623
G01 X21.85801 Y98.34848
G01 X22.01079 Y98.28046
G01 X22.03251 Y98.26791
G01 X22.16782 Y98.16962
G01 X22.18646 Y98.15283
G01 X22.29837 Y98.02855
G01 X22.31313 Y98.00825
G01 X22.39675 Y97.86339
G01 X22.40696 Y97.84048
G01 X22.45862 Y97.68143
G01 X22.46385 Y97.65689
G01 X22.48133 Y97.49055
G01 X22.48133 Y97.46548
G01 X22.46385 Y97.29913
G01 X22.45862 Y97.27460
G01 X22.40696 Y97.11554
G01 X22.39675 Y97.09263
G01 X22.31313 Y96.94778
G01 X22.29837 Y96.92748
G01 X22.18646 Y96.80320
G01 X22.16782 Y96.78641
G01 X22.03251 Y96.68811
G01 X22.01079 Y96.67556
G01 X21.85801 Y96.60754
G01 X21.83416 Y96.59980
G01 X21.67056 Y96.56502
G01 X21.64562 Y96.56241
G01 X21.47836 Y96.56241
G01 X21.45341 Y96.56502
G01 X21.28981 Y96.59980
G01 X21.26596 Y96.60754
G01 X21.11318 Y96.67556
G01 X21.09146 Y96.68811
G01 X20.95616 Y96.78641
G01 X20.93752 Y96.80320
G01 X20.82560 Y96.92748
G01 X20.81085 Y96.94778
G01 X20.72723 Y97.09263
G01 X20.71702 Y97.11554
G01 X20.66535 Y97.27460
G01 X20.66012 Y97.29913
G01 X20.64265 Y97.46548
G01 X20.64265 Y94.92548
G01 X20.64265 Y94.95055
G01 X20.66012 Y95.11689
G01 X20.66535 Y95.14143
G01 X20.71702 Y95.30048
G01 X20.72723 Y95.32339
G01 X20.81085 Y95.46825
G01 X20.82560 Y95.48855
G01 X20.93752 Y95.61283
G01 X20.95616 Y95.62962
G01 X21.09146 Y95.72791
G01 X21.11318 Y95.74046
G01 X21.26596 Y95.80848
G01 X21.28981 Y95.81623
G01 X21.45341 Y95.85100
G01 X21.47836 Y95.85362
G01 X21.64562 Y95.85362
G01 X21.67056 Y95.85100
G01 X21.83416 Y95.81623
G01 X21.85801 Y95.80848
G01 X22.01079 Y95.74046
G01 X22.03251 Y95.72791
G01 X22.16782 Y95.62962
G01 X22.18646 Y95.61283
G01 X22.29837 Y95.48855
G01 X22.31313 Y95.46825
G01 X22.39675 Y95.32339
G01 X22.40696 Y95.30048
G01 X22.45862 Y95.14143
G01 X22.46385 Y95.11689
G01 X22.48133 Y94.95055
G01 X22.48133 Y94.92548
G01 X22.46385 Y94.75913
G01 X22.45862 Y94.73460
G01 X22.40696 Y94.57554
G01 X22.39675 Y94.55263
G01 X22.31313 Y94.40778
G01 X22.29837 Y94.38748
G01 X22.18646 Y94.26320
G01 X22.16782 Y94.24641
G01 X22.03251 Y94.14811
G01 X22.01079 Y94.13556
G01 X21.85801 Y94.06754
G01 X21.83416 Y94.05980
G01 X21.67056 Y94.02502
G01 X21.64562 Y94.02241
G01 X21.47836 Y94.02241
G01 X21.45341 Y94.02502
G01 X21.28981 Y94.05980
G01 X21.26596 Y94.06754
G01 X21.11318 Y94.13556
G01 X21.09146 Y94.14811
G01 X20.95616 Y94.24641
G01 X20.93752 Y94.26320
G01 X20.82560 Y94.38748
G01 X20.81085 Y94.40778
G01 X20.72723 Y94.55263
G01 X20.71702 Y94.57554
G01 X20.66535 Y94.73460
G01 X20.66012 Y94.75913
G01 X20.64265 Y94.92548
G01 X20.64265 Y92.38548
G01 X20.64265 Y92.41055
G01 X20.66012 Y92.57689
G01 X20.66535 Y92.60143
G01 X20.71702 Y92.76048
G01 X20.72723 Y92.78339
G01 X20.81085 Y92.92825
G01 X20.82560 Y92.94855
G01 X20.93752 Y93.07283
G01 X20.95616 Y93.08962
G01 X21.09146 Y93.18791
G01 X21.11318 Y93.20046
G01 X21.26596 Y93.26848
G01 X21.28981 Y93.27623
G01 X21.45341 Y93.31100
G01 X21.47836 Y93.31362
G01 X21.64562 Y93.31362
G01 X21.67056 Y93.31100
G01 X21.83416 Y93.27623
G01 X21.85801 Y93.26848
G01 X21.85908 Y93.26800
G01 X22.21762 Y93.26800
G01 X24.50281 Y95.55319
G01 X24.51152 Y95.56111
G01 X24.62519 Y95.65438
G01 X24.64475 Y95.66744
G01 X24.77441 Y95.73675
G01 X24.79613 Y95.74575
G01 X24.93685 Y95.78844
G01 X24.95991 Y95.79301
G01 X25.10621 Y95.80744
G01 X25.11800 Y95.80800
G01 X28.88490 Y95.80800
G01 X28.88596 Y95.80848
G01 X28.90981 Y95.81623
G01 X29.07341 Y95.85100
G01 X29.09836 Y95.85362
G01 X29.26562 Y95.85362
G01 X29.29056 Y95.85100
G01 X29.45416 Y95.81623
G01 X29.47801 Y95.80848
G01 X29.63079 Y95.74046
G01 X29.65251 Y95.72791
G01 X29.78782 Y95.62962
G01 X29.80646 Y95.61283
G01 X29.91837 Y95.48855
G01 X29.93313 Y95.46825
G01 X30.01675 Y95.32339
G01 X30.02696 Y95.30048
G01 X30.07862 Y95.14143
G01 X30.08385 Y95.11689
G01 X30.10133 Y94.95055
G01 X30.10133 Y94.92548
G01 X30.08385 Y94.75913
G01 X30.07862 Y94.73460
G01 X30.02696 Y94.57554
G01 X30.01675 Y94.55263
G01 X29.93313 Y94.40778
G01 X29.91837 Y94.38748
G01 X29.80646 Y94.26320
G01 X29.78782 Y94.24641
G01 X29.65251 Y94.14811
G01 X29.63079 Y94.13556
G01 X29.47801 Y94.06754
G01 X29.45416 Y94.05980
G01 X29.29056 Y94.02502
G01 X29.26562 Y94.02241
G01 X29.09836 Y94.02241
G01 X29.07341 Y94.02502
G01 X28.90981 Y94.05980
G01 X28.88596 Y94.06754
G01 X28.88490 Y94.06802
G01 X25.47835 Y94.06802
G01 X23.19316 Y91.78284
G01 X23.18445 Y91.77491
G01 X23.07079 Y91.68164
G01 X23.05123 Y91.66859
G01 X22.92156 Y91.59927
G01 X22.89984 Y91.59028
G01 X22.75913 Y91.54758
G01 X22.73606 Y91.54301
G01 X22.58976 Y91.52858
G01 X22.57800 Y91.52802
G01 X21.85908 Y91.52802
G01 X21.85801 Y91.52754
G01 X21.83416 Y91.51980
G01 X21.67056 Y91.48502
G01 X21.64562 Y91.48241
G01 X21.47836 Y91.48241
G01 X21.45341 Y91.48502
G01 X21.28981 Y91.51980
G01 X21.26596 Y91.52754
G01 X21.11318 Y91.59556
G01 X21.09146 Y91.60811
G01 X20.95616 Y91.70641
G01 X20.93752 Y91.72320
G01 X20.82560 Y91.84748
G01 X20.81085 Y91.86778
G01 X20.72723 Y92.01263
G01 X20.71702 Y92.03554
G01 X20.66535 Y92.19460
G01 X20.66012 Y92.21913
G01 X20.64265 Y92.38548
G01 X20.64265 Y89.84548
G01 X20.64265 Y89.87055
G01 X20.66012 Y90.03689
G01 X20.66535 Y90.06143
G01 X20.71702 Y90.22048
G01 X20.72723 Y90.24339
G01 X20.81085 Y90.38825
G01 X20.82560 Y90.40855
G01 X20.93752 Y90.53283
G01 X20.95616 Y90.54962
G01 X21.09146 Y90.64791
G01 X21.11318 Y90.66046
G01 X21.26596 Y90.72848
G01 X21.28981 Y90.73623
G01 X21.45341 Y90.77100
G01 X21.47836 Y90.77362
G01 X21.64562 Y90.77362
G01 X21.67056 Y90.77100
G01 X21.83416 Y90.73623
G01 X21.85801 Y90.72848
G01 X22.01079 Y90.66046
G01 X22.03251 Y90.64791
G01 X22.16782 Y90.54962
G01 X22.18646 Y90.53283
G01 X22.29837 Y90.40855
G01 X22.31313 Y90.38825
G01 X22.39675 Y90.24339
G01 X22.40696 Y90.22048
G01 X22.45862 Y90.06143
G01 X22.46385 Y90.03689
G01 X22.48133 Y89.87055
G01 X22.48133 Y89.84548
G01 X22.46385 Y89.67913
G01 X22.45862 Y89.65460
G01 X22.40696 Y89.49554
G01 X22.39675 Y89.47263
G01 X22.31313 Y89.32778
G01 X22.29837 Y89.30748
G01 X22.18646 Y89.18320
G01 X22.16782 Y89.16641
G01 X22.03251 Y89.06811
G01 X22.01079 Y89.05556
G01 X21.85801 Y88.98754
G01 X21.83416 Y88.97980
G01 X21.67056 Y88.94502
G01 X21.64562 Y88.94241
G01 X21.47836 Y88.94241
G01 X21.45341 Y88.94502
G01 X21.28981 Y88.97980
G01 X21.26596 Y88.98754
G01 X21.11318 Y89.05556
G01 X21.09146 Y89.06811
G01 X20.95616 Y89.16641
G01 X20.93752 Y89.18320
G01 X20.82560 Y89.30748
G01 X20.81085 Y89.32778
G01 X20.72723 Y89.47263
G01 X20.71702 Y89.49554
G01 X20.66535 Y89.65460
G01 X20.66012 Y89.67913
G01 X20.64265 Y89.84548
G01 X20.64265 Y87.30548
G01 X20.64265 Y87.33055
G01 X20.66012 Y87.49689
G01 X20.66535 Y87.52143
G01 X20.71702 Y87.68048
G01 X20.72723 Y87.70339
G01 X20.81085 Y87.84825
G01 X20.82560 Y87.86855
G01 X20.93752 Y87.99283
G01 X20.95616 Y88.00962
G01 X21.09146 Y88.10791
G01 X21.11318 Y88.12046
G01 X21.26596 Y88.18848
G01 X21.28981 Y88.19623
G01 X21.45341 Y88.23100
G01 X21.47836 Y88.23362
G01 X21.64562 Y88.23362
G01 X21.67056 Y88.23100
G01 X21.83416 Y88.19623
G01 X21.85801 Y88.18848
G01 X22.01079 Y88.12046
G01 X22.03251 Y88.10791
G01 X22.16782 Y88.00962
G01 X22.18646 Y87.99283
G01 X22.29837 Y87.86855
G01 X22.31313 Y87.84825
G01 X22.39675 Y87.70339
G01 X22.40696 Y87.68048
G01 X22.45862 Y87.52143
G01 X22.46385 Y87.49689
G01 X22.48133 Y87.33055
G01 X22.48133 Y87.30548
G01 X22.46385 Y87.13913
G01 X22.45862 Y87.11460
G01 X22.40696 Y86.95554
G01 X22.39675 Y86.93263
G01 X22.31313 Y86.78778
G01 X22.29837 Y86.76748
G01 X22.18646 Y86.64320
G01 X22.16782 Y86.62641
G01 X22.03251 Y86.52811
G01 X22.01079 Y86.51556
G01 X21.85801 Y86.44754
G01 X21.83416 Y86.43980
G01 X21.67056 Y86.40502
G01 X21.64562 Y86.40241
G01 X21.47836 Y86.40241
G01 X21.45341 Y86.40502
G01 X21.28981 Y86.43980
G01 X21.26596 Y86.44754
G01 X21.11318 Y86.51556
G01 X21.09146 Y86.52811
G01 X20.95616 Y86.62641
G01 X20.93752 Y86.64320
G01 X20.82560 Y86.76748
G01 X20.81085 Y86.78778
G01 X20.72723 Y86.93263
G01 X20.71702 Y86.95554
G01 X20.66535 Y87.11460
G01 X20.66012 Y87.13913
G01 X20.64265 Y87.30548
G01 X20.64265 Y84.76548
G01 X20.64265 Y84.79055
G01 X20.66012 Y84.95689
G01 X20.66535 Y84.98143
G01 X20.71702 Y85.14048
G01 X20.72723 Y85.16339
G01 X20.81085 Y85.30825
G01 X20.82560 Y85.32855
G01 X20.93752 Y85.45283
G01 X20.95616 Y85.46962
G01 X21.09146 Y85.56791
G01 X21.11318 Y85.58046
G01 X21.26596 Y85.64848
G01 X21.28981 Y85.65623
G01 X21.45341 Y85.69100
G01 X21.47836 Y85.69362
G01 X21.64562 Y85.69362
G01 X21.67056 Y85.69100
G01 X21.83416 Y85.65623
G01 X21.85801 Y85.64848
G01 X22.01079 Y85.58046
G01 X22.03251 Y85.56791
G01 X22.16782 Y85.46962
G01 X22.18646 Y85.45283
G01 X22.29837 Y85.32855
G01 X22.31313 Y85.30825
G01 X22.39675 Y85.16339
G01 X22.40696 Y85.14048
G01 X22.45862 Y84.98143
G01 X22.46385 Y84.95689
G01 X22.48133 Y84.79055
G01 X22.48133 Y84.76548
G01 X22.46385 Y84.59913
G01 X22.45862 Y84.57460
G01 X22.40696 Y84.41554
G01 X22.39675 Y84.39263
G01 X22.31313 Y84.24778
G01 X22.29837 Y84.22748
G01 X22.18646 Y84.10320
G01 X22.16782 Y84.08641
G01 X22.03251 Y83.98811
G01 X22.01079 Y83.97556
G01 X21.85801 Y83.90754
G01 X21.83416 Y83.89980
G01 X21.67056 Y83.86502
G01 X21.64562 Y83.86241
G01 X21.47836 Y83.86241
G01 X21.45341 Y83.86502
G01 X21.28981 Y83.89980
G01 X21.26596 Y83.90754
G01 X21.11318 Y83.97556
G01 X21.09146 Y83.98811
G01 X20.95616 Y84.08641
G01 X20.93752 Y84.10320
G01 X20.82560 Y84.22748
G01 X20.81085 Y84.24778
G01 X20.72723 Y84.39263
G01 X20.71702 Y84.41554
G01 X20.66535 Y84.57460
G01 X20.66012 Y84.59913
G01 X20.64265 Y84.76548
G01 X20.64265 Y82.22548
G01 X20.64265 Y82.25055
G01 X20.66012 Y82.41689
G01 X20.66535 Y82.44143
G01 X20.71702 Y82.60048
G01 X20.72723 Y82.62339
G01 X20.81085 Y82.76825
G01 X20.82560 Y82.78854
G01 X20.93752 Y82.91283
G01 X20.95616 Y82.92962
G01 X21.09146 Y83.02791
G01 X21.11318 Y83.04046
G01 X21.26596 Y83.10848
G01 X21.28981 Y83.11623
G01 X21.45341 Y83.15100
G01 X21.47836 Y83.15362
G01 X21.64562 Y83.15362
G01 X21.67056 Y83.15100
G01 X21.83416 Y83.11623
G01 X21.85801 Y83.10848
G01 X22.01079 Y83.04046
G01 X22.03251 Y83.02791
G01 X22.16782 Y82.92962
G01 X22.18646 Y82.91283
G01 X22.29837 Y82.78854
G01 X22.31313 Y82.76825
G01 X22.39675 Y82.62339
G01 X22.40696 Y82.60048
G01 X22.45862 Y82.44143
G01 X22.46385 Y82.41689
G01 X22.48133 Y82.25055
G01 X22.48133 Y82.22548
G01 X22.46385 Y82.05913
G01 X22.45862 Y82.03460
G01 X22.40696 Y81.87554
G01 X22.39675 Y81.85263
G01 X22.31313 Y81.70778
G01 X22.29837 Y81.68748
G01 X22.18646 Y81.56320
G01 X22.16782 Y81.54641
G01 X22.03251 Y81.44811
G01 X22.01079 Y81.43556
G01 X21.85801 Y81.36754
G01 X21.83416 Y81.35980
G01 X21.67056 Y81.32502
G01 X21.64562 Y81.32241
G01 X21.47836 Y81.32241
G01 X21.45341 Y81.32502
G01 X21.28981 Y81.35980
G01 X21.26596 Y81.36754
G01 X21.11318 Y81.43556
G01 X21.09146 Y81.44811
G01 X20.95616 Y81.54641
G01 X20.93752 Y81.56320
G01 X20.82560 Y81.68748
G01 X20.81085 Y81.70778
G01 X20.72723 Y81.85263
G01 X20.71702 Y81.87554
G01 X20.66535 Y82.03460
G01 X20.66012 Y82.05913
G01 X20.64265 Y82.22548
G01 X20.64265 Y79.68548
G01 X20.64265 Y79.71055
G01 X20.66012 Y79.87689
G01 X20.66535 Y79.90143
G01 X20.71702 Y80.06048
G01 X20.72723 Y80.08339
G01 X20.81085 Y80.22825
G01 X20.82560 Y80.24855
G01 X20.93752 Y80.37283
G01 X20.95616 Y80.38962
G01 X21.09146 Y80.48791
G01 X21.11318 Y80.50046
G01 X21.26596 Y80.56848
G01 X21.28981 Y80.57623
G01 X21.45341 Y80.61100
G01 X21.47836 Y80.61362
G01 X21.64562 Y80.61362
G01 X21.67056 Y80.61100
G01 X21.83416 Y80.57623
G01 X21.85801 Y80.56848
G01 X22.01079 Y80.50046
G01 X22.03251 Y80.48791
G01 X22.16782 Y80.38962
G01 X22.18646 Y80.37283
G01 X22.29837 Y80.24855
G01 X22.31313 Y80.22825
G01 X22.39675 Y80.08339
G01 X22.40696 Y80.06048
G01 X22.45862 Y79.90143
G01 X22.46385 Y79.87689
G01 X22.48133 Y79.71055
G01 X22.48133 Y79.68548
G01 X22.46385 Y79.51913
G01 X22.45862 Y79.49460
G01 X22.40696 Y79.33554
G01 X22.39675 Y79.31263
G01 X22.31313 Y79.16778
G01 X22.29837 Y79.14748
G01 X22.18646 Y79.02320
G01 X22.16782 Y79.00641
G01 X22.03251 Y78.90811
G01 X22.01079 Y78.89556
G01 X21.85801 Y78.82754
G01 X21.83416 Y78.81979
G01 X21.67056 Y78.78502
G01 X21.64562 Y78.78241
G01 X21.47836 Y78.78241
G01 X21.45341 Y78.78502
G01 X21.28981 Y78.81979
G01 X21.26596 Y78.82754
G01 X21.11318 Y78.89556
G01 X21.09146 Y78.90811
G01 X20.95616 Y79.00641
G01 X20.93752 Y79.02320
G01 X20.82560 Y79.14748
G01 X20.81085 Y79.16778
G01 X20.72723 Y79.31263
G01 X20.71702 Y79.33554
G01 X20.66535 Y79.49460
G01 X20.66012 Y79.51913
G01 X20.64265 Y79.68548
G01 X20.64265 Y77.17055
G01 X20.66012 Y77.33689
G01 X20.66535 Y77.36143
G01 X20.71702 Y77.52048
G01 X20.72723 Y77.54339
G01 X20.81085 Y77.68825
G01 X20.82560 Y77.70855
G01 X20.93752 Y77.83283
G01 X20.95616 Y77.84962
G01 X21.09146 Y77.94791
G01 X21.11318 Y77.96046
G01 X21.26596 Y78.02848
G01 X21.28981 Y78.03623
G01 X21.45341 Y78.07100
G01 X21.47836 Y78.07362
G01 X21.64562 Y78.07362
G01 X21.67056 Y78.07100
G01 X21.83416 Y78.03623
G01 X21.85801 Y78.02848
G01 X22.01079 Y77.96046
G01 X22.03251 Y77.94791
G01 X22.16782 Y77.84962
G01 X22.18646 Y77.83283
G01 X22.29837 Y77.70855
G01 X22.31313 Y77.68825
G01 X22.39675 Y77.54339
G01 X22.40696 Y77.52048
G01 X22.45862 Y77.36143
G01 X22.46385 Y77.33689
G01 X22.48133 Y77.17055
G01 X22.48133 Y77.14548
G01 X22.46385 Y76.97913
G01 X22.45862 Y76.95460
G01 X22.40696 Y76.79554
G01 X22.39675 Y76.77263
G01 X22.31313 Y76.62783
G01 X22.29837 Y76.60748
G01 X22.18646 Y76.48320
G01 X22.16782 Y76.46643
G01 X22.03251 Y76.36814
G01 X22.01079 Y76.35556
G01 X21.85801 Y76.28754
G01 X21.83416 Y76.27980
G01 X21.67056 Y76.24502
G01 X21.64562 Y76.24241
G01 X21.47836 Y76.24241
G01 X21.45341 Y76.24502
G01 X21.28981 Y76.27980
G01 X21.26596 Y76.28754
G01 X21.11318 Y76.35556
G01 X21.09146 Y76.36814
G01 X20.95616 Y76.46643
G01 X20.93752 Y76.48320
G01 X20.82560 Y76.60748
G01 X20.81085 Y76.62783
G01 X20.72723 Y76.77263
G01 X20.71702 Y76.79554
G01 X20.66535 Y76.95460
G01 X20.66012 Y76.97913
G01 X20.64265 Y77.14548
G01 X20.64265 Y77.17055
G04 P0 ( dwell for no time -- G64 should not smooth over this point )
G00 Z5.00000 ( retract )

G00 X25.56664 Y67.03747 ( rapid move to begin. )
G01 F150.00000
( Mill infeed pass 1/1 )
G01 Z-0.20000
G04 P0 ( dwell for no time -- G64 should not smooth over this point )
G01 F300.00000
G01 X25.56664 Y67.03747
G01 X25.56664 Y67.06257
G01 X25.58630 Y67.24969
G01 X25.59153 Y67.27423
G01 X25.64967 Y67.45317
G01 X25.65988 Y67.47608
G01 X25.75394 Y67.63902
G01 X25.76870 Y67.65931
G01 X25.89460 Y67.79914
G01 X25.91322 Y67.81593
G01 X26.06545 Y67.92652
G01 X26.08719 Y67.93907
G01 X26.25907 Y68.01560
G01 X26.28292 Y68.02335
G01 X26.46697 Y68.06246
G01 X26.49191 Y68.06508
G01 X26.68007 Y68.06508
G01 X26.70502 Y68.06246
G01 X26.88904 Y68.02335
G01 X26.91292 Y68.01560
G01 X27.08480 Y67.93907
G01 X27.10652 Y67.92652
G01 X27.25874 Y67.81593
G01 X27.27738 Y67.79914
G01 X27.40329 Y67.65931
G01 X27.41802 Y67.63902
G01 X27.51210 Y67.47608
G01 X27.52231 Y67.45317
G01 X27.58045 Y67.27423
G01 X27.58566 Y67.24969
G01 X27.60532 Y67.06257
G01 X27.60532 Y67.03747
G01 X27.58566 Y66.85035
G01 X27.58045 Y66.82581
G01 X27.52231 Y66.64687
G01 X27.51210 Y66.62396
G01 X27.41802 Y66.46102
G01 X27.40329 Y66.44070
G01 X27.27738 Y66.30090
G01 X27.25874 Y66.28411
G01 X27.10652 Y66.17352
G01 X27.08480 Y66.16097
G01 X26.91292 Y66.08444
G01 X26.88904 Y66.07669
G01 X26.70502 Y66.03758
G01 X26.68007 Y66.03493
G01 X26.49191 Y66.03493
G01 X26.46697 Y66.03758
G01 X26.28292 Y66.07669
G01 X26.25907 Y66.08444
G01 X26.08719 Y66.16097
G01 X26.06545 Y66.17352
G01 X25.91322 Y66.28411
G01 X25.89460 Y66.30090
G01 X25.76870 Y66.44070
G01 X25.75394 Y66.46102
G01 X25.65988 Y66.62396
G01 X25.64967 Y66.64687
G01 X25.59153 Y66.82581
G01 X25.58630 Y66.85035
G01 X25.56664 Y67.03747
G01 X25.56664 Y57.03747
G01 X25.58630 Y56.85034
G01 X25.59153 Y56.82581
G01 X25.64967 Y56.64687
G01 X25.65988 Y56.62395
G01 X25.75394 Y56.46101
G01 X25.76870 Y56.44072
G01 X25.89460 Y56.30089
G01 X25.91322 Y56.28410
G01 X26.06545 Y56.17351
G01 X26.08719 Y56.16096
G01 X26.25907 Y56.08443
G01 X26.28292 Y56.07669
G01 X26.46697 Y56.03757
G01 X26.49191 Y56.03495
G01 X26.68007 Y56.03495
G01 X26.70502 Y56.03757
G01 X26.88904 Y56.07669
G01 X26.91292 Y56.08443
G01 X27.08480 Y56.16096
G01 X27.10652 Y56.17351
G01 X27.25874 Y56.28410
G01 X27.27738 Y56.30089
G01 X27.40329 Y56.44072
G01 X27.41802 Y56.46101
G01 X27.51210 Y56.62395
G01 X27.52231 Y56.64687
G01 X27.58045 Y56.82581
G01 X27.58566 Y56.85034
G01 X27.60532 Y57.03747
G01 X27.60532 Y57.06256
G01 X27.58566 Y57.24968
G01 X27.58045 Y57.27422
G01 X27.52231 Y57.45316
G01 X27.51210 Y57.47607
G01 X27.41802 Y57.63901
G01 X27.40329 Y57.65931
G01 X27.27738 Y57.79914
G01 X27.25874 Y57.81593
G01 X27.10652 Y57.92652
G01 X27.08480 Y57.93906
G01 X26.91292 Y58.01559
G01 X26.88904 Y58.02334
G01 X26.70502 Y58.06246
G01 X26.68007 Y58.06507
G01 X26.49191 Y58.06507
G01 X26.46697 Y58.06246
G01 X26.28292 Y58.02334
G01 X26.25907 Y58.01559
G01 X26.08719 Y57.93906
G01 X26.06545 Y57.92652
G01 X25.91322 Y57.81593
G01 X25.89460 Y57.79914
G01 X25.76870 Y57.65931
G01 X25.75394 Y57.63901
G01 X25.65988 Y57.47607
G01 X25.64967 Y57.45316
G01 X25.59153 Y57.27422
G01 X25.58630 Y57.24968
G01 X25.56664 Y57.06256
G01 X25.56664 Y57.03747
G01 X24.19065 Y52.76148
G01 X24.19065 Y52.78655
G01 X24.21031 Y52.97367
G01 X24.21554 Y52.99821
G01 X24.27368 Y53.17715
G01 X24.28386 Y53.20008
G01 X24.37795 Y53.36303
G01 X24.38920 Y53.37849
G01 X24.39270 Y53.38332
G01 X24.51859 Y53.52315
G01 X24.53723 Y53.53994
G01 X24.68945 Y53.65053
G01 X24.71117 Y53.66305
G01 X24.88308 Y53.73958
G01 X24.90693 Y53.74735
G01 X25.09097 Y53.78647
G01 X25.11592 Y53.78909
G01 X25.30406 Y53.78909
G01 X25.32902 Y53.78647
G01 X25.51305 Y53.74735
G01 X25.53692 Y53.73958
G01 X25.70880 Y53.66305
G01 X25.73052 Y53.65053
G01 X25.88274 Y53.53994
G01 X25.90139 Y53.52315
G01 X26.02727 Y53.38332
G01 X26.04203 Y53.36303
G01 X26.13611 Y53.20008
G01 X26.14629 Y53.17715
G01 X26.20446 Y52.99821
G01 X26.20967 Y52.97367
G01 X26.22933 Y52.78655
G01 X26.22933 Y52.76148
G01 X26.20967 Y52.57436
G01 X26.20446 Y52.54982
G01 X26.14629 Y52.37088
G01 X26.13611 Y52.34794
G01 X26.04203 Y52.18500
G01 X26.02727 Y52.16470
G01 X25.90139 Y52.02488
G01 X25.88274 Y52.00809
G01 X25.73052 Y51.89750
G01 X25.70880 Y51.88497
G01 X25.53692 Y51.80844
G01 X25.51305 Y51.80067
G01 X25.32902 Y51.76156
G01 X25.30406 Y51.75894
G01 X25.11592 Y51.75894
G01 X25.09097 Y51.76156
G01 X24.90693 Y51.80067
G01 X24.88308 Y51.80844
G01 X24.71117 Y51.88497
G01 X24.68945 Y51.89750
G01 X24.53723 Y52.00809
G01 X24.51859 Y52.02488
G01 X24.39270 Y52.16470
G01 X24.37795 Y52.18500
G01 X24.28386 Y52.34794
G01 X24.27368 Y52.37088
G01 X24.21554 Y52.54982
G01 X24.21031 Y52.57436
G01 X24.19065 Y52.76148
G04 P0 ( dwell for no time -- G64 should not smooth over this point )
G00 Z5.00000 ( retract )

G00 X29.38065 Y57.06256 ( rapid move to begin. )
G01 F150.00000
( Mill infeed pass 1/1 )
G01 Z-0.20000
G04 P0 ( dwell for no time -- G64 should not smooth over this point )
G01 F300.00000
G01 X29.38065 Y57.06256
G01 X29.38065 Y57.03747
G01 X29.40577 Y56.79838
G01 X29.41098 Y56.77384
G01 X29.48528 Y56.54519
G01 X29.49549 Y56.52228
G01 X29.61570 Y56.31405
G01 X29.63044 Y56.29375
G01 X29.79132 Y56.11509
G01 X29.80996 Y56.09833
G01 X30.00445 Y55.95700
G01 X30.02617 Y55.94445
G01 X30.24580 Y55.84666
G01 X30.26968 Y55.83892
G01 X30.50483 Y55.78893
G01 X30.52977 Y55.78631
G01 X30.77019 Y55.78631
G01 X30.79515 Y55.78893
G01 X31.03031 Y55.83892
G01 X31.05416 Y55.84666
G01 X31.27379 Y55.94445
G01 X31.29553 Y55.95700
G01 X31.49002 Y56.09833
G01 X31.50867 Y56.11509
G01 X31.66952 Y56.29375
G01 X31.68428 Y56.31405
G01 X31.80450 Y56.52228
G01 X31.81468 Y56.54519
G01 X31.88898 Y56.77384
G01 X31.89421 Y56.79838
G01 X31.91933 Y57.03747
G01 X31.91933 Y57.06256
G01 X31.89421 Y57.30165
G01 X31.88898 Y57.32619
G01 X31.81468 Y57.55484
G01 X31.80450 Y57.57775
G01 X31.68428 Y57.78595
G01 X31.66952 Y57.80627
G01 X31.50867 Y57.98494
G01 X31.49002 Y58.00170
G01 X31.29553 Y58.14303
G01 X31.27379 Y58.15557
G01 X31.05416 Y58.25336
G01 X31.03031 Y58.26111
G01 X30.79515 Y58.31110
G01 X30.77019 Y58.31371
G01 X30.52977 Y58.31371
G01 X30.50483 Y58.31110
G01 X30.26968 Y58.26111
G01 X30.24580 Y58.25336
G01 X30.02617 Y58.15557
G01 X30.00445 Y58.14303
G01 X29.80996 Y58.00170
G01 X29.79132 Y57.98494
G01 X29.63044 Y57.80627
G01 X29.61570 Y57.78595
G01 X29.49549 Y57.57775
G01 X29.48528 Y57.55484
G01 X29.41098 Y57.32619
G01 X29.40577 Y57.30165
G01 X29.38065 Y57.06256
G01 X29.38065 Y67.06257
G01 X29.40577 Y67.30166
G01 X29.41098 Y67.32619
G01 X29.48528 Y67.55484
G01 X29.49549 Y67.57776
G01 X29.51410 Y67.61001
G01 X29.61570 Y67.78596
G01 X29.63044 Y67.80625
G01 X29.79132 Y67.98492
G01 X29.80996 Y68.00171
G01 X30.00445 Y68.14303
G01 X30.02617 Y68.15558
G01 X30.24580 Y68.25334
G01 X30.26968 Y68.26112
G01 X30.50483 Y68.31108
G01 X30.52977 Y68.31372
G01 X30.77019 Y68.31372
G01 X30.79515 Y68.31108
G01 X31.03031 Y68.26112
G01 X31.05416 Y68.25334
G01 X31.27379 Y68.15558
G01 X31.29553 Y68.14303
G01 X31.49002 Y68.00171
G01 X31.50867 Y67.98492
G01 X31.66952 Y67.80625
G01 X31.68428 Y67.78596
G01 X31.80450 Y67.57776
G01 X31.81468 Y67.55484
G01 X31.88898 Y67.32619
G01 X31.89421 Y67.30166
G01 X31.91933 Y67.06257
G01 X31.91933 Y67.03747
G01 X31.89421 Y66.79838
G01 X31.88898 Y66.77382
G01 X31.81468 Y66.54519
G01 X31.80450 Y66.52226
G01 X31.68428 Y66.31405
G01 X31.66952 Y66.29376
G01 X31.50867 Y66.11510
G01 X31.49002 Y66.09831
G01 X31.29553 Y65.95701
G01 X31.27379 Y65.94446
G01 X31.05416 Y65.84667
G01 X31.03031 Y65.83892
G01 X30.79515 Y65.78893
G01 X30.77019 Y65.78632
G01 X30.52977 Y65.78632
G01 X30.50483 Y65.78893
G01 X30.26968 Y65.83892
G01 X30.24580 Y65.84667
G01 X30.02617 Y65.94446
G01 X30.00445 Y65.95701
G01 X29.80996 Y66.09831
G01 X29.79132 Y66.11510
G01 X29.63044 Y66.29376
G01 X29.61570 Y66.31405
G01 X29.49549 Y66.52226
G01 X29.48528 Y66.54519
G01 X29.41098 Y66.77382
G01 X29.40577 Y66.79838
G01 X29.38065 Y67.03747
G01 X29.51410 Y67.61001
G01 X30.93831 Y73.71988
G01 X31.75665 Y77.23047
G01 X31.75665 Y77.25556
G01 X31.77631 Y77.44268
G01 X31.78154 Y77.46722
G01 X31.83968 Y77.64616
G01 X31.84986 Y77.66907
G01 X31.94395 Y77.83201
G01 X31.95870 Y77.85231
G01 X32.08458 Y77.99214
G01 X32.10323 Y78.00893
G01 X32.25545 Y78.11952
G01 X32.27717 Y78.13206
G01 X32.44907 Y78.20859
G01 X32.47293 Y78.21634
G01 X32.65697 Y78.25546
G01 X32.68192 Y78.25807
G01 X32.87005 Y78.25807
G01 X32.89502 Y78.25546
G01 X33.07905 Y78.21634
G01 X33.10292 Y78.20859
G01 X33.27480 Y78.13206
G01 X33.29652 Y78.11952
G01 X33.44874 Y78.00893
G01 X33.46739 Y77.99214
G01 X33.59327 Y77.85231
G01 X33.60803 Y77.83201
G01 X33.70211 Y77.66907
G01 X33.71229 Y77.64616
G01 X33.77046 Y77.46722
G01 X33.77567 Y77.44268
G01 X33.79533 Y77.25556
G01 X33.79533 Y77.23047
G01 X33.77567 Y77.04334
G01 X33.77046 Y77.01881
G01 X33.71229 Y76.83987
G01 X33.70211 Y76.81695
G01 X33.60803 Y76.65401
G01 X33.59327 Y76.63372
G01 X33.46739 Y76.49389
G01 X33.44874 Y76.47710
G01 X33.29652 Y76.36651
G01 X33.27480 Y76.35396
G01 X33.10292 Y76.27743
G01 X33.07905 Y76.26969
G01 X32.89502 Y76.23057
G01 X32.87005 Y76.22795
G01 X32.68192 Y76.22795
G01 X32.65697 Y76.23057
G01 X32.47293 Y76.26969
G01 X32.44907 Y76.27743
G01 X32.27717 Y76.35396
G01 X32.25545 Y76.36651
G01 X32.10323 Y76.47710
G01 X32.08458 Y76.49389
G01 X31.95870 Y76.63372
G01 X31.94395 Y76.65401
G01 X31.84986 Y76.81695
G01 X31.83968 Y76.83987
G01 X31.78154 Y77.01881
G01 X31.77631 Y77.04334
G01 X31.75665 Y77.23047
G01 X31.63168 Y73.07256
G01 X31.63064 Y73.03746
G01 X31.64814 Y72.87114
G01 X31.65334 Y72.84660
G01 X31.70503 Y72.68755
G01 X31.71522 Y72.66461
G01 X31.77427 Y72.56233
G01 X31.79886 Y72.51978
G01 X31.81359 Y72.49949
G01 X31.92550 Y72.37521
G01 X31.94415 Y72.35842
G01 X32.07945 Y72.26012
G01 X32.10117 Y72.24757
G01 X32.25398 Y72.17955
G01 X32.27783 Y72.17180
G01 X32.44140 Y72.13703
G01 X32.46637 Y72.13439
G01 X32.63361 Y72.13439
G01 X32.65855 Y72.13703
G01 X32.82215 Y72.17180
G01 X32.84600 Y72.17955
G01 X32.99881 Y72.24757
G01 X33.02052 Y72.26012
G01 X33.15583 Y72.35842
G01 X33.17447 Y72.37521
G01 X33.28639 Y72.49949
G01 X33.30112 Y72.51978
G01 X33.38473 Y72.66461
G01 X33.39495 Y72.68755
G01 X33.44663 Y72.84660
G01 X33.45184 Y72.87114
G01 X33.46934 Y73.03746
G01 X33.46934 Y73.06255
G01 X33.45184 Y73.22887
G01 X33.44663 Y73.25344
G01 X33.39495 Y73.41249
G01 X33.38473 Y73.43540
G01 X33.30112 Y73.58023
G01 X33.28639 Y73.60053
G01 X33.17447 Y73.72483
G01 X33.15583 Y73.74160
G01 X33.02052 Y73.83992
G01 X32.99881 Y73.85247
G01 X32.84600 Y73.92049
G01 X32.82215 Y73.92824
G01 X32.65855 Y73.96301
G01 X32.63361 Y73.96563
G01 X32.46637 Y73.96563
G01 X32.44140 Y73.96301
G01 X32.27783 Y73.92824
G01 X32.25398 Y73.92049
G01 X32.10117 Y73.85247
G01 X32.07945 Y73.83992
G01 X31.94415 Y73.74160
G01 X31.92550 Y73.72483
G01 X31.81359 Y73.60053
G01 X31.79886 Y73.58023
G01 X31.71522 Y73.43540
G01 X31.70503 Y73.41249
G01 X31.65334 Y73.25344
G01 X31.64814 Y73.22887
G01 X31.63168 Y73.07256
G01 X31.63064 Y73.06255
G01 X31.63064 Y73.03746
G01 X31.77427 Y72.56233
G01 X33.44465 Y67.03747
G01 X33.62748 Y67.69553
G01 X36.23337 Y77.07438
G01 X36.23337 Y79.61438
G01 X36.23599 Y79.58944
G01 X36.27076 Y79.42584
G01 X36.27851 Y79.40199
G01 X36.34655 Y79.24921
G01 X36.35907 Y79.22749
G01 X36.45740 Y79.09218
G01 X36.47419 Y79.07354
G01 X36.59847 Y78.96163
G01 X36.61876 Y78.94687
G01 X36.76360 Y78.86325
G01 X36.78651 Y78.85304
G01 X36.94559 Y78.80138
G01 X36.97012 Y78.79615
G01 X37.13644 Y78.77867
G01 X37.14899 Y78.77801
G01 X37.94899 Y78.77801
G01 X37.96154 Y78.77867
G01 X38.12785 Y78.79615
G01 X38.15239 Y78.80138
G01 X38.31147 Y78.85304
G01 X38.33438 Y78.86325
G01 X38.47921 Y78.94687
G01 X38.49951 Y78.96163
G01 X38.62379 Y79.07354
G01 X38.64058 Y79.09218
G01 X38.73888 Y79.22749
G01 X38.75142 Y79.24921
G01 X38.81945 Y79.40199
G01 X38.82722 Y79.42584
G01 X38.86199 Y79.58944
G01 X38.86461 Y79.61438
G01 X38.86461 Y79.78164
G01 X38.86199 Y79.80658
G01 X38.82722 Y79.97019
G01 X38.81945 Y79.99404
G01 X38.75142 Y80.14682
G01 X38.73888 Y80.16854
G01 X38.64058 Y80.30384
G01 X38.62379 Y80.32248
G01 X38.49951 Y80.43440
G01 X38.47921 Y80.44915
G01 X38.33438 Y80.53277
G01 X38.31147 Y80.54298
G01 X38.15239 Y80.59465
G01 X38.12785 Y80.59988
G01 X37.96154 Y80.61735
G01 X37.94899 Y80.61801
G01 X37.14899 Y80.61801
G01 X37.13644 Y80.61735
G01 X36.97012 Y80.59988
G01 X36.94559 Y80.59465
G01 X36.78651 Y80.54298
G01 X36.76360 Y80.53277
G01 X36.61876 Y80.44915
G01 X36.59847 Y80.43440
G01 X36.47419 Y80.32248
G01 X36.45740 Y80.30384
G01 X36.35907 Y80.16854
G01 X36.34655 Y80.14682
G01 X36.27851 Y79.99404
G01 X36.27076 Y79.97019
G01 X36.23599 Y79.80658
G01 X36.23337 Y79.78164
G01 X36.23337 Y79.61438
G01 X36.23337 Y82.15438
G01 X36.23599 Y82.12944
G01 X36.27076 Y81.96584
G01 X36.27851 Y81.94199
G01 X36.34655 Y81.78921
G01 X36.35907 Y81.76749
G01 X36.45740 Y81.63218
G01 X36.47419 Y81.61354
G01 X36.59847 Y81.50163
G01 X36.61876 Y81.48687
G01 X36.76360 Y81.40325
G01 X36.78651 Y81.39304
G01 X36.94559 Y81.34138
G01 X36.97012 Y81.33615
G01 X37.13644 Y81.31867
G01 X37.14899 Y81.31801
G01 X37.94899 Y81.31801
G01 X37.96154 Y81.31867
G01 X38.12785 Y81.33615
G01 X38.15239 Y81.34138
G01 X38.31147 Y81.39304
G01 X38.33438 Y81.40325
G01 X38.47921 Y81.48687
G01 X38.49951 Y81.50163
G01 X38.62379 Y81.61354
G01 X38.64058 Y81.63218
G01 X38.73888 Y81.76749
G01 X38.75142 Y81.78921
G01 X38.81945 Y81.94199
G01 X38.82722 Y81.96584
G01 X38.86199 Y82.12944
G01 X38.86461 Y82.15438
G01 X38.86461 Y82.32164
G01 X38.86199 Y82.34659
G01 X38.82722 Y82.51019
G01 X38.81945 Y82.53404
G01 X38.75142 Y82.68682
G01 X38.73888 Y82.70854
G01 X38.64058 Y82.84384
G01 X38.62379 Y82.86248
G01 X38.49951 Y82.97440
G01 X38.47921 Y82.98915
G01 X38.33438 Y83.07277
G01 X38.31147 Y83.08298
G01 X38.15239 Y83.13465
G01 X38.12785 Y83.13988
G01 X37.96154 Y83.15735
G01 X37.94899 Y83.15801
G01 X37.14899 Y83.15801
G01 X37.13644 Y83.15735
G01 X36.97012 Y83.13988
G01 X36.94559 Y83.13465
G01 X36.78651 Y83.08298
G01 X36.76360 Y83.07277
G01 X36.61876 Y82.98915
G01 X36.59847 Y82.97440
G01 X36.47419 Y82.86248
G01 X36.45740 Y82.84384
G01 X36.35907 Y82.70854
G01 X36.34655 Y82.68682
G01 X36.27851 Y82.53404
G01 X36.27076 Y82.51019
G01 X36.23599 Y82.34659
G01 X36.23337 Y82.32164
G01 X36.23337 Y82.15438
G01 X36.23337 Y84.69438
G01 X36.23599 Y84.66944
G01 X36.27076 Y84.50584
G01 X36.27851 Y84.48199
G01 X36.34655 Y84.32921
G01 X36.35907 Y84.30749
G01 X36.45740 Y84.17218
G01 X36.47419 Y84.15354
G01 X36.59847 Y84.04163
G01 X36.61876 Y84.02687
G01 X36.76360 Y83.94325
G01 X36.78651 Y83.93304
G01 X36.94559 Y83.88138
G01 X36.97012 Y83.87615
G01 X37.13644 Y83.85867
G01 X37.14899 Y83.85801
G01 X37.94899 Y83.85801
G01 X37.96154 Y83.85867
G01 X38.12785 Y83.87615
G01 X38.15239 Y83.88138
G01 X38.31147 Y83.93304
G01 X38.33438 Y83.94325
G01 X38.47921 Y84.02687
G01 X38.49951 Y84.04163
G01 X38.62379 Y84.15354
G01 X38.64058 Y84.17218
G01 X38.73888 Y84.30749
G01 X38.75142 Y84.32921
G01 X38.81945 Y84.48199
G01 X38.82722 Y84.50584
G01 X38.86199 Y84.66944
G01 X38.86461 Y84.69438
G01 X38.86461 Y84.86164
G01 X38.86199 Y84.88659
G01 X38.82722 Y85.05019
G01 X38.81945 Y85.07404
G01 X38.75142 Y85.22682
G01 X38.73888 Y85.24854
G01 X38.64058 Y85.38384
G01 X38.62379 Y85.40248
G01 X38.49951 Y85.51440
G01 X38.47921 Y85.52915
G01 X38.33438 Y85.61277
G01 X38.31147 Y85.62298
G01 X38.15239 Y85.67465
G01 X38.12785 Y85.67988
G01 X37.96154 Y85.69735
G01 X37.94899 Y85.69801
G01 X37.14899 Y85.69801
G01 X37.13644 Y85.69735
G01 X36.97012 Y85.67988
G01 X36.94559 Y85.67465
G01 X36.78651 Y85.62298
G01 X36.76360 Y85.61277
G01 X36.61876 Y85.52915
G01 X36.59847 Y85.51440
G01 X36.47419 Y85.40248
G01 X36.45740 Y85.38384
G01 X36.35907 Y85.24854
G01 X36.34655 Y85.22682
G01 X36.27851 Y85.07404
G01 X36.27076 Y85.05019
G01 X36.23599 Y84.88659
G01 X36.23337 Y84.86164
G01 X36.23337 Y84.69438
G01 X36.23337 Y87.23438
G01 X36.23599 Y87.20944
G01 X36.27076 Y87.04584
G01 X36.27851 Y87.02199
G01 X36.34655 Y86.86921
G01 X36.35907 Y86.84749
G01 X36.45740 Y86.71218
G01 X36.47419 Y86.69354
G01 X36.59847 Y86.58163
G01 X36.61876 Y86.56687
G01 X36.76360 Y86.48325
G01 X36.78651 Y86.47304
G01 X36.94559 Y86.42138
G01 X36.97012 Y86.41615
G01 X37.13644 Y86.39867
G01 X37.14899 Y86.39801
G01 X37.94899 Y86.39801
G01 X37.96154 Y86.39867
G01 X38.12785 Y86.41615
G01 X38.15239 Y86.42138
G01 X38.31147 Y86.47304
G01 X38.33438 Y86.48325
G01 X38.47921 Y86.56687
G01 X38.49951 Y86.58163
G01 X38.62379 Y86.69354
G01 X38.64058 Y86.71218
G01 X38.73888 Y86.84749
G01 X38.75142 Y86.86921
G01 X38.81945 Y87.02199
G01 X38.82722 Y87.04584
G01 X38.86199 Y87.20944
G01 X38.86461 Y87.23438
G01 X38.86461 Y87.40164
G01 X38.86199 Y87.42659
G01 X38.82722 Y87.59019
G01 X38.81945 Y87.61404
G01 X38.75142 Y87.76682
G01 X38.73888 Y87.78853
G01 X38.64058 Y87.92384
G01 X38.62379 Y87.94248
G01 X38.49951 Y88.05440
G01 X38.47921 Y88.06915
G01 X38.33438 Y88.15277
G01 X38.31147 Y88.16298
G01 X38.15239 Y88.21465
G01 X38.12785 Y88.21988
G01 X37.96154 Y88.23735
G01 X37.94899 Y88.23801
G01 X37.14899 Y88.23801
G01 X37.13644 Y88.23735
G01 X36.97012 Y88.21988
G01 X36.94559 Y88.21465
G01 X36.78651 Y88.16298
G01 X36.76360 Y88.15277
G01 X36.61876 Y88.06915
G01 X36.59847 Y88.05440
G01 X36.47419 Y87.94248
G01 X36.45740 Y87.92384
G01 X36.35907 Y87.78853
G01 X36.34655 Y87.76682
G01 X36.27851 Y87.61404
G01 X36.27076 Y87.59019
G01 X36.23599 Y87.42659
G01 X36.23337 Y87.40164
G01 X36.23337 Y87.23438
G01 X36.23337 Y89.77438
G01 X36.23599 Y89.74944
G01 X36.27076 Y89.58584
G01 X36.27851 Y89.56199
G01 X36.34655 Y89.40921
G01 X36.35907 Y89.38749
G01 X36.45740 Y89.25218
G01 X36.47419 Y89.23354
G01 X36.59847 Y89.12163
G01 X36.61876 Y89.10687
G01 X36.76360 Y89.02325
G01 X36.78651 Y89.01304
G01 X36.94559 Y88.96138
G01 X36.97012 Y88.95615
G01 X37.13644 Y88.93867
G01 X37.14899 Y88.93801
G01 X37.94899 Y88.93801
G01 X37.96154 Y88.93867
G01 X38.12785 Y88.95615
G01 X38.15239 Y88.96138
G01 X38.31147 Y89.01304
G01 X38.33438 Y89.02325
G01 X38.47921 Y89.10687
G01 X38.49951 Y89.12163
G01 X38.62379 Y89.23354
G01 X38.64058 Y89.25218
G01 X38.73888 Y89.38749
G01 X38.75142 Y89.40921
G01 X38.81945 Y89.56199
G01 X38.82722 Y89.58584
G01 X38.86199 Y89.74944
G01 X38.86461 Y89.77438
G01 X38.86461 Y89.94164
G01 X38.86199 Y89.96658
G01 X38.82722 Y90.13019
G01 X38.81945 Y90.15404
G01 X38.75142 Y90.30682
G01 X38.73888 Y90.32854
G01 X38.64058 Y90.46384
G01 X38.62379 Y90.48248
G01 X38.49951 Y90.59440
G01 X38.47921 Y90.60915
G01 X38.33438 Y90.69277
G01 X38.31147 Y90.70298
G01 X38.15239 Y90.75465
G01 X38.12785 Y90.75988
G01 X37.96154 Y90.77735
G01 X37.94899 Y90.77801
G01 X37.14899 Y90.77801
G01 X37.13644 Y90.77735
G01 X36.97012 Y90.75988
G01 X36.94559 Y90.75465
G01 X36.78651 Y90.70298
G01 X36.76360 Y90.69277
G01 X36.61876 Y90.60915
G01 X36.59847 Y90.59440
G01 X36.47419 Y90.48248
G01 X36.45740 Y90.46384
G01 X36.35907 Y90.32854
G01 X36.34655 Y90.30682
G01 X36.27851 Y90.15404
G01 X36.27076 Y90.13019
G01 X36.23599 Y89.96658
G01 X36.23337 Y89.94164
G01 X36.23337 Y89.77438
G01 X36.23337 Y92.31438
G01 X36.23599 Y92.28944
G01 X36.27076 Y92.12584
G01 X36.27851 Y92.10199
G01 X36.34655 Y91.94921
G01 X36.35907 Y91.92749
G01 X36.45740 Y91.79218
G01 X36.47419 Y91.77354
G01 X36.59847 Y91.66163
G01 X36.61876 Y91.64687
G01 X36.76360 Y91.56325
G01 X36.78651 Y91.55304
G01 X36.94559 Y91.50138
G01 X36.97012 Y91.49615
G01 X37.13644 Y91.47867
G01 X37.14899 Y91.47801
G01 X37.94899 Y91.47801
G01 X37.96154 Y91.47867
G01 X38.12785 Y91.49615
G01 X38.15239 Y91.50138
G01 X38.31147 Y91.55304
G01 X38.33438 Y91.56325
G01 X38.47921 Y91.64687
G01 X38.49951 Y91.66163
G01 X38.62379 Y91.77354
G01 X38.64058 Y91.79218
G01 X38.73888 Y91.92749
G01 X38.75142 Y91.94921
G01 X38.81945 Y92.10199
G01 X38.82722 Y92.12584
G01 X38.86199 Y92.28944
G01 X38.86461 Y92.31438
G01 X38.86461 Y92.48164
G01 X38.86199 Y92.50659
G01 X38.82722 Y92.67019
G01 X38.81945 Y92.69404
G01 X38.75142 Y92.84682
G01 X38.73888 Y92.86854
G01 X38.64058 Y93.00384
G01 X38.62379 Y93.02248
G01 X38.49951 Y93.13440
G01 X38.47921 Y93.14915
G01 X38.33438 Y93.23277
G01 X38.31147 Y93.24298
G01 X38.15239 Y93.29465
G01 X38.12785 Y93.29988
G01 X37.96154 Y93.31735
G01 X37.94899 Y93.31801
G01 X37.14899 Y93.31801
G01 X37.13644 Y93.31735
G01 X36.97012 Y93.29988
G01 X36.94559 Y93.29465
G01 X36.78651 Y93.24298
G01 X36.76360 Y93.23277
G01 X36.61876 Y93.14915
G01 X36.59847 Y93.13440
G01 X36.47419 Y93.02248
G01 X36.45740 Y93.00384
G01 X36.35907 Y92.86854
G01 X36.34655 Y92.84682
G01 X36.27851 Y92.69404
G01 X36.27076 Y92.67019
G01 X36.23599 Y92.50659
G01 X36.23337 Y92.48164
G01 X36.23337 Y92.31438
G01 X36.23337 Y95.02164
G01 X36.23599 Y95.04659
G01 X36.27076 Y95.21019
G01 X36.27851 Y95.23404
G01 X36.34655 Y95.38682
G01 X36.35907 Y95.40854
G01 X36.45740 Y95.54384
G01 X36.47419 Y95.56248
G01 X36.59847 Y95.67440
G01 X36.61876 Y95.68915
G01 X36.76360 Y95.77277
G01 X36.78651 Y95.78298
G01 X36.94559 Y95.83465
G01 X36.97012 Y95.83988
G01 X37.13644 Y95.85735
G01 X37.14899 Y95.85801
G01 X37.94899 Y95.85801
G01 X37.96154 Y95.85735
G01 X38.12785 Y95.83988
G01 X38.15239 Y95.83465
G01 X38.31147 Y95.78298
G01 X38.33438 Y95.77277
G01 X38.47921 Y95.68915
G01 X38.49951 Y95.67440
G01 X38.62379 Y95.56248
G01 X38.64058 Y95.54384
G01 X38.73888 Y95.40854
G01 X38.75142 Y95.38682
G01 X38.81945 Y95.23404
G01 X38.82722 Y95.21019
G01 X38.86199 Y95.04659
G01 X38.86461 Y95.02164
G01 X38.86461 Y94.85438
G01 X38.86199 Y94.82944
G01 X38.82722 Y94.66584
G01 X38.81945 Y94.64199
G01 X38.75142 Y94.48921
G01 X38.73888 Y94.46749
G01 X38.64058 Y94.33218
G01 X38.62379 Y94.31354
G01 X38.49951 Y94.20163
G01 X38.47921 Y94.18687
G01 X38.33438 Y94.10325
G01 X38.31147 Y94.09304
G01 X38.15239 Y94.04138
G01 X38.12785 Y94.03615
G01 X37.96154 Y94.01867
G01 X37.94899 Y94.01801
G01 X37.14899 Y94.01801
G01 X37.13644 Y94.01867
G01 X36.97012 Y94.03615
G01 X36.94559 Y94.04138
G01 X36.78651 Y94.09304
G01 X36.76360 Y94.10325
G01 X36.61876 Y94.18687
G01 X36.59847 Y94.20163
G01 X36.47419 Y94.31354
G01 X36.45740 Y94.33218
G01 X36.35907 Y94.46749
G01 X36.34655 Y94.48921
G01 X36.27851 Y94.64199
G01 X36.27076 Y94.66584
G01 X36.23599 Y94.82944
G01 X36.23337 Y94.85438
G01 X36.22898 Y96.67800
G01 X36.22898 Y98.27802
G01 X36.23129 Y98.30142
G01 X36.23812 Y98.32395
G01 X36.24922 Y98.34467
G01 X36.26413 Y98.36286
G01 X36.28232 Y98.37780
G01 X36.30307 Y98.38887
G01 X36.32557 Y98.39570
G01 X36.34899 Y98.39801
G01 X38.74899 Y98.39801
G01 X38.77240 Y98.39570
G01 X38.79491 Y98.38887
G01 X38.81566 Y98.37780
G01 X38.83385 Y98.36286
G01 X38.84876 Y98.34467
G01 X38.85986 Y98.32395
G01 X38.86669 Y98.30142
G01 X38.86898 Y98.27802
G01 X38.86898 Y96.67800
G01 X38.86669 Y96.65461
G01 X38.85986 Y96.63208
G01 X38.84876 Y96.61135
G01 X38.83385 Y96.59317
G01 X38.81566 Y96.57823
G01 X38.79491 Y96.56716
G01 X38.77240 Y96.56032
G01 X38.74899 Y96.55801
G01 X36.34899 Y96.55801
G01 X36.32557 Y96.56032
G01 X36.30307 Y96.56716
G01 X36.28232 Y96.57823
G01 X36.26413 Y96.59317
G01 X36.24922 Y96.61135
G01 X36.23812 Y96.63208
G01 X36.23129 Y96.65461
G01 X36.22898 Y96.67800
G04 P0 ( dwell for no time -- G64 should not smooth over this point )
G00 Z5.00000 ( retract )

G00 X43.85334 Y97.39438 ( rapid move to begin. )
G01 F150.00000
( Mill infeed pass 1/1 )
G01 Z-0.20000
G04 P0 ( dwell for no time -- G64 should not smooth over this point )
G01 F300.00000
G01 X43.85334 Y97.39438
G01 X43.85594 Y97.36944
G01 X43.89076 Y97.20584
G01 X43.89851 Y97.18199
G01 X43.96655 Y97.02921
G01 X43.97907 Y97.00749
G01 X44.07737 Y96.87218
G01 X44.09416 Y96.85354
G01 X44.21844 Y96.74163
G01 X44.23876 Y96.72687
G01 X44.38354 Y96.64325
G01 X44.40646 Y96.63304
G01 X44.56559 Y96.58138
G01 X44.59012 Y96.57615
G01 X44.75644 Y96.55867
G01 X44.76896 Y96.55801
G01 X45.56899 Y96.55801
G01 X45.58154 Y96.55867
G01 X45.74785 Y96.57615
G01 X45.77239 Y96.58138
G01 X45.93147 Y96.63304
G01 X45.95438 Y96.64325
G01 X46.09921 Y96.72687
G01 X46.11951 Y96.74163
G01 X46.24379 Y96.85354
G01 X46.26058 Y96.87218
G01 X46.35888 Y97.00749
G01 X46.37142 Y97.02921
G01 X46.43945 Y97.18199
G01 X46.44722 Y97.20584
G01 X46.48199 Y97.36944
G01 X46.48461 Y97.39438
G01 X46.48461 Y97.56164
G01 X46.48199 Y97.58659
G01 X46.44722 Y97.75019
G01 X46.43945 Y97.77404
G01 X46.37142 Y97.92682
G01 X46.35888 Y97.94854
G01 X46.26058 Y98.08384
G01 X46.24379 Y98.10248
G01 X46.11951 Y98.21440
G01 X46.09921 Y98.22915
G01 X45.95438 Y98.31277
G01 X45.93147 Y98.32298
G01 X45.77239 Y98.37465
G01 X45.74785 Y98.37988
G01 X45.58154 Y98.39735
G01 X45.56899 Y98.39801
G01 X44.76896 Y98.39801
G01 X44.75644 Y98.39735
G01 X44.59012 Y98.37988
G01 X44.56559 Y98.37465
G01 X44.40646 Y98.32298
G01 X44.38354 Y98.31277
G01 X44.23876 Y98.22915
G01 X44.21844 Y98.21440
G01 X44.09416 Y98.10248
G01 X44.07737 Y98.08384
G01 X43.97907 Y97.94854
G01 X43.96655 Y97.92682
G01 X43.89851 Y97.77404
G01 X43.89076 Y97.75019
G01 X43.85594 Y97.58659
G01 X43.85334 Y97.56164
G01 X43.85334 Y94.85438
G01 X43.85334 Y95.02164
G01 X43.85594 Y95.04659
G01 X43.89076 Y95.21019
G01 X43.89851 Y95.23404
G01 X43.96655 Y95.38682
G01 X43.97907 Y95.40854
G01 X44.07737 Y95.54384
G01 X44.09416 Y95.56248
G01 X44.21844 Y95.67440
G01 X44.23876 Y95.68915
G01 X44.38354 Y95.77277
G01 X44.40646 Y95.78298
G01 X44.56559 Y95.83465
G01 X44.59012 Y95.83988
G01 X44.75644 Y95.85735
G01 X44.76896 Y95.85801
G01 X45.56899 Y95.85801
G01 X45.58154 Y95.85735
G01 X45.74785 Y95.83988
G01 X45.77239 Y95.83465
G01 X45.93147 Y95.78298
G01 X45.95438 Y95.77277
G01 X46.09921 Y95.68915
G01 X46.11951 Y95.67440
G01 X46.24379 Y95.56248
G01 X46.26058 Y95.54384
G01 X46.35888 Y95.40854
G01 X46.37142 Y95.38682
G01 X46.43945 Y95.23404
G01 X46.44722 Y95.21019
G01 X46.48199 Y95.04659
G01 X46.48461 Y95.02164
G01 X46.48461 Y94.85438
G01 X46.48199 Y94.82944
G01 X46.44722 Y94.66584
G01 X46.43945 Y94.64199
G01 X46.37142 Y94.48921
G01 X46.35888 Y94.46749
G01 X46.26058 Y94.33218
G01 X46.24379 Y94.31354
G01 X46.11951 Y94.20163
G01 X46.09921 Y94.18687
G01 X45.95438 Y94.10325
G01 X45.93147 Y94.09304
G01 X45.77239 Y94.04138
G01 X45.74785 Y94.03615
G01 X45.58154 Y94.01867
G01 X45.56899 Y94.01801
G01 X44.76896 Y94.01801
G01 X44.75644 Y94.01867
G01 X44.59012 Y94.03615
G01 X44.56559 Y94.04138
G01 X44.40646 Y94.09304
G01 X44.38354 Y94.10325
G01 X44.23876 Y94.18687
G01 X44.21844 Y94.20163
G01 X44.09416 Y94.31354
G01 X44.07737 Y94.33218
G01 X43.97907 Y94.46749
G01 X43.96655 Y94.48921
G01 X43.89851 Y94.64199
G01 X43.89076 Y94.66584
G01 X43.85594 Y94.82944
G01 X43.85334 Y94.85438
G01 X43.85334 Y92.31438
G01 X43.85334 Y92.48164
G01 X43.85594 Y92.50659
G01 X43.89076 Y92.67019
G01 X43.89851 Y92.69404
G01 X43.96655 Y92.84682
G01 X43.97907 Y92.86854
G01 X44.07737 Y93.00384
G01 X44.09416 Y93.02248
G01 X44.21844 Y93.13440
G01 X44.23876 Y93.14915
G01 X44.38354 Y93.23277
G01 X44.40646 Y93.24298
G01 X44.56559 Y93.29465
G01 X44.59012 Y93.29988
G01 X44.75644 Y93.31735
G01 X44.76896 Y93.31801
G01 X45.56899 Y93.31801
G01 X45.58154 Y93.31735
G01 X45.74785 Y93.29988
G01 X45.77239 Y93.29465
G01 X45.93147 Y93.24298
G01 X45.95438 Y93.23277
G01 X46.09921 Y93.14915
G01 X46.11951 Y93.13440
G01 X46.24379 Y93.02248
G01 X46.26058 Y93.00384
G01 X46.35888 Y92.86854
G01 X46.37142 Y92.84682
G01 X46.43945 Y92.69404
G01 X46.44722 Y92.67019
G01 X46.48199 Y92.50659
G01 X46.48461 Y92.48164
G01 X46.48461 Y92.31438
G01 X46.48199 Y92.28944
G01 X46.44722 Y92.12584
G01 X46.43945 Y92.10199
G01 X46.37142 Y91.94921
G01 X46.35888 Y91.92749
G01 X46.26058 Y91.79218
G01 X46.24379 Y91.77354
G01 X46.11951 Y91.66163
G01 X46.09921 Y91.64687
G01 X45.95438 Y91.56325
G01 X45.93147 Y91.55304
G01 X45.77239 Y91.50138
G01 X45.74785 Y91.49615
G01 X45.58154 Y91.47867
G01 X45.56899 Y91.47801
G01 X44.76896 Y91.47801
G01 X44.75644 Y91.47867
G01 X44.59012 Y91.49615
G01 X44.56559 Y91.50138
G01 X44.40646 Y91.55304
G01 X44.38354 Y91.56325
G01 X44.23876 Y91.64687
G01 X44.21844 Y91.66163
G01 X44.09416 Y91.77354
G01 X44.07737 Y91.79218
G01 X43.97907 Y91.92749
G01 X43.96655 Y91.94921
G01 X43.89851 Y92.10199
G01 X43.89076 Y92.12584
G01 X43.85594 Y92.28944
G01 X43.85334 Y92.31438
G01 X43.85334 Y89.77438
G01 X43.85334 Y89.94164
G01 X43.85594 Y89.96658
G01 X43.89076 Y90.13019
G01 X43.89851 Y90.15404
G01 X43.96655 Y90.30682
G01 X43.97907 Y90.32854
G01 X44.07737 Y90.46384
G01 X44.09416 Y90.48248
G01 X44.21844 Y90.59440
G01 X44.23876 Y90.60915
G01 X44.38354 Y90.69277
G01 X44.40646 Y90.70298
G01 X44.56559 Y90.75465
G01 X44.59012 Y90.75988
G01 X44.75644 Y90.77735
G01 X44.76896 Y90.77801
G01 X45.56899 Y90.77801
G01 X45.58154 Y90.77735
G01 X45.74785 Y90.75988
G01 X45.77239 Y90.75465
G01 X45.93147 Y90.70298
G01 X45.95438 Y90.69277
G01 X46.09921 Y90.60915
G01 X46.11951 Y90.59440
G01 X46.24379 Y90.48248
G01 X46.26058 Y90.46384
G01 X46.35888 Y90.32854
G01 X46.37142 Y90.30682
G01 X46.43945 Y90.15404
G01 X46.44722 Y90.13019
G01 X46.48199 Y89.96658
G01 X46.48461 Y89.94164
G01 X46.48461 Y89.77438
G01 X46.48199 Y89.74944
G01 X46.44722 Y89.58584
G01 X46.43945 Y89.56199
G01 X46.37142 Y89.40921
G01 X46.35888 Y89.38749
G01 X46.26058 Y89.25218
G01 X46.24379 Y89.23354
G01 X46.11951 Y89.12163
G01 X46.09921 Y89.10687
G01 X45.95438 Y89.02325
G01 X45.93147 Y89.01304
G01 X45.77239 Y88.96138
G01 X45.74785 Y88.95615
G01 X45.58154 Y88.93867
G01 X45.56899 Y88.93801
G01 X44.76896 Y88.93801
G01 X44.75644 Y88.93867
G01 X44.59012 Y88.95615
G01 X44.56559 Y88.96138
G01 X44.40646 Y89.01304
G01 X44.38354 Y89.02325
G01 X44.23876 Y89.10687
G01 X44.21844 Y89.12163
G01 X44.09416 Y89.23354
G01 X44.07737 Y89.25218
G01 X43.97907 Y89.38749
G01 X43.96655 Y89.40921
G01 X43.89851 Y89.56199
G01 X43.89076 Y89.58584
G01 X43.85594 Y89.74944
G01 X43.85334 Y89.77438
G01 X43.85334 Y87.23438
G01 X43.85334 Y87.40164
G01 X43.85594 Y87.42659
G01 X43.89076 Y87.59019
G01 X43.89851 Y87.61404
G01 X43.96655 Y87.76682
G01 X43.97907 Y87.78853
G01 X44.07737 Y87.92384
G01 X44.09416 Y87.94248
G01 X44.21844 Y88.05440
G01 X44.23876 Y88.06915
G01 X44.38354 Y88.15277
G01 X44.40646 Y88.16298
G01 X44.56559 Y88.21465
G01 X44.59012 Y88.21988
G01 X44.75644 Y88.23735
G01 X44.76896 Y88.23801
G01 X45.56899 Y88.23801
G01 X45.58154 Y88.23735
G01 X45.74785 Y88.21988
G01 X45.77239 Y88.21465
G01 X45.93147 Y88.16298
G01 X45.95438 Y88.15277
G01 X46.09921 Y88.06915
G01 X46.11951 Y88.05440
G01 X46.24379 Y87.94248
G01 X46.26058 Y87.92384
G01 X46.35888 Y87.78853
G01 X46.37142 Y87.76682
G01 X46.43945 Y87.61404
G01 X46.44722 Y87.59019
G01 X46.48199 Y87.42659
G01 X46.48461 Y87.40164
G01 X46.48461 Y87.23438
G01 X46.48199 Y87.20944
G01 X46.44722 Y87.04584
G01 X46.43945 Y87.02199
G01 X46.37142 Y86.86921
G01 X46.35888 Y86.84749
G01 X46.26058 Y86.71218
G01 X46.24379 Y86.69354
G01 X46.11951 Y86.58163
G01 X46.09921 Y86.56687
G01 X45.95438 Y86.48325
G01 X45.93147 Y86.47304
G01 X45.77239 Y86.42138
G01 X45.74785 Y86.41615
G01 X45.58154 Y86.39867
G01 X45.56899 Y86.39801
G01 X44.76896 Y86.39801
G01 X44.75644 Y86.39867
G01 X44.59012 Y86.41615
G01 X44.56559 Y86.42138
G01 X44.40646 Y86.47304
G01 X44.38354 Y86.48325
G01 X44.23876 Y86.56687
G01 X44.21844 Y86.58163
G01 X44.09416 Y86.69354
G01 X44.07737 Y86.71218
G01 X43.97907 Y86.84749
G01 X43.96655 Y86.86921
G01 X43.89851 Y87.02199
G01 X43.89076 Y87.04584
G01 X43.85594 Y87.20944
G01 X43.85334 Y87.23438
G01 X43.85334 Y84.69438
G01 X43.85334 Y84.86164
G01 X43.85594 Y84.88659
G01 X43.89076 Y85.05019
G01 X43.89851 Y85.07404
G01 X43.96655 Y85.22682
G01 X43.97907 Y85.24854
G01 X44.07737 Y85.38384
G01 X44.09416 Y85.40248
G01 X44.21844 Y85.51440
G01 X44.23876 Y85.52915
G01 X44.38354 Y85.61277
G01 X44.40646 Y85.62298
G01 X44.56559 Y85.67465
G01 X44.59012 Y85.67988
G01 X44.75644 Y85.69735
G01 X44.76896 Y85.69801
G01 X45.56899 Y85.69801
G01 X45.58154 Y85.69735
G01 X45.74785 Y85.67988
G01 X45.77239 Y85.67465
G01 X45.93147 Y85.62298
G01 X45.95438 Y85.61277
G01 X46.09921 Y85.52915
G01 X46.11951 Y85.51440
G01 X46.24379 Y85.40248
G01 X46.26058 Y85.38384
G01 X46.35888 Y85.24854
G01 X46.37142 Y85.22682
G01 X46.43945 Y85.07404
G01 X46.44722 Y85.05019
G01 X46.48199 Y84.88659
G01 X46.48461 Y84.86164
G01 X46.48461 Y84.69438
G01 X46.48199 Y84.66944
G01 X46.44722 Y84.50584
G01 X46.43945 Y84.48199
G01 X46.37142 Y84.32921
G01 X46.35888 Y84.30749
G01 X46.26058 Y84.17218
G01 X46.24379 Y84.15354
G01 X46.11951 Y84.04163
G01 X46.09921 Y84.02687
G01 X45.95438 Y83.94325
G01 X45.93147 Y83.93304
G01 X45.77239 Y83.88138
G01 X45.74785 Y83.87615
G01 X45.58154 Y83.85867
G01 X45.56899 Y83.85801
G01 X44.76896 Y83.85801
G01 X44.75644 Y83.85867
G01 X44.59012 Y83.87615
G01 X44.56559 Y83.88138
G01 X44.40646 Y83.93304
G01 X44.38354 Y83.94325
G01 X44.23876 Y84.02687
G01 X44.21844 Y84.04163
G01 X44.09416 Y84.15354
G01 X44.07737 Y84.17218
G01 X43.97907 Y84.30749
G01 X43.96655 Y84.32921
G01 X43.89851 Y84.48199
G01 X43.89076 Y84.50584
G01 X43.85594 Y84.66944
G01 X43.85334 Y84.69438
G01 X43.85334 Y82.15438
G01 X43.85334 Y82.32164
G01 X43.85594 Y82.34659
G01 X43.89076 Y82.51019
G01 X43.89851 Y82.53404
G01 X43.96655 Y82.68682
G01 X43.97907 Y82.70854
G01 X44.07737 Y82.84384
G01 X44.09416 Y82.86248
G01 X44.21844 Y82.97440
G01 X44.23876 Y82.98915
G01 X44.38354 Y83.07277
G01 X44.40646 Y83.08298
G01 X44.56559 Y83.13465
G01 X44.59012 Y83.13988
G01 X44.75644 Y83.15735
G01 X44.76896 Y83.15801
G01 X45.56899 Y83.15801
G01 X45.58154 Y83.15735
G01 X45.74785 Y83.13988
G01 X45.77239 Y83.13465
G01 X45.93147 Y83.08298
G01 X45.95438 Y83.07277
G01 X46.09921 Y82.98915
G01 X46.11951 Y82.97440
G01 X46.24379 Y82.86248
G01 X46.26058 Y82.84384
G01 X46.35888 Y82.70854
G01 X46.37142 Y82.68682
G01 X46.43945 Y82.53404
G01 X46.44722 Y82.51019
G01 X46.48199 Y82.34659
G01 X46.48461 Y82.32164
G01 X46.48461 Y82.15438
G01 X46.48199 Y82.12944
G01 X46.44722 Y81.96584
G01 X46.43945 Y81.94199
G01 X46.37142 Y81.78921
G01 X46.35888 Y81.76749
G01 X46.26058 Y81.63218
G01 X46.24379 Y81.61354
G01 X46.11951 Y81.50163
G01 X46.09921 Y81.48687
G01 X45.95438 Y81.40325
G01 X45.93147 Y81.39304
G01 X45.77239 Y81.34138
G01 X45.74785 Y81.33615
G01 X45.58154 Y81.31867
G01 X45.56899 Y81.31801
G01 X44.76896 Y81.31801
G01 X44.75644 Y81.31867
G01 X44.59012 Y81.33615
G01 X44.56559 Y81.34138
G01 X44.40646 Y81.39304
G01 X44.38354 Y81.40325
G01 X44.23876 Y81.48687
G01 X44.21844 Y81.50163
G01 X44.09416 Y81.61354
G01 X44.07737 Y81.63218
G01 X43.97907 Y81.76749
G01 X43.96655 Y81.78921
G01 X43.89851 Y81.94199
G01 X43.89076 Y81.96584
G01 X43.85594 Y82.12944
G01 X43.85334 Y82.15438
G01 X43.85334 Y79.61438
G01 X43.85334 Y79.78164
G01 X43.85594 Y79.80658
G01 X43.89076 Y79.97019
G01 X43.89851 Y79.99404
G01 X43.96655 Y80.14682
G01 X43.97907 Y80.16854
G01 X44.07737 Y80.30384
G01 X44.09416 Y80.32248
G01 X44.21844 Y80.43440
G01 X44.23876 Y80.44915
G01 X44.38354 Y80.53277
G01 X44.40646 Y80.54298
G01 X44.56559 Y80.59465
G01 X44.59012 Y80.59988
G01 X44.75644 Y80.61735
G01 X44.76896 Y80.61801
G01 X45.56899 Y80.61801
G01 X45.58154 Y80.61735
G01 X45.74785 Y80.59988
G01 X45.77239 Y80.59465
G01 X45.93147 Y80.54298
G01 X45.95438 Y80.53277
G01 X46.09921 Y80.44915
G01 X46.11951 Y80.43440
G01 X46.24379 Y80.32248
G01 X46.26058 Y80.30384
G01 X46.35888 Y80.16854
G01 X46.37142 Y80.14682
G01 X46.43945 Y79.99404
G01 X46.44722 Y79.97019
G01 X46.48199 Y79.80658
G01 X46.48461 Y79.78164
G01 X46.48461 Y79.61438
G01 X46.48199 Y79.58944
G01 X46.44722 Y79.42584
G01 X46.43945 Y79.40199
G01 X46.37142 Y79.24921
G01 X46.35888 Y79.22749
G01 X46.26058 Y79.09218
G01 X46.24379 Y79.07354
G01 X46.11951 Y78.96163
G01 X46.09921 Y78.94687
G01 X45.95438 Y78.86325
G01 X45.93147 Y78.85304
G01 X45.77239 Y78.80138
G01 X45.74785 Y78.79615
G01 X45.58154 Y78.77867
G01 X45.56899 Y78.77801
G01 X44.76896 Y78.77801
G01 X44.75644 Y78.77867
G01 X44.59012 Y78.79615
G01 X44.56559 Y78.80138
G01 X44.40646 Y78.85304
G01 X44.38354 Y78.86325
G01 X44.23876 Y78.94687
G01 X44.21844 Y78.96163
G01 X44.09416 Y79.07354
G01 X44.07737 Y79.09218
G01 X43.97907 Y79.22749
G01 X43.96655 Y79.24921
G01 X43.89851 Y79.40199
G01 X43.89076 Y79.42584
G01 X43.85594 Y79.58944
G01 X43.85334 Y79.61438
G01 X43.85334 Y77.07438
G01 X43.85334 Y77.24164
G01 X43.85594 Y77.26659
G01 X43.89076 Y77.43019
G01 X43.89851 Y77.45404
G01 X43.96655 Y77.60682
G01 X43.97907 Y77.62853
G01 X44.07737 Y77.76384
G01 X44.09416 Y77.78248
G01 X44.21844 Y77.89440
G01 X44.23876 Y77.90915
G01 X44.38354 Y77.99277
G01 X44.40646 Y78.00298
G01 X44.56559 Y78.05465
G01 X44.59012 Y78.05988
G01 X44.75644 Y78.07735
G01 X44.76896 Y78.07801
G01 X45.56899 Y78.07801
G01 X45.58154 Y78.07735
G01 X45.74785 Y78.05988
G01 X45.77239 Y78.05465
G01 X45.93147 Y78.00298
G01 X45.95438 Y77.99277
G01 X46.09921 Y77.90915
G01 X46.11951 Y77.89440
G01 X46.24379 Y77.78248
G01 X46.26058 Y77.76384
G01 X46.35888 Y77.62853
G01 X46.37142 Y77.60682
G01 X46.43945 Y77.45404
G01 X46.44722 Y77.43019
G01 X46.48199 Y77.26659
G01 X46.48461 Y77.24164
G01 X46.48461 Y77.07438
G01 X46.48199 Y77.04944
G01 X46.44722 Y76.88584
G01 X46.43945 Y76.86199
G01 X46.37142 Y76.70921
G01 X46.35888 Y76.68749
G01 X46.26058 Y76.55218
G01 X46.24379 Y76.53357
G01 X46.11951 Y76.42163
G01 X46.09921 Y76.40687
G01 X45.95438 Y76.32325
G01 X45.93147 Y76.31304
G01 X45.77239 Y76.26138
G01 X45.74785 Y76.25615
G01 X45.58154 Y76.23870
G01 X45.56899 Y76.23804
G01 X44.76896 Y76.23804
G01 X44.75644 Y76.23870
G01 X44.59012 Y76.25615
G01 X44.56559 Y76.26138
G01 X44.40646 Y76.31304
G01 X44.38354 Y76.32325
G01 X44.23876 Y76.40687
G01 X44.21844 Y76.42163
G01 X44.09416 Y76.53357
G01 X44.07737 Y76.55218
G01 X43.97907 Y76.68749
G01 X43.96655 Y76.70921
G01 X43.89851 Y76.86199
G01 X43.89076 Y76.88584
G01 X43.85594 Y77.04944
G01 X43.85334 Y77.07438
G01 X43.75012 Y70.57099
G01 X43.74966 Y70.54148
G01 X43.77699 Y70.28159
G01 X43.78217 Y70.25705
G01 X43.86295 Y70.00851
G01 X43.87316 Y69.98560
G01 X44.00379 Y69.75928
G01 X44.01855 Y69.73899
G01 X44.19343 Y69.54478
G01 X44.21207 Y69.52799
G01 X44.42347 Y69.37440
G01 X44.44519 Y69.36185
G01 X44.68390 Y69.25558
G01 X44.70778 Y69.24780
G01 X44.96340 Y69.19347
G01 X44.98834 Y69.19086
G01 X45.24966 Y69.19086
G01 X45.27463 Y69.19347
G01 X45.53023 Y69.24780
G01 X45.55408 Y69.25558
G01 X45.79281 Y69.36185
G01 X45.81453 Y69.37440
G01 X46.02596 Y69.52799
G01 X46.04460 Y69.54478
G01 X46.16995 Y69.68402
G01 X54.67402 Y69.68402
G01 X54.79940 Y69.54478
G01 X54.81804 Y69.52799
G01 X55.02945 Y69.37440
G01 X55.05119 Y69.36185
G01 X55.28990 Y69.25558
G01 X55.31377 Y69.24780
G01 X55.56937 Y69.19347
G01 X55.59432 Y69.19086
G01 X55.85566 Y69.19086
G01 X55.88060 Y69.19347
G01 X56.13620 Y69.24780
G01 X56.16008 Y69.25558
G01 X56.39879 Y69.36185
G01 X56.42053 Y69.37440
G01 X56.63193 Y69.52799
G01 X56.65058 Y69.54478
G01 X56.82543 Y69.73899
G01 X56.84019 Y69.75928
G01 X56.97084 Y69.98560
G01 X56.98106 Y70.00851
G01 X57.06180 Y70.25705
G01 X57.06701 Y70.28159
G01 X57.09434 Y70.54148
G01 X57.09434 Y70.56655
G01 X57.06701 Y70.82644
G01 X57.06180 Y70.85098
G01 X56.98106 Y71.09952
G01 X56.97084 Y71.12243
G01 X56.84019 Y71.34874
G01 X56.82543 Y71.36904
G01 X56.65058 Y71.56324
G01 X56.63193 Y71.58003
G01 X56.42053 Y71.73363
G01 X56.39879 Y71.74620
G01 X56.16008 Y71.85245
G01 X56.13620 Y71.86022
G01 X55.88060 Y71.91455
G01 X55.85566 Y71.91717
G01 X55.59432 Y71.91717
G01 X55.56937 Y71.91455
G01 X55.31377 Y71.86022
G01 X55.28990 Y71.85245
G01 X55.05119 Y71.74620
G01 X55.02945 Y71.73363
G01 X54.81804 Y71.58003
G01 X54.79940 Y71.56324
G01 X54.67402 Y71.42400
G01 X46.16995 Y71.42400
G01 X46.04460 Y71.56324
G01 X46.02596 Y71.58003
G01 X45.81453 Y71.73363
G01 X45.79281 Y71.74620
G01 X45.55408 Y71.85245
G01 X45.53023 Y71.86022
G01 X45.27463 Y71.91455
G01 X45.24966 Y71.91717
G01 X44.98834 Y71.91717
G01 X44.96340 Y71.91455
G01 X44.70778 Y71.86022
G01 X44.68390 Y71.85245
G01 X44.44519 Y71.74620
G01 X44.42347 Y71.73363
G01 X44.21207 Y71.58003
G01 X44.19343 Y71.56324
G01 X44.01855 Y71.36904
G01 X44.00379 Y71.34874
G01 X43.87316 Y71.12243
G01 X43.86295 Y71.09952
G01 X43.78217 Y70.85098
G01 X43.77699 Y70.82644
G01 X43.75012 Y70.57099
G01 X43.74966 Y70.56655
G01 X43.74966 Y70.54148
G04 P0 ( dwell for no time -- G64 should not smooth over this point )
G00 Z5.00000 ( retract )

G00 X39.73065 Y66.83747 ( rapid move to begin. )
G01 F150.00000
( Mill infeed pass 1/1 )
G01 Z-0.20000
G04 P0 ( dwell for no time -- G64 should not smooth over this point )
G01 F300.00000
G01 X39.73065 Y66.83747
G01 X39.75030 Y66.65035
G01 X39.75554 Y66.62581
G01 X39.81368 Y66.44687
G01 X39.82386 Y66.42396
G01 X39.91794 Y66.26099
G01 X39.93270 Y66.24070
G01 X40.05858 Y66.10090
G01 X40.07723 Y66.08411
G01 X40.22945 Y65.97352
G01 X40.25114 Y65.96097
G01 X40.42302 Y65.88444
G01 X40.44693 Y65.87669
G01 X40.63097 Y65.83758
G01 X40.65592 Y65.83493
G01 X40.84405 Y65.83493
G01 X40.86902 Y65.83758
G01 X41.05305 Y65.87669
G01 X41.07692 Y65.88444
G01 X41.24880 Y65.96097
G01 X41.27052 Y65.97352
G01 X41.42272 Y66.08411
G01 X41.44139 Y66.10090
G01 X41.56727 Y66.24070
G01 X41.58203 Y66.26099
G01 X41.67611 Y66.42396
G01 X41.68629 Y66.44687
G01 X41.74446 Y66.62581
G01 X41.74967 Y66.65035
G01 X41.76933 Y66.83747
G01 X41.76933 Y66.86257
G01 X41.74967 Y67.04969
G01 X41.74446 Y67.07423
G01 X41.68629 Y67.25317
G01 X41.67611 Y67.27608
G01 X41.58203 Y67.43902
G01 X41.56727 Y67.45931
G01 X41.44139 Y67.59914
G01 X41.42272 Y67.61593
G01 X41.27052 Y67.72652
G01 X41.24880 Y67.73907
G01 X41.07692 Y67.81560
G01 X41.05305 Y67.82335
G01 X40.86902 Y67.86246
G01 X40.84405 Y67.86508
G01 X40.65592 Y67.86508
G01 X40.63097 Y67.86246
G01 X40.44693 Y67.82335
G01 X40.42302 Y67.81560
G01 X40.25114 Y67.73907
G01 X40.22945 Y67.72652
G01 X40.07723 Y67.61593
G01 X40.05858 Y67.59914
G01 X39.93270 Y67.45931
G01 X39.91794 Y67.43902
G01 X39.82386 Y67.27608
G01 X39.81368 Y67.25317
G01 X39.75554 Y67.07423
G01 X39.75030 Y67.04969
G01 X39.73065 Y66.86257
G01 X39.73065 Y66.83747
G04 P0 ( dwell for no time -- G64 should not smooth over this point )
G00 Z5.00000 ( retract )

G00 X54.73064 Y66.83747 ( rapid move to begin. )
G01 F150.00000
( Mill infeed pass 1/1 )
G01 Z-0.20000
G04 P0 ( dwell for no time -- G64 should not smooth over this point )
G01 F300.00000
G01 X54.73064 Y66.83747
G01 X54.73064 Y66.86257
G01 X54.75030 Y67.04969
G01 X54.75553 Y67.07423
G01 X54.81367 Y67.25317
G01 X54.82388 Y67.27608
G01 X54.91794 Y67.43902
G01 X54.93270 Y67.45931
G01 X55.05858 Y67.59914
G01 X55.07722 Y67.61593
G01 X55.22945 Y67.72652
G01 X55.25119 Y67.73907
G01 X55.42307 Y67.81560
G01 X55.44692 Y67.82335
G01 X55.63097 Y67.86246
G01 X55.65591 Y67.86508
G01 X55.84408 Y67.86508
G01 X55.86902 Y67.86246
G01 X56.05304 Y67.82335
G01 X56.07692 Y67.81560
G01 X56.24880 Y67.73907
G01 X56.27052 Y67.72652
G01 X56.42274 Y67.61593
G01 X56.44138 Y67.59914
G01 X56.56729 Y67.45931
G01 X56.58202 Y67.43902
G01 X56.67610 Y67.27608
G01 X56.68631 Y67.25317
G01 X56.74445 Y67.07423
G01 X56.74966 Y67.04969
G01 X56.76932 Y66.86257
G01 X56.76932 Y66.83747
G01 X56.74966 Y66.65035
G01 X56.74445 Y66.62581
G01 X56.68631 Y66.44687
G01 X56.67610 Y66.42396
G01 X56.58202 Y66.26099
G01 X56.56729 Y66.24070
G01 X56.44138 Y66.10090
G01 X56.42274 Y66.08411
G01 X56.27052 Y65.97352
G01 X56.24880 Y65.96097
G01 X56.07692 Y65.88444
G01 X56.05304 Y65.87669
G01 X55.86902 Y65.83758
G01 X55.84408 Y65.83493
G01 X55.65591 Y65.83493
G01 X55.63097 Y65.83758
G01 X55.44692 Y65.87669
G01 X55.42307 Y65.88444
G01 X55.25119 Y65.96097
G01 X55.22945 Y65.97352
G01 X55.07722 Y66.08411
G01 X55.05858 Y66.10090
G01 X54.93270 Y66.24070
G01 X54.91794 Y66.26099
G01 X54.82388 Y66.42396
G01 X54.81367 Y66.44687
G01 X54.75553 Y66.62581
G01 X54.75030 Y66.65035
G01 X54.73064 Y66.83747
G04 P0 ( dwell for no time -- G64 should not smooth over this point )
G00 Z5.00000 ( retract )

G00 X46.87864 Y52.76148 ( rapid move to begin. )
G01 F150.00000
( Mill infeed pass 1/1 )
G01 Z-0.20000
G04 P0 ( dwell for no time -- G64 should not smooth over this point )
G01 F300.00000
G01 X46.87864 Y52.76148
G01 X46.87864 Y52.78655
G01 X46.89832 Y52.97367
G01 X46.90353 Y52.99821
G01 X46.96167 Y53.17715
G01 X46.97188 Y53.20008
G01 X47.06594 Y53.36303
G01 X47.08069 Y53.38332
G01 X47.20660 Y53.52315
G01 X47.22525 Y53.53994
G01 X47.37744 Y53.65053
G01 X47.39918 Y53.66305
G01 X47.57107 Y53.73958
G01 X47.59492 Y53.74735
G01 X47.77897 Y53.78647
G01 X47.80391 Y53.78909
G01 X47.99207 Y53.78909
G01 X48.01701 Y53.78647
G01 X48.20106 Y53.74735
G01 X48.22491 Y53.73958
G01 X48.39680 Y53.66305
G01 X48.41851 Y53.65053
G01 X48.57073 Y53.53994
G01 X48.58938 Y53.52315
G01 X48.71529 Y53.38332
G01 X48.73002 Y53.36303
G01 X48.82410 Y53.20008
G01 X48.83431 Y53.17715
G01 X48.89245 Y52.99821
G01 X48.89766 Y52.97367
G01 X48.91732 Y52.78655
G01 X48.91732 Y52.76148
G01 X48.89766 Y52.57436
G01 X48.89245 Y52.54982
G01 X48.83431 Y52.37088
G01 X48.82410 Y52.34794
G01 X48.73002 Y52.18500
G01 X48.71529 Y52.16470
G01 X48.58938 Y52.02488
G01 X48.57073 Y52.00809
G01 X48.41851 Y51.89750
G01 X48.39680 Y51.88497
G01 X48.22491 Y51.80844
G01 X48.20106 Y51.80067
G01 X48.01701 Y51.76156
G01 X47.99207 Y51.75894
G01 X47.80391 Y51.75894
G01 X47.77897 Y51.76156
G01 X47.59492 Y51.80067
G01 X47.57107 Y51.80844
G01 X47.39918 Y51.88497
G01 X47.37744 Y51.89750
G01 X47.22525 Y52.00809
G01 X47.20660 Y52.02488
G01 X47.08069 Y52.16470
G01 X47.06594 Y52.18500
G01 X46.97188 Y52.34794
G01 X46.96167 Y52.37088
G01 X46.90353 Y52.54982
G01 X46.89832 Y52.57436
G01 X46.87864 Y52.76148
G04 P0 ( dwell for no time -- G64 should not smooth over this point )
G00 Z5.00000 ( retract )

G00 X41.57148 Y46.70152 ( rapid move to begin. )
G01 F150.00000
( Mill infeed pass 1/1 )
G01 Z-0.20000
G04 P0 ( dwell for no time -- G64 should not smooth over this point )
G01 F300.00000
G01 X41.57148 Y46.70152
G01 X41.57215 Y46.68897
G01 X41.59295 Y46.49093
G01 X41.59816 Y46.46639
G01 X41.65965 Y46.27701
G01 X41.66991 Y46.25410
G01 X41.76948 Y46.08166
G01 X41.78421 Y46.06136
G01 X41.91746 Y45.91338
G01 X41.93610 Y45.89659
