( pcb2gcode 2.4.0 )
( Software-independent Gcode )

G94 ( Millimeters per minute feed rate. )
G21 ( Units == Millimeters. )

G90 ( Absolute coordinates. )
G00 S20000 ( RPM spindle speed. )
G64 P0.05000 ( set maximum deviation from commanded toolpath )
G01 F400.00000 ( Feedrate. )


G00 Z30.00000 (Retract to tool change height)
T0
M5      (Spindle stop.)
G04 P1.00000 (Wait for spindle to stop)
(MSG, Change tool bit to mill diameter 0.80000mm)
M6      (Tool change.)
M0      (Temporary machine stop.)
M3 ( Spindle on clockwise. )
G04 P1.00000 (Wait for spindle to get up to speed)
G04 P0 ( dwell for no time -- G64 should not smooth over this point )
G00 Z2.00000 ( retract )

G00 X3.47417 Y129.90419 ( rapid move to begin. )
G01 F200.00000
( Mill infeed pass 1/1 )
G01 Z-0.20000
G04 P0 ( dwell for no time -- G64 should not smooth over this point )
G01 F400.00000
G01 X3.47417 Y129.90419
G01 X3.49932 Y129.66510
G01 X3.51669 Y129.58331
G01 X3.59099 Y129.35466
G01 X3.62500 Y129.27826
G01 X3.74521 Y129.07006
G01 X3.79436 Y129.00242
G01 X3.95522 Y128.82375
G01 X4.01738 Y128.76780
G01 X4.21186 Y128.62647
G01 X4.28430 Y128.58466
G01 X4.50391 Y128.48687
G01 X4.58347 Y128.46104
G01 X4.81862 Y128.41105
G01 X4.90178 Y128.40232
G01 X5.14219 Y128.40232
G01 X5.22535 Y128.41105
G01 X5.46053 Y128.46104
G01 X5.54006 Y128.48687
G01 X5.75969 Y128.58466
G01 X5.83210 Y128.62647
G01 X6.02659 Y128.76780
G01 X6.08875 Y128.82375
G01 X6.24960 Y129.00242
G01 X6.29878 Y129.07006
G01 X6.41897 Y129.27826
G01 X6.45298 Y129.35466
G01 X6.52728 Y129.58331
G01 X6.54468 Y129.66510
G01 X6.56980 Y129.90419
G01 X6.56980 Y129.98784
G01 X6.54468 Y130.22693
G01 X6.52728 Y130.30871
G01 X6.45298 Y130.53736
G01 X6.41897 Y130.61377
G01 X6.29878 Y130.82197
G01 X6.24960 Y130.88961
G01 X6.08875 Y131.06827
G01 X6.02659 Y131.12423
G01 X5.83210 Y131.26556
G01 X5.75969 Y131.30737
G01 X5.54006 Y131.40516
G01 X5.46053 Y131.43099
G01 X5.22535 Y131.48097
G01 X5.14219 Y131.48971
G01 X4.90178 Y131.48971
G01 X4.81862 Y131.48097
G01 X4.58347 Y131.43099
G01 X4.50391 Y131.40516
G01 X4.28430 Y131.30737
G01 X4.21186 Y131.26556
G01 X4.01738 Y131.12423
G01 X3.95522 Y131.06827
G01 X3.79436 Y130.88961
G01 X3.74521 Y130.82197
G01 X3.62500 Y130.61377
G01 X3.59099 Y130.53736
G01 X3.51669 Y130.30871
G01 X3.49932 Y130.22693
G01 X3.47417 Y129.98784
G01 X3.47417 Y129.90419
G04 P0 ( dwell for no time -- G64 should not smooth over this point )
G00 Z2.00000 ( retract )

G00 X3.72418 Y133.96819 ( rapid move to begin. )
G01 F200.00000
( Mill infeed pass 1/1 )
G01 Z-0.20000
G04 P0 ( dwell for no time -- G64 should not smooth over this point )
G01 F400.00000
G01 X3.72418 Y133.96819
G01 X3.74384 Y133.78107
G01 X3.76124 Y133.69928
G01 X3.81938 Y133.52034
G01 X3.85339 Y133.44396
G01 X3.94745 Y133.28100
G01 X3.99662 Y133.21336
G01 X4.12251 Y133.07353
G01 X4.18466 Y133.01757
G01 X4.33688 Y132.90698
G01 X4.40930 Y132.86517
G01 X4.58118 Y132.78864
G01 X4.66071 Y132.76281
G01 X4.84476 Y132.72369
G01 X4.92791 Y132.71493
G01 X5.11605 Y132.71493
G01 X5.19924 Y132.72369
G01 X5.38326 Y132.76281
G01 X5.46279 Y132.78864
G01 X5.63467 Y132.86517
G01 X5.70711 Y132.90698
G01 X5.85931 Y133.01757
G01 X5.92146 Y133.07353
G01 X6.04737 Y133.21336
G01 X6.09652 Y133.28100
G01 X6.19060 Y133.44396
G01 X6.22461 Y133.52034
G01 X6.28275 Y133.69928
G01 X6.30012 Y133.78107
G01 X6.31978 Y133.96819
G01 X6.31978 Y134.05184
G01 X6.30012 Y134.23896
G01 X6.28275 Y134.32074
G01 X6.22461 Y134.49969
G01 X6.19060 Y134.57607
G01 X6.09652 Y134.73903
G01 X6.04737 Y134.80667
G01 X5.92146 Y134.94650
G01 X5.85931 Y135.00246
G01 X5.70711 Y135.11305
G01 X5.63467 Y135.15486
G01 X5.46279 Y135.23139
G01 X5.38326 Y135.25722
G01 X5.19924 Y135.29633
G01 X5.11605 Y135.30507
G01 X4.92791 Y135.30507
G01 X4.84476 Y135.29633
G01 X4.66071 Y135.25722
G01 X4.58118 Y135.23139
G01 X4.40930 Y135.15486
G01 X4.33688 Y135.11305
G01 X4.18466 Y135.00246
G01 X4.12251 Y134.94650
G01 X3.99662 Y134.80667
G01 X3.94745 Y134.73903
G01 X3.85339 Y134.57607
G01 X3.81938 Y134.49969
G01 X3.76124 Y134.32074
G01 X3.74384 Y134.23896
G01 X3.72418 Y134.05184
G01 X3.72418 Y133.96819
G04 P0 ( dwell for no time -- G64 should not smooth over this point )
G00 Z2.00000 ( retract )

G00 X3.72418 Y138.05221 ( rapid move to begin. )
G01 F200.00000
( Mill infeed pass 1/1 )
G01 Z-0.20000
G04 P0 ( dwell for no time -- G64 should not smooth over this point )
G01 F400.00000
G01 X3.72418 Y138.05221
G01 X3.74384 Y137.86509
G01 X3.76124 Y137.78327
G01 X3.81938 Y137.60436
G01 X3.85339 Y137.52795
G01 X3.94745 Y137.36501
G01 X3.99662 Y137.29735
G01 X4.12251 Y137.15752
G01 X4.18466 Y137.10159
G01 X4.33688 Y136.99097
G01 X4.40930 Y136.94916
G01 X4.58118 Y136.87263
G01 X4.66071 Y136.84680
G01 X4.84476 Y136.80768
G01 X4.92791 Y136.79895
G01 X5.11605 Y136.79895
G01 X5.19924 Y136.80768
G01 X5.38326 Y136.84680
G01 X5.46279 Y136.87263
G01 X5.63467 Y136.94916
G01 X5.70711 Y136.99097
G01 X5.85931 Y137.10159
G01 X5.92146 Y137.15752
G01 X6.04737 Y137.29735
G01 X6.09652 Y137.36501
G01 X6.19060 Y137.52795
G01 X6.22461 Y137.60436
G01 X6.28275 Y137.78327
G01 X6.30012 Y137.86509
G01 X6.31978 Y138.05221
G01 X6.31978 Y138.13582
G01 X6.30012 Y138.32295
G01 X6.28275 Y138.40473
G01 X6.22461 Y138.58368
G01 X6.19060 Y138.66008
G01 X6.09652 Y138.82302
G01 X6.04737 Y138.89066
G01 X5.92146 Y139.03049
G01 X5.85931 Y139.08645
G01 X5.70711 Y139.19704
G01 X5.63467 Y139.23885
G01 X5.46279 Y139.31538
G01 X5.38326 Y139.34123
G01 X5.19924 Y139.38035
G01 X5.11605 Y139.38909
G01 X4.92791 Y139.38909
G01 X4.84476 Y139.38035
G01 X4.66071 Y139.34123
G01 X4.58118 Y139.31538
G01 X4.40930 Y139.23885
G01 X4.33688 Y139.19704
G01 X4.18466 Y139.08645
G01 X4.12251 Y139.03049
G01 X3.99662 Y138.89066
G01 X3.94745 Y138.82302
G01 X3.85339 Y138.66008
G01 X3.81938 Y138.58368
G01 X3.76124 Y138.40473
G01 X3.74384 Y138.32295
G01 X3.72418 Y138.13582
G01 X3.72418 Y138.05221
G04 P0 ( dwell for no time -- G64 should not smooth over this point )
G00 Z2.00000 ( retract )

G00 X13.72419 Y133.96819 ( rapid move to begin. )
G01 F200.00000
( Mill infeed pass 1/1 )
G01 Z-0.20000
G04 P0 ( dwell for no time -- G64 should not smooth over this point )
G01 F400.00000
G01 X13.72419 Y133.96819
G01 X13.74385 Y133.78107
G01 X13.76122 Y133.69928
G01 X13.81936 Y133.52034
G01 X13.85340 Y133.44396
G01 X13.94746 Y133.28100
G01 X13.99660 Y133.21336
G01 X14.12251 Y133.07353
G01 X14.18467 Y133.01757
G01 X14.33686 Y132.90698
G01 X14.40930 Y132.86517
G01 X14.58119 Y132.78864
G01 X14.66071 Y132.76281
G01 X14.84474 Y132.72369
G01 X14.92792 Y132.71493
G01 X15.11606 Y132.71493
G01 X15.19922 Y132.72369
G01 X15.38327 Y132.76281
G01 X15.46279 Y132.78864
G01 X15.63468 Y132.86517
G01 X15.70709 Y132.90698
G01 X15.85931 Y133.01757
G01 X15.92147 Y133.07353
G01 X16.04735 Y133.21336
G01 X16.09652 Y133.28100
G01 X16.19058 Y133.44396
G01 X16.22459 Y133.52034
G01 X16.28273 Y133.69928
G01 X16.30013 Y133.78107
G01 X16.31979 Y133.96819
G01 X16.31979 Y134.05184
G01 X16.30013 Y134.23896
G01 X16.28273 Y134.32074
G01 X16.22459 Y134.49969
G01 X16.19058 Y134.57607
G01 X16.09652 Y134.73903
G01 X16.04735 Y134.80667
G01 X15.92147 Y134.94650
G01 X15.85931 Y135.00246
G01 X15.70709 Y135.11305
G01 X15.63468 Y135.15486
G01 X15.46279 Y135.23139
G01 X15.38327 Y135.25722
G01 X15.19922 Y135.29633
G01 X15.11606 Y135.30507
G01 X14.92792 Y135.30507
G01 X14.84474 Y135.29633
G01 X14.66071 Y135.25722
G01 X14.58119 Y135.23139
G01 X14.40930 Y135.15486
G01 X14.33686 Y135.11305
G01 X14.18467 Y135.00246
G01 X14.12251 Y134.94650
G01 X13.99660 Y134.80667
G01 X13.94746 Y134.73903
G01 X13.85340 Y134.57607
G01 X13.81936 Y134.49969
G01 X13.76122 Y134.32074
G01 X13.74385 Y134.23896
G01 X13.72419 Y134.05184
G01 X13.72419 Y133.96819
G04 P0 ( dwell for no time -- G64 should not smooth over this point )
G00 Z2.00000 ( retract )

G00 X13.47418 Y129.90419 ( rapid move to begin. )
G01 F200.00000
( Mill infeed pass 1/1 )
G01 Z-0.20000
G04 P0 ( dwell for no time -- G64 should not smooth over this point )
G01 F400.00000
G01 X13.47418 Y129.90419
G01 X13.49930 Y129.66510
G01 X13.51670 Y129.58331
G01 X13.59099 Y129.35466
G01 X13.62500 Y129.27826
G01 X13.74522 Y129.07006
G01 X13.79437 Y129.00242
G01 X13.95523 Y128.82375
G01 X14.01738 Y128.76780
G01 X14.21187 Y128.62647
G01 X14.28428 Y128.58466
G01 X14.50392 Y128.48687
G01 X14.58345 Y128.46104
G01 X14.81862 Y128.41105
G01 X14.90178 Y128.40232
G01 X15.14219 Y128.40232
G01 X15.22535 Y128.41105
G01 X15.46053 Y128.46104
G01 X15.54006 Y128.48687
G01 X15.75969 Y128.58466
G01 X15.83211 Y128.62647
G01 X16.02660 Y128.76780
G01 X16.08875 Y128.82375
G01 X16.24961 Y129.00242
G01 X16.29876 Y129.07006
G01 X16.41898 Y129.27826
G01 X16.45299 Y129.35466
G01 X16.52728 Y129.58331
G01 X16.54466 Y129.66510
G01 X16.56980 Y129.90419
G01 X16.56980 Y129.98784
G01 X16.54466 Y130.22693
G01 X16.52728 Y130.30871
G01 X16.45299 Y130.53736
G01 X16.41898 Y130.61377
G01 X16.29876 Y130.82197
G01 X16.24961 Y130.88961
G01 X16.08875 Y131.06827
G01 X16.02660 Y131.12423
G01 X15.83211 Y131.26556
G01 X15.75969 Y131.30737
G01 X15.54006 Y131.40516
G01 X15.46053 Y131.43099
G01 X15.22535 Y131.48097
G01 X15.14219 Y131.48971
G01 X14.90178 Y131.48971
G01 X14.81862 Y131.48097
G01 X14.58345 Y131.43099
G01 X14.50392 Y131.40516
G01 X14.28428 Y131.30737
G01 X14.21187 Y131.26556
G01 X14.01738 Y131.12423
G01 X13.95523 Y131.06827
G01 X13.79437 Y130.88961
G01 X13.74522 Y130.82197
G01 X13.62500 Y130.61377
G01 X13.59099 Y130.53736
G01 X13.51670 Y130.30871
G01 X13.49930 Y130.22693
G01 X13.47418 Y129.98784
G01 X13.47418 Y129.90419
G04 P0 ( dwell for no time -- G64 should not smooth over this point )
G00 Z2.00000 ( retract )

G00 X13.47418 Y125.84019 ( rapid move to begin. )
G01 F200.00000
( Mill infeed pass 1/1 )
G01 Z-0.20000
G04 P0 ( dwell for no time -- G64 should not smooth over this point )
G01 F400.00000
G01 X13.47418 Y125.84019
G01 X13.49930 Y125.60110
G01 X13.51670 Y125.51931
G01 X13.59099 Y125.29066
G01 X13.62500 Y125.21426
G01 X13.74522 Y125.00606
G01 X13.79437 Y124.93842
G01 X13.95523 Y124.75975
G01 X14.01738 Y124.70380
G01 X14.21187 Y124.56247
G01 X14.28428 Y124.52066
G01 X14.50392 Y124.42287
G01 X14.58345 Y124.39704
G01 X14.81862 Y124.34708
G01 X14.90178 Y124.33832
G01 X15.14219 Y124.33832
G01 X15.22535 Y124.34708
G01 X15.46053 Y124.39704
G01 X15.54006 Y124.42287
G01 X15.75969 Y124.52066
G01 X15.83211 Y124.56247
G01 X16.02660 Y124.70380
G01 X16.08875 Y124.75975
G01 X16.24961 Y124.93842
G01 X16.29876 Y125.00606
G01 X16.41898 Y125.21426
G01 X16.45299 Y125.29066
G01 X16.52728 Y125.51931
G01 X16.54466 Y125.60110
G01 X16.56980 Y125.84019
G01 X16.56980 Y125.92383
G01 X16.54466 Y126.16293
G01 X16.52728 Y126.24471
G01 X16.45299 Y126.47336
G01 X16.41898 Y126.54977
G01 X16.29876 Y126.75797
G01 X16.24961 Y126.82561
G01 X16.08875 Y127.00427
G01 X16.02660 Y127.06023
G01 X15.83211 Y127.20156
G01 X15.75969 Y127.24336
G01 X15.54006 Y127.34116
G01 X15.46053 Y127.36699
G01 X15.22535 Y127.41697
G01 X15.14219 Y127.42571
G01 X14.90178 Y127.42571
G01 X14.81862 Y127.41697
G01 X14.58345 Y127.36699
G01 X14.50392 Y127.34116
G01 X14.28428 Y127.24336
G01 X14.21187 Y127.20156
G01 X14.01738 Y127.06023
G01 X13.95523 Y127.00427
G01 X13.79437 Y126.82561
G01 X13.74522 Y126.75797
G01 X13.62500 Y126.54977
G01 X13.59099 Y126.47336
G01 X13.51670 Y126.24471
G01 X13.49930 Y126.16293
G01 X13.47418 Y125.92383
G01 X13.47418 Y125.84019
G04 P0 ( dwell for no time -- G64 should not smooth over this point )
G00 Z2.00000 ( retract )

G00 X11.26417 Y122.03019 ( rapid move to begin. )
G01 F200.00000
( Mill infeed pass 1/1 )
G01 Z-0.20000
G04 P0 ( dwell for no time -- G64 should not smooth over this point )
G01 F400.00000
G01 X11.26417 Y122.03019
G01 X11.28165 Y121.86387
G01 X11.29905 Y121.78209
G01 X11.35074 Y121.62301
G01 X11.38475 Y121.54663
G01 X11.46836 Y121.40180
G01 X11.51751 Y121.33413
G01 X11.62943 Y121.20985
G01 X11.69158 Y121.15389
G01 X11.82689 Y121.05559
G01 X11.89930 Y121.01379
G01 X12.05208 Y120.94574
G01 X12.13161 Y120.91991
G01 X12.29521 Y120.88514
G01 X12.37837 Y120.87640
G01 X12.54560 Y120.87640
G01 X12.62876 Y120.88514
G01 X12.79236 Y120.91991
G01 X12.87189 Y120.94574
G01 X13.02467 Y121.01379
G01 X13.09711 Y121.05559
G01 X13.23239 Y121.15389
G01 X13.29455 Y121.20985
G01 X13.40646 Y121.33413
G01 X13.45561 Y121.40180
G01 X13.53923 Y121.54663
G01 X13.57324 Y121.62301
G01 X13.62493 Y121.78209
G01 X13.64232 Y121.86387
G01 X13.65980 Y122.03019
G01 X13.65980 Y122.11383
G01 X13.64232 Y122.28015
G01 X13.62493 Y122.36194
G01 X13.57324 Y122.52100
G01 X13.53923 Y122.59740
G01 X13.45561 Y122.74223
G01 X13.40646 Y122.80990
G01 X13.29455 Y122.93418
G01 X13.23239 Y122.99014
G01 X13.09711 Y123.08843
G01 X13.02467 Y123.13024
G01 X12.87189 Y123.19829
G01 X12.79236 Y123.22412
G01 X12.62876 Y123.25889
G01 X12.54560 Y123.26766
G01 X12.37837 Y123.26766
G01 X12.29521 Y123.25889
G01 X12.13161 Y123.22412
G01 X12.05208 Y123.19829
G01 X11.89930 Y123.13024
G01 X11.82689 Y123.08843
G01 X11.69158 Y122.99014
G01 X11.62943 Y122.93418
G01 X11.51751 Y122.80990
G01 X11.46836 Y122.74223
G01 X11.38475 Y122.59740
G01 X11.35074 Y122.52100
G01 X11.29905 Y122.36194
G01 X11.28165 Y122.28015
G01 X11.26417 Y122.11383
G01 X11.26417 Y122.03019
G04 P0 ( dwell for no time -- G64 should not smooth over this point )
G00 Z2.00000 ( retract )

G00 X3.47417 Y125.84019 ( rapid move to begin. )
G01 F200.00000
( Mill infeed pass 1/1 )
G01 Z-0.20000
G04 P0 ( dwell for no time -- G64 should not smooth over this point )
G01 F400.00000
G01 X3.47417 Y125.84019
G01 X3.47417 Y125.92383
G01 X3.49932 Y126.16293
G01 X3.51669 Y126.24471
G01 X3.59099 Y126.47336
G01 X3.62500 Y126.54977
G01 X3.74521 Y126.75797
G01 X3.79436 Y126.82561
G01 X3.95522 Y127.00427
G01 X4.01738 Y127.06023
G01 X4.21186 Y127.20156
G01 X4.28430 Y127.24336
G01 X4.50391 Y127.34116
G01 X4.58347 Y127.36699
G01 X4.81862 Y127.41697
G01 X4.90178 Y127.42571
G01 X5.14219 Y127.42571
G01 X5.22535 Y127.41697
G01 X5.46053 Y127.36699
G01 X5.54006 Y127.34116
G01 X5.75969 Y127.24336
G01 X5.83210 Y127.20156
G01 X6.02659 Y127.06023
G01 X6.08875 Y127.00427
G01 X6.24960 Y126.82561
G01 X6.29878 Y126.75797
G01 X6.41897 Y126.54977
G01 X6.45298 Y126.47336
G01 X6.52728 Y126.24471
G01 X6.54468 Y126.16293
G01 X6.56980 Y125.92383
G01 X6.56980 Y125.84019
G01 X6.54468 Y125.60110
G01 X6.52728 Y125.51931
G01 X6.45298 Y125.29066
G01 X6.41897 Y125.21426
G01 X6.29878 Y125.00606
G01 X6.24960 Y124.93842
G01 X6.08875 Y124.75975
G01 X6.02659 Y124.70380
G01 X5.83210 Y124.56247
G01 X5.75969 Y124.52066
G01 X5.54006 Y124.42287
G01 X5.46053 Y124.39704
G01 X5.22535 Y124.34708
G01 X5.14219 Y124.33832
G01 X4.90178 Y124.33832
G01 X4.81862 Y124.34708
G01 X4.58347 Y124.39704
G01 X4.50391 Y124.42287
G01 X4.28430 Y124.52066
G01 X4.21186 Y124.56247
G01 X4.01738 Y124.70380
G01 X3.95522 Y124.75975
G01 X3.79436 Y124.93842
G01 X3.74521 Y125.00606
G01 X3.62500 Y125.21426
G01 X3.59099 Y125.29066
G01 X3.51669 Y125.51931
G01 X3.49932 Y125.60110
G01 X3.47417 Y125.84019
G04 P0 ( dwell for no time -- G64 should not smooth over this point )
G00 Z2.00000 ( retract )

G00 X6.26418 Y122.03019 ( rapid move to begin. )
G01 F200.00000
( Mill infeed pass 1/1 )
G01 Z-0.20000
G04 P0 ( dwell for no time -- G64 should not smooth over this point )
G01 F400.00000
G01 X6.26418 Y122.03019
G01 X6.26418 Y122.11383
G01 X6.28166 Y122.28015
G01 X6.29906 Y122.36194
G01 X6.35072 Y122.52100
G01 X6.38473 Y122.59740
G01 X6.46837 Y122.74223
G01 X6.51752 Y122.80990
G01 X6.62944 Y122.93418
G01 X6.69156 Y122.99014
G01 X6.82687 Y123.08843
G01 X6.89929 Y123.13024
G01 X7.05209 Y123.19829
G01 X7.13162 Y123.22412
G01 X7.29520 Y123.25889
G01 X7.37835 Y123.26766
G01 X7.54561 Y123.26766
G01 X7.62877 Y123.25889
G01 X7.79237 Y123.22412
G01 X7.87190 Y123.19829
G01 X8.02468 Y123.13024
G01 X8.09710 Y123.08843
G01 X8.23240 Y122.99014
G01 X8.29456 Y122.93418
G01 X8.40647 Y122.80990
G01 X8.45562 Y122.74223
G01 X8.53924 Y122.59740
G01 X8.57325 Y122.52100
G01 X8.62494 Y122.36194
G01 X8.64231 Y122.28015
G01 X8.65978 Y122.11383
G01 X8.65978 Y122.03019
G01 X8.64231 Y121.86387
G01 X8.62494 Y121.78209
G01 X8.57325 Y121.62301
G01 X8.53924 Y121.54663
G01 X8.45562 Y121.40180
G01 X8.40647 Y121.33413
G01 X8.29456 Y121.20985
G01 X8.23240 Y121.15389
G01 X8.09710 Y121.05559
G01 X8.02468 Y121.01379
G01 X7.87190 Y120.94574
G01 X7.79237 Y120.91991
G01 X7.62877 Y120.88514
G01 X7.54561 Y120.87640
G01 X7.37835 Y120.87640
G01 X7.29520 Y120.88514
G01 X7.13162 Y120.91991
G01 X7.05209 Y120.94574
G01 X6.89929 Y121.01379
G01 X6.82687 Y121.05559
G01 X6.69156 Y121.15389
G01 X6.62944 Y121.20985
G01 X6.51752 Y121.33413
G01 X6.46837 Y121.40180
G01 X6.38473 Y121.54663
G01 X6.35072 Y121.62301
G01 X6.29906 Y121.78209
G01 X6.28166 Y121.86387
G01 X6.26418 Y122.03019
G04 P0 ( dwell for no time -- G64 should not smooth over this point )
G00 Z2.00000 ( retract )

G00 X5.86197 Y112.84215 ( rapid move to begin. )
G01 F200.00000
( Mill infeed pass 1/1 )
G01 Z-0.20000
G04 P0 ( dwell for no time -- G64 should not smooth over this point )
G01 F400.00000
G01 X5.86197 Y112.84215
G01 X5.87203 Y112.86476
G01 X5.97655 Y113.04581
G01 X6.02570 Y113.11345
G01 X6.16561 Y113.26882
G01 X6.22773 Y113.32477
G01 X6.39687 Y113.44763
G01 X6.46929 Y113.48947
G01 X6.66027 Y113.57448
G01 X6.73980 Y113.60034
G01 X6.94429 Y113.64380
G01 X7.02745 Y113.65254
G01 X7.23652 Y113.65254
G01 X7.31968 Y113.64380
G01 X7.52418 Y113.60034
G01 X7.60370 Y113.57448
G01 X7.79469 Y113.48947
G01 X7.86710 Y113.44763
G01 X8.03624 Y113.32477
G01 X8.09837 Y113.26882
G01 X8.23827 Y113.11345
G01 X8.28742 Y113.04581
G01 X8.39194 Y112.86476
G01 X8.42595 Y112.78835
G01 X8.49057 Y112.58952
G01 X8.50794 Y112.50773
G01 X8.52979 Y112.29983
G01 X8.52979 Y112.21619
G01 X8.50794 Y112.00829
G01 X8.49057 Y111.92650
G01 X8.42595 Y111.72767
G01 X8.39194 Y111.65127
G01 X8.28742 Y111.47022
G01 X8.23827 Y111.40258
G01 X8.09837 Y111.24721
G01 X8.03624 Y111.19125
G01 X7.86710 Y111.06839
G01 X7.79469 Y111.02656
G01 X7.70805 Y110.98803
G01 X6.55585 Y110.98803
G01 X6.46929 Y110.94947
G01 X6.39687 Y110.90763
G01 X6.22773 Y110.78477
G01 X6.16561 Y110.72882
G01 X6.02570 Y110.57345
G01 X5.97655 Y110.50581
G01 X5.87203 Y110.32476
G01 X5.86197 Y110.30215
G04 P0 ( dwell for no time -- G64 should not smooth over this point )
G00 Z2.00000 ( retract )

G00 X5.16805 Y110.98803 ( rapid move to begin. )
G01 F200.00000
( Mill infeed pass 1/1 )
G01 Z-0.20000
G04 P0 ( dwell for no time -- G64 should not smooth over this point )
G01 F400.00000
G01 X5.16805 Y110.98803
G01 X5.25469 Y111.02656
G01 X5.32710 Y111.06839
G01 X5.49177 Y111.18803
G01 X5.49624 Y111.19125
G01 X5.55837 Y111.24721
G01 X5.69827 Y111.40258
G01 X5.74742 Y111.47022
G01 X5.85194 Y111.65127
G01 X5.86197 Y111.67380
G01 X5.86197 Y112.84215
G01 X5.85194 Y112.86476
G01 X5.74742 Y113.04581
G01 X5.69827 Y113.11345
G01 X5.55837 Y113.26882
G01 X5.49624 Y113.32477
G01 X5.32710 Y113.44763
G01 X5.25469 Y113.48947
G01 X5.06370 Y113.57448
G01 X4.98418 Y113.60034
G01 X4.77968 Y113.64380
G01 X4.69652 Y113.65254
G01 X4.48745 Y113.65254
G01 X4.40429 Y113.64380
G01 X4.19980 Y113.60034
G01 X4.12027 Y113.57448
G01 X3.92929 Y113.48947
G01 X3.85687 Y113.44763
G01 X3.68773 Y113.32477
G01 X3.62561 Y113.26882
G01 X3.48570 Y113.11345
G01 X3.43655 Y113.04581
G01 X3.33203 Y112.86476
G01 X3.29802 Y112.78835
G01 X3.23340 Y112.58952
G01 X3.21603 Y112.50773
G01 X3.19419 Y112.29983
G01 X3.19419 Y112.21619
G01 X3.21603 Y112.00829
G01 X3.23340 Y111.92650
G01 X3.29802 Y111.72767
G01 X3.33203 Y111.65127
G01 X3.43655 Y111.47022
G01 X3.48570 Y111.40258
G01 X3.62561 Y111.24721
G01 X3.68773 Y111.19125
G01 X3.85687 Y111.06839
G01 X3.92929 Y111.02656
G01 X4.01585 Y110.98803
G01 X5.16805 Y110.98803
G01 X5.25469 Y110.94947
G01 X5.32710 Y110.90763
G01 X5.49624 Y110.78477
G01 X5.55837 Y110.72882
G01 X5.69827 Y110.57345
G01 X5.74742 Y110.50581
G01 X5.85194 Y110.32476
G01 X5.86197 Y110.30215
G01 X5.86197 Y109.13380
G01 X5.85194 Y109.11127
G01 X5.74742 Y108.93022
G01 X5.69827 Y108.86258
G01 X5.55837 Y108.70721
G01 X5.49624 Y108.65125
G01 X5.49177 Y108.64803
G01 X5.32710 Y108.52839
G01 X5.25469 Y108.48656
G01 X5.16807 Y108.44803
G01 X4.01588 Y108.44803
G01 X3.92929 Y108.40947
G01 X3.85687 Y108.36763
G01 X3.68773 Y108.24477
G01 X3.62561 Y108.18882
G01 X3.48570 Y108.03345
G01 X3.43655 Y107.96581
G01 X3.33203 Y107.78476
G01 X3.29802 Y107.70835
G01 X3.23340 Y107.50952
G01 X3.21603 Y107.42773
G01 X3.19419 Y107.21983
G01 X3.19419 Y107.13619
G01 X3.21603 Y106.92829
G01 X3.23340 Y106.84650
G01 X3.29802 Y106.64767
G01 X3.33203 Y106.57127
G01 X3.43655 Y106.39022
G01 X3.48570 Y106.32258
G01 X3.62561 Y106.16721
G01 X3.68773 Y106.11125
G01 X3.85687 Y105.98839
G01 X3.92929 Y105.94656
G01 X4.01585 Y105.90803
G01 X5.16805 Y105.90803
G01 X5.25469 Y105.86947
G01 X5.32710 Y105.82763
G01 X5.49624 Y105.70477
G01 X5.55837 Y105.64882
G01 X5.69827 Y105.49345
G01 X5.74742 Y105.42581
G01 X5.85194 Y105.24476
G01 X5.86197 Y105.22215
G01 X5.86197 Y104.05380
G01 X5.85194 Y104.03127
G01 X5.74742 Y103.85022
G01 X5.69827 Y103.78258
G01 X5.55837 Y103.62721
G01 X5.49624 Y103.57125
G01 X5.32710 Y103.44839
G01 X5.25469 Y103.40656
G01 X5.16805 Y103.36803
G01 X4.01588 Y103.36803
G01 X3.92929 Y103.40656
G01 X3.85687 Y103.44839
G01 X3.68773 Y103.57125
G01 X3.62561 Y103.62721
G01 X3.48570 Y103.78258
G01 X3.43655 Y103.85022
G01 X3.33203 Y104.03127
G01 X3.29802 Y104.10767
G01 X3.23340 Y104.30650
G01 X3.21603 Y104.38829
G01 X3.19419 Y104.59619
G01 X3.19419 Y104.67983
G01 X3.21603 Y104.88773
G01 X3.23340 Y104.96952
G01 X3.29802 Y105.16835
G01 X3.33203 Y105.24476
G01 X3.43655 Y105.42581
G01 X3.48570 Y105.49345
G01 X3.62561 Y105.64882
G01 X3.68773 Y105.70477
G01 X3.85687 Y105.82763
G01 X3.92929 Y105.86947
G01 X4.01585 Y105.90803
G04 P0 ( dwell for no time -- G64 should not smooth over this point )
G00 Z2.00000 ( retract )

G00 X5.16805 Y105.90803 ( rapid move to begin. )
G01 F200.00000
( Mill infeed pass 1/1 )
G01 Z-0.20000
G04 P0 ( dwell for no time -- G64 should not smooth over this point )
G01 F400.00000
G01 X5.16805 Y105.90803
G01 X5.25469 Y105.94656
G01 X5.32710 Y105.98839
G01 X5.49624 Y106.11125
G01 X5.55837 Y106.16721
G01 X5.69827 Y106.32258
G01 X5.74742 Y106.39022
G01 X5.85194 Y106.57127
G01 X5.86197 Y106.59380
G01 X5.86197 Y107.76215
G01 X5.85194 Y107.78476
G01 X5.74742 Y107.96581
G01 X5.69827 Y108.03345
G01 X5.55837 Y108.18882
G01 X5.49624 Y108.24477
G01 X5.32710 Y108.36763
G01 X5.25469 Y108.40947
G01 X5.16807 Y108.44803
G04 P0 ( dwell for no time -- G64 should not smooth over this point )
G00 Z2.00000 ( retract )

G00 X4.01588 Y108.44803 ( rapid move to begin. )
G01 F200.00000
( Mill infeed pass 1/1 )
G01 Z-0.20000
G04 P0 ( dwell for no time -- G64 should not smooth over this point )
G01 F400.00000
G01 X4.01588 Y108.44803
G01 X3.92929 Y108.48656
G01 X3.85687 Y108.52839
G01 X3.68773 Y108.65125
G01 X3.62561 Y108.70721
G01 X3.48570 Y108.86258
G01 X3.43655 Y108.93022
G01 X3.33203 Y109.11127
G01 X3.29802 Y109.18767
G01 X3.23340 Y109.38650
G01 X3.21603 Y109.46829
G01 X3.19419 Y109.67619
G01 X3.19419 Y109.75983
G01 X3.21603 Y109.96773
G01 X3.23340 Y110.04952
G01 X3.29802 Y110.24835
G01 X3.33203 Y110.32476
G01 X3.43655 Y110.50581
G01 X3.48570 Y110.57345
G01 X3.62561 Y110.72882
G01 X3.68773 Y110.78477
G01 X3.85687 Y110.90763
G01 X3.92929 Y110.94947
G01 X4.01585 Y110.98803
G04 P0 ( dwell for no time -- G64 should not smooth over this point )
G00 Z2.00000 ( retract )

G00 X5.86197 Y111.67380 ( rapid move to begin. )
G01 F200.00000
( Mill infeed pass 1/1 )
G01 Z-0.20000
G04 P0 ( dwell for no time -- G64 should not smooth over this point )
G01 F400.00000
G01 X5.86197 Y111.67380
G01 X5.87203 Y111.65127
G01 X5.97655 Y111.47022
G01 X6.02570 Y111.40258
G01 X6.16561 Y111.24721
G01 X6.22773 Y111.19125
G01 X6.23221 Y111.18803
G01 X6.39687 Y111.06839
G01 X6.46929 Y111.02656
G01 X6.55585 Y110.98803
G04 P0 ( dwell for no time -- G64 should not smooth over this point )
G00 Z2.00000 ( retract )

G00 X10.05618 Y110.94111 ( rapid move to begin. )
G01 F200.00000
( Mill infeed pass 1/1 )
G01 Z-0.20000
G04 P0 ( dwell for no time -- G64 should not smooth over this point )
G01 F400.00000
G01 X10.05618 Y110.94111
G01 X10.08351 Y110.68124
G01 X10.10088 Y110.59943
G01 X10.18163 Y110.35092
G01 X10.21564 Y110.27451
G01 X10.34629 Y110.04820
G01 X10.39547 Y109.98056
G01 X10.57032 Y109.78635
G01 X10.63245 Y109.73040
G01 X10.84388 Y109.57680
G01 X10.91630 Y109.53499
G01 X11.15503 Y109.42869
G01 X11.23456 Y109.40286
G01 X11.49016 Y109.34853
G01 X11.57332 Y109.33979
G01 X11.83466 Y109.33979
G01 X11.91782 Y109.34853
G01 X12.17342 Y109.40286
G01 X12.25294 Y109.42869
G01 X12.49168 Y109.53499
G01 X12.56409 Y109.57680
G01 X12.77552 Y109.73040
G01 X12.83765 Y109.78635
G01 X13.01251 Y109.98056
G01 X13.06168 Y110.04820
G01 X13.19234 Y110.27451
G01 X13.22635 Y110.35092
G01 X13.30710 Y110.59943
G01 X13.32447 Y110.68124
G01 X13.35180 Y110.94111
G01 X13.35180 Y111.02475
G01 X13.32447 Y111.28465
G01 X13.30710 Y111.36643
G01 X13.22635 Y111.61497
G01 X13.19234 Y111.69135
G01 X13.06168 Y111.91767
G01 X13.01251 Y111.98533
G01 X12.83765 Y112.17951
G01 X12.77552 Y112.23547
G01 X12.62696 Y112.34339
G01 X12.62696 Y114.29958
G01 X13.35891 Y115.03153
G01 X15.42553 Y115.03153
G01 X19.32217 Y111.05788
G01 X19.32217 Y110.97820
G01 X19.34950 Y110.71830
G01 X19.36688 Y110.63651
G01 X19.44762 Y110.38798
G01 X19.48166 Y110.31160
G01 X19.61232 Y110.08528
G01 X19.66146 Y110.01762
G01 X19.83632 Y109.82344
G01 X19.89847 Y109.76748
G01 X20.10988 Y109.61389
G01 X20.18229 Y109.57205
G01 X20.42103 Y109.46578
G01 X20.50055 Y109.43992
G01 X20.75615 Y109.38559
G01 X20.83934 Y109.37685
G01 X21.10065 Y109.37685
G01 X21.18381 Y109.38559
G01 X21.43941 Y109.43992
G01 X21.51894 Y109.46578
G01 X21.75768 Y109.57205
G01 X21.83009 Y109.61389
G01 X22.04152 Y109.76748
G01 X22.10365 Y109.82344
G01 X22.27853 Y110.01762
G01 X22.32768 Y110.08528
G01 X22.45833 Y110.31160
G01 X22.49235 Y110.38798
G01 X22.57309 Y110.63651
G01 X22.59049 Y110.71830
G01 X22.61780 Y110.97820
G01 X22.61780 Y111.06181
G01 X22.59049 Y111.32171
G01 X22.57309 Y111.40352
G01 X22.49235 Y111.65203
G01 X22.45833 Y111.72844
G01 X22.32768 Y111.95475
G01 X22.27853 Y112.02239
G01 X22.10365 Y112.21660
G01 X22.04152 Y112.27255
G01 X21.83009 Y112.42615
G01 X21.75768 Y112.46796
G01 X21.51894 Y112.57426
G01 X21.43941 Y112.60009
G01 X21.18381 Y112.65442
G01 X21.10065 Y112.66316
G01 X20.96934 Y112.66316
G01 X16.72957 Y116.98669
G01 X16.70036 Y117.01367
G01 X16.58611 Y117.10907
G01 X16.52042 Y117.15367
G01 X16.38959 Y117.22464
G01 X16.31639 Y117.25537
G01 X16.17412 Y117.29911
G01 X16.09630 Y117.31478
G01 X15.94816 Y117.32954
G01 X15.90849 Y117.33152
G01 X12.88259 Y117.33152
G01 X12.84337 Y117.32959
G01 X12.69704 Y117.31519
G01 X12.62015 Y117.29990
G01 X12.47946 Y117.25720
G01 X12.40700 Y117.22721
G01 X12.27735 Y117.15789
G01 X12.21215 Y117.11433
G01 X12.09849 Y117.02106
G01 X12.06940 Y116.99469
G01 X10.66379 Y115.58911
G01 X10.63743 Y115.56003
G01 X10.54416 Y115.44639
G01 X10.50060 Y115.38118
G01 X10.43128 Y115.25152
G01 X10.40128 Y115.17908
G01 X10.35859 Y115.03839
G01 X10.34330 Y114.96147
G01 X10.32889 Y114.81515
G01 X10.32696 Y114.77593
G01 X10.32696 Y111.88416
G01 X10.21564 Y111.69135
G01 X10.18163 Y111.61497
G01 X10.10088 Y111.36643
G01 X10.08351 Y111.28465
G01 X10.05618 Y111.02475
G01 X10.05618 Y110.94111
G04 P0 ( dwell for no time -- G64 should not smooth over this point )
G00 Z2.00000 ( retract )

G00 X7.70805 Y110.98803 ( rapid move to begin. )
G01 F200.00000
( Mill infeed pass 1/1 )
G01 Z-0.20000
G04 P0 ( dwell for no time -- G64 should not smooth over this point )
G01 F400.00000
G01 X7.70805 Y110.98803
G01 X7.79469 Y110.94947
G01 X7.86710 Y110.90763
G01 X8.03624 Y110.78477
G01 X8.09837 Y110.72882
G01 X8.23827 Y110.57345
G01 X8.28742 Y110.50581
G01 X8.39194 Y110.32476
G01 X8.42595 Y110.24835
G01 X8.49057 Y110.04952
G01 X8.50794 Y109.96773
G01 X8.52979 Y109.75983
G01 X8.52979 Y109.67619
G01 X8.50794 Y109.46829
G01 X8.49057 Y109.38650
G01 X8.42595 Y109.18767
G01 X8.39194 Y109.11127
G01 X8.28742 Y108.93022
G01 X8.23827 Y108.86258
G01 X8.09837 Y108.70721
G01 X8.03624 Y108.65125
G01 X8.03177 Y108.64803
G01 X7.86710 Y108.52839
G01 X7.79469 Y108.48656
G01 X7.70805 Y108.44803
G04 P0 ( dwell for no time -- G64 should not smooth over this point )
G00 Z2.00000 ( retract )

G00 X6.55585 Y108.44803 ( rapid move to begin. )
G01 F200.00000
( Mill infeed pass 1/1 )
G01 Z-0.20000
G04 P0 ( dwell for no time -- G64 should not smooth over this point )
G01 F400.00000
G01 X6.55585 Y108.44803
G01 X6.46929 Y108.40947
G01 X6.39687 Y108.36763
G01 X6.23223 Y108.24803
G01 X6.22773 Y108.24477
G01 X6.16561 Y108.18882
G01 X6.02570 Y108.03345
G01 X5.97655 Y107.96581
G01 X5.87203 Y107.78476
G01 X5.86197 Y107.76215
G04 P0 ( dwell for no time -- G64 should not smooth over this point )
G00 Z2.00000 ( retract )

G00 X5.86197 Y109.13380 ( rapid move to begin. )
G01 F200.00000
( Mill infeed pass 1/1 )
G01 Z-0.20000
G04 P0 ( dwell for no time -- G64 should not smooth over this point )
G01 F400.00000
G01 X5.86197 Y109.13380
G01 X5.87203 Y109.11127
G01 X5.97655 Y108.93022
G01 X6.02570 Y108.86258
G01 X6.16561 Y108.70721
G01 X6.22773 Y108.65125
G01 X6.23221 Y108.64803
G01 X6.39687 Y108.52839
G01 X6.46929 Y108.48656
G01 X6.55585 Y108.44803
G01 X7.70805 Y108.44803
G01 X7.79469 Y108.40947
G01 X7.86710 Y108.36763
G01 X8.03624 Y108.24477
G01 X8.09837 Y108.18882
G01 X8.23827 Y108.03345
G01 X8.28742 Y107.96581
G01 X8.39194 Y107.78476
G01 X8.42595 Y107.70835
G01 X8.49057 Y107.50952
G01 X8.50794 Y107.42773
G01 X8.52979 Y107.21983
G01 X8.52979 Y107.13619
G01 X8.50794 Y106.92829
G01 X8.49057 Y106.84650
G01 X8.42595 Y106.64767
G01 X8.39194 Y106.57127
G01 X8.28742 Y106.39022
G01 X8.23827 Y106.32258
G01 X8.09837 Y106.16721
G01 X8.03624 Y106.11125
G01 X7.86710 Y105.98839
G01 X7.79469 Y105.94656
G01 X7.70805 Y105.90803
G01 X6.55585 Y105.90803
G01 X6.46929 Y105.86947
G01 X6.39687 Y105.82763
G01 X6.22773 Y105.70477
G01 X6.16561 Y105.64882
G01 X6.02570 Y105.49345
G01 X5.97655 Y105.42581
G01 X5.87203 Y105.24476
G01 X5.86197 Y105.22215
G04 P0 ( dwell for no time -- G64 should not smooth over this point )
G00 Z2.00000 ( retract )

G00 X5.86197 Y106.59380 ( rapid move to begin. )
G01 F200.00000
( Mill infeed pass 1/1 )
G01 Z-0.20000
G04 P0 ( dwell for no time -- G64 should not smooth over this point )
G01 F400.00000
G01 X5.86197 Y106.59380
G01 X5.87203 Y106.57127
G01 X5.97655 Y106.39022
G01 X6.02570 Y106.32258
G01 X6.16561 Y106.16721
G01 X6.22773 Y106.11125
G01 X6.39687 Y105.98839
G01 X6.46929 Y105.94656
G01 X6.55585 Y105.90803
G04 P0 ( dwell for no time -- G64 should not smooth over this point )
G00 Z2.00000 ( retract )

G00 X7.70805 Y105.90803 ( rapid move to begin. )
G01 F200.00000
( Mill infeed pass 1/1 )
G01 Z-0.20000
G04 P0 ( dwell for no time -- G64 should not smooth over this point )
G01 F400.00000
G01 X7.70805 Y105.90803
G01 X7.79469 Y105.86947
G01 X7.86710 Y105.82763
G01 X8.03624 Y105.70477
G01 X8.09837 Y105.64882
G01 X8.23827 Y105.49345
G01 X8.28742 Y105.42581
G01 X8.39194 Y105.24476
G01 X8.42595 Y105.16835
G01 X8.49057 Y104.96952
G01 X8.50794 Y104.88773
G01 X8.52979 Y104.67983
G01 X8.52979 Y104.59619
G01 X8.50794 Y104.38829
G01 X8.49057 Y104.30650
G01 X8.42595 Y104.10767
G01 X8.39194 Y104.03127
G01 X8.28742 Y103.85022
G01 X8.23827 Y103.78258
G01 X8.09837 Y103.62721
G01 X8.03624 Y103.57125
G01 X7.86710 Y103.44839
G01 X7.79469 Y103.40656
G01 X7.70805 Y103.36803
G04 P0 ( dwell for no time -- G64 should not smooth over this point )
G00 Z2.00000 ( retract )

G00 X6.55585 Y103.36803 ( rapid move to begin. )
G01 F200.00000
( Mill infeed pass 1/1 )
G01 Z-0.20000
G04 P0 ( dwell for no time -- G64 should not smooth over this point )
G01 F400.00000
G01 X6.55585 Y103.36803
G01 X6.46929 Y103.32947
G01 X6.39687 Y103.28763
G01 X6.22773 Y103.16477
G01 X6.16561 Y103.10882
G01 X6.02570 Y102.95345
G01 X5.97655 Y102.88581
G01 X5.87203 Y102.70476
G01 X5.86197 Y102.68215
G04 P0 ( dwell for no time -- G64 should not smooth over this point )
G00 Z2.00000 ( retract )

G00 X5.16805 Y103.36803 ( rapid move to begin. )
G01 F200.00000
( Mill infeed pass 1/1 )
G01 Z-0.20000
G04 P0 ( dwell for no time -- G64 should not smooth over this point )
G01 F400.00000
G01 X5.16805 Y103.36803
G01 X5.25469 Y103.32947
G01 X5.32710 Y103.28763
G01 X5.49624 Y103.16477
G01 X5.55837 Y103.10882
G01 X5.69827 Y102.95345
G01 X5.74742 Y102.88581
G01 X5.85194 Y102.70476
G01 X5.86197 Y102.68215
G01 X5.86197 Y101.51380
G01 X5.85194 Y101.49127
G01 X5.74742 Y101.31022
G01 X5.69827 Y101.24258
G01 X5.55837 Y101.08721
G01 X5.49624 Y101.03125
G01 X5.32710 Y100.90839
G01 X5.25469 Y100.86656
G01 X5.06370 Y100.78154
G01 X4.98418 Y100.75569
G01 X4.77968 Y100.71223
G01 X4.69652 Y100.70349
G01 X4.48745 Y100.70349
G01 X4.40429 Y100.71223
G01 X4.19980 Y100.75569
G01 X4.12027 Y100.78154
G01 X3.92929 Y100.86656
G01 X3.85687 Y100.90839
G01 X3.68773 Y101.03125
G01 X3.62561 Y101.08721
G01 X3.48570 Y101.24258
G01 X3.43655 Y101.31022
G01 X3.33203 Y101.49127
G01 X3.29802 Y101.56767
G01 X3.23340 Y101.76650
G01 X3.21603 Y101.84829
G01 X3.19419 Y102.05619
G01 X3.19419 Y102.13983
G01 X3.21603 Y102.34773
G01 X3.23340 Y102.42952
G01 X3.29802 Y102.62835
G01 X3.33203 Y102.70476
G01 X3.43655 Y102.88581
G01 X3.48570 Y102.95345
G01 X3.62561 Y103.10882
G01 X3.68773 Y103.16477
G01 X3.85687 Y103.28763
G01 X3.92929 Y103.32947
G01 X4.01588 Y103.36803
G04 P0 ( dwell for no time -- G64 should not smooth over this point )
G00 Z2.00000 ( retract )

G00 X5.86197 Y104.05380 ( rapid move to begin. )
G01 F200.00000
( Mill infeed pass 1/1 )
G01 Z-0.20000
G04 P0 ( dwell for no time -- G64 should not smooth over this point )
G01 F400.00000
G01 X5.86197 Y104.05380
G01 X5.87203 Y104.03127
G01 X5.97655 Y103.85022
G01 X6.02570 Y103.78258
G01 X6.16561 Y103.62721
G01 X6.22773 Y103.57125
G01 X6.39687 Y103.44839
G01 X6.46929 Y103.40656
G01 X6.55585 Y103.36803
G01 X7.70805 Y103.36803
G01 X7.79469 Y103.32947
G01 X7.86710 Y103.28763
G01 X8.03624 Y103.16477
G01 X8.09837 Y103.10882
G01 X8.23827 Y102.95345
G01 X8.28742 Y102.88581
G01 X8.39194 Y102.70476
G01 X8.42595 Y102.62835
G01 X8.49057 Y102.42952
G01 X8.50794 Y102.34773
G01 X8.52979 Y102.13983
G01 X8.52979 Y102.05619
G01 X8.50794 Y101.84829
G01 X8.49057 Y101.76650
G01 X8.42595 Y101.56767
G01 X8.39194 Y101.49127
G01 X8.28742 Y101.31022
G01 X8.23827 Y101.24258
G01 X8.09837 Y101.08721
G01 X8.03624 Y101.03125
G01 X7.86710 Y100.90839
G01 X7.79469 Y100.86656
G01 X7.60370 Y100.78154
G01 X7.52418 Y100.75569
G01 X7.31968 Y100.71223
G01 X7.23652 Y100.70349
G01 X7.02745 Y100.70349
G01 X6.94429 Y100.71223
G01 X6.73980 Y100.75569
G01 X6.66027 Y100.78154
G01 X6.46929 Y100.86656
G01 X6.39687 Y100.90839
G01 X6.22773 Y101.03125
G01 X6.16561 Y101.08721
G01 X6.02570 Y101.24258
G01 X5.97655 Y101.31022
G01 X5.87203 Y101.49127
G01 X5.86197 Y101.51380
G04 P0 ( dwell for no time -- G64 should not smooth over this point )
G00 Z2.00000 ( retract )

G00 X12.80204 Y94.30223 ( rapid move to begin. )
G01 F200.00000
( Mill infeed pass 1/1 )
G01 Z-0.20000
G04 P0 ( dwell for no time -- G64 should not smooth over this point )
G01 F400.00000
G01 X12.80204 Y94.30223
G01 X12.79219 Y94.39621
G01 X12.79219 Y94.47983
G01 X12.80966 Y94.64615
G01 X12.82704 Y94.72796
G01 X12.87872 Y94.88702
G01 X12.91274 Y94.96339
G01 X12.99033 Y95.09781
G01 X12.99635 Y95.10825
G01 X13.04553 Y95.17589
G01 X13.15741 Y95.30017
G01 X13.21957 Y95.35613
G01 X13.35487 Y95.45445
G01 X13.42729 Y95.49626
G01 X13.58007 Y95.56428
G01 X13.65960 Y95.59011
G01 X13.82320 Y95.62489
G01 X13.90636 Y95.63362
G01 X14.07362 Y95.63362
G01 X14.15678 Y95.62489
G01 X14.32038 Y95.59011
G01 X14.39991 Y95.56428
G01 X14.55269 Y95.49626
G01 X14.62510 Y95.45445
G01 X14.76041 Y95.35613
G01 X14.82256 Y95.30017
G01 X14.93445 Y95.17589
G01 X14.98362 Y95.10825
G01 X15.06724 Y94.96339
G01 X15.10125 Y94.88702
G01 X15.15294 Y94.72796
G01 X15.17031 Y94.64615
G01 X15.18779 Y94.47983
G01 X15.18779 Y94.39621
G01 X15.17031 Y94.22987
G01 X15.15294 Y94.14808
G01 X15.10125 Y93.98902
G01 X15.06724 Y93.91262
G01 X14.98362 Y93.76779
G01 X14.93445 Y93.70013
G01 X14.82256 Y93.57584
G01 X14.76041 Y93.51989
G01 X14.62510 Y93.42159
G01 X14.55269 Y93.37978
G01 X14.39991 Y93.31176
G01 X14.32038 Y93.28590
G01 X14.15678 Y93.25113
G01 X14.07362 Y93.24239
G01 X13.90636 Y93.24239
G01 X13.82320 Y93.25113
G01 X13.65960 Y93.28590
G01 X13.58007 Y93.31176
G01 X13.42729 Y93.37978
G01 X13.36214 Y93.41737
G04 P0 ( dwell for no time -- G64 should not smooth over this point )
G00 Z2.00000 ( retract )

G00 X10.90484 Y93.71846 ( rapid move to begin. )
G01 F200.00000
( Mill infeed pass 1/1 )
G01 Z-0.20000
G04 P0 ( dwell for no time -- G64 should not smooth over this point )
G01 F400.00000
G01 X10.90484 Y93.71846
G01 X10.84246 Y93.74625
G01 X10.76293 Y93.77208
G01 X10.50730 Y93.82641
G01 X10.42414 Y93.83518
G01 X10.16283 Y93.83518
G01 X10.07967 Y93.82641
G01 X9.82404 Y93.77208
G01 X9.74452 Y93.74625
G01 X9.50578 Y93.63995
G01 X9.43337 Y93.59814
G01 X9.22196 Y93.44455
G01 X9.15981 Y93.38859
G01 X9.11787 Y93.34201
G01 X4.38410 Y93.34201
G01 X4.34217 Y93.38859
G01 X4.28001 Y93.44455
G01 X4.06861 Y93.59814
G01 X3.99619 Y93.63995
G01 X3.75746 Y93.74625
G01 X3.67793 Y93.77208
G01 X3.42230 Y93.82641
G01 X3.33914 Y93.83518
G01 X3.07783 Y93.83518
G01 X2.99467 Y93.82641
G01 X2.73904 Y93.77208
G01 X2.65952 Y93.74625
G01 X2.42078 Y93.63995
G01 X2.34837 Y93.59814
G01 X2.13696 Y93.44455
G01 X2.07481 Y93.38859
G01 X1.89996 Y93.19439
G01 X1.85081 Y93.12675
G01 X1.72015 Y92.90043
G01 X1.68614 Y92.82403
G01 X1.60539 Y92.57551
G01 X1.58799 Y92.49370
G01 X1.56069 Y92.23383
G01 X1.56069 Y92.15019
G01 X1.58799 Y91.89032
G01 X1.60539 Y91.80851
G01 X1.68614 Y91.56000
G01 X1.72015 Y91.48359
G01 X1.85081 Y91.25728
G01 X1.89996 Y91.18964
G01 X2.07481 Y90.99543
G01 X2.13696 Y90.93948
G01 X2.34837 Y90.78588
G01 X2.42078 Y90.74407
G01 X2.65952 Y90.63777
G01 X2.73904 Y90.61194
G01 X2.99467 Y90.55761
G01 X3.07783 Y90.54885
G01 X3.33914 Y90.54885
G01 X3.42230 Y90.55761
G01 X3.67793 Y90.61194
G01 X3.75746 Y90.63777
G01 X3.99619 Y90.74407
G01 X4.06861 Y90.78588
G01 X4.28001 Y90.93948
G01 X4.34217 Y90.99543
G01 X4.38410 Y91.04202
G01 X9.11787 Y91.04202
G01 X9.15981 Y90.99543
G01 X9.22196 Y90.93948
G01 X9.43337 Y90.78588
G01 X9.50578 Y90.74407
G01 X9.74452 Y90.63777
G01 X9.82404 Y90.61194
G01 X10.07967 Y90.55761
G01 X10.16283 Y90.54885
G01 X10.42414 Y90.54885
G01 X10.50730 Y90.55761
G01 X10.76293 Y90.61194
G01 X10.84246 Y90.63777
G01 X11.08119 Y90.74407
G01 X11.15361 Y90.78588
G01 X11.36501 Y90.93948
G01 X11.42717 Y90.99543
G01 X11.56595 Y91.14958
G01 X11.58665 Y91.20348
G01 X11.61162 Y91.28011
G01 X11.68165 Y91.54146
G01 X11.69404 Y91.59960
G01 X11.73542 Y91.86091
G01 X11.74045 Y91.90856
G01 X11.75414 Y92.16985
G01 X11.75414 Y92.21417
G01 X11.74045 Y92.47549
G01 X11.73542 Y92.52314
G01 X11.69404 Y92.78446
G01 X11.68165 Y92.84260
G01 X11.63387 Y93.02085
G01 X11.58287 Y93.08732
G01 X11.53951 Y93.13812
G01 X11.35958 Y93.32776
G01 X11.31254 Y93.37236
G01 X11.11637 Y93.53990
G01 X11.11320 Y93.54262
G01 X11.09145 Y93.56144
G01 X11.05821 Y93.58844
G01 X11.01241 Y93.62334
G01 X10.95513 Y93.67168
G01 X10.90484 Y93.71846
G01 X10.88927 Y93.74760
G01 X10.85927 Y93.82004
G01 X10.83082 Y93.91384
G01 X10.81553 Y93.99075
G01 X10.80591 Y94.08829
G01 X10.80398 Y94.12748
G01 X10.80398 Y105.80086
G01 X10.63245 Y105.92548
G01 X10.57032 Y105.98143
G01 X10.39547 Y106.17564
G01 X10.34629 Y106.24328
G01 X10.21564 Y106.46959
G01 X10.18163 Y106.54600
G01 X10.10088 Y106.79451
G01 X10.08351 Y106.87632
G01 X10.05618 Y107.13619
G01 X10.05618 Y107.21983
G01 X10.08351 Y107.47970
G01 X10.10088 Y107.56151
G01 X10.18163 Y107.81003
G01 X10.21564 Y107.88643
G01 X10.34629 Y108.11275
G01 X10.39547 Y108.18039
G01 X10.57032 Y108.37459
G01 X10.63245 Y108.43055
G01 X10.84388 Y108.58414
G01 X10.91630 Y108.62595
G01 X11.15503 Y108.73225
G01 X11.23456 Y108.75808
G01 X11.49016 Y108.81241
G01 X11.57332 Y108.82118
G01 X11.83466 Y108.82118
G01 X11.91782 Y108.81241
G01 X12.17342 Y108.75808
G01 X12.25294 Y108.73225
G01 X12.49168 Y108.62595
G01 X12.56409 Y108.58414
G01 X12.77552 Y108.43055
G01 X12.83765 Y108.37459
G01 X13.01251 Y108.18039
G01 X13.06168 Y108.11275
G01 X13.19234 Y107.88643
G01 X13.22635 Y107.81003
G01 X13.30710 Y107.56151
G01 X13.32447 Y107.47970
G01 X13.35180 Y107.21983
G01 X13.35180 Y107.13619
G01 X13.32447 Y106.87632
G01 X13.30710 Y106.79451
G01 X13.22635 Y106.54600
G01 X13.19234 Y106.46959
G01 X13.06168 Y106.24328
G01 X13.01383 Y106.17742
G01 X13.01251 Y106.17564
G01 X12.83765 Y105.98143
G01 X12.77552 Y105.92548
G01 X12.63240 Y105.82149
G01 X12.60400 Y105.80086
G01 X12.60397 Y104.98408
G01 X12.58680 Y104.87574
G01 X12.57845 Y104.79655
G01 X12.56476 Y104.53523
G01 X12.56476 Y104.45982
G01 X12.57845 Y104.19850
G01 X12.58680 Y104.11931
G01 X12.60397 Y104.01092
G01 X12.65122 Y103.86548
G01 X12.68523 Y103.78908
G01 X12.81591 Y103.56279
G01 X12.86506 Y103.49513
G01 X13.02358 Y103.31908
G01 X13.02358 Y100.80301
G01 X12.97646 Y100.76056
G01 X12.96981 Y100.75459
G01 X12.79496 Y100.56039
G01 X12.74581 Y100.49275
G01 X12.61515 Y100.26643
G01 X12.60397 Y100.24134
G01 X12.59226 Y100.18642
G01 X12.55089 Y99.92508
G01 X12.54332 Y99.85340
G01 X12.52963 Y99.59206
G01 X12.52963 Y99.52396
G01 X12.54332 Y99.26265
G01 X12.55089 Y99.19097
G01 X12.59226 Y98.92963
G01 X12.60397 Y98.87466
G01 X12.61515 Y98.84959
G01 X12.74581 Y98.62328
G01 X12.79496 Y98.55564
G01 X12.96981 Y98.36143
G01 X13.03196 Y98.30548
G01 X13.24337 Y98.15188
G01 X13.31578 Y98.11007
G01 X13.55452 Y98.00377
G01 X13.63404 Y97.97794
G01 X13.88967 Y97.92361
G01 X13.97283 Y97.91485
G01 X14.23414 Y97.91485
G01 X14.31730 Y97.92361
G01 X14.57293 Y97.97794
G01 X14.65246 Y98.00377
G01 X14.89119 Y98.11007
G01 X14.96361 Y98.15188
G01 X15.17501 Y98.30548
G01 X15.23717 Y98.36143
G01 X15.41202 Y98.55564
G01 X15.46117 Y98.62328
G01 X15.59183 Y98.84959
G01 X15.62584 Y98.92600
G01 X15.70658 Y99.17451
G01 X15.72398 Y99.25632
G01 X15.75129 Y99.51619
G01 X15.75129 Y99.59983
G01 X15.72398 Y99.85970
G01 X15.70658 Y99.94151
G01 X15.62584 Y100.19003
G01 X15.59183 Y100.26643
G01 X15.46117 Y100.49275
G01 X15.41202 Y100.56039
G01 X15.32358 Y100.65861
G01 X15.32358 Y103.31905
G01 X15.48212 Y103.49513
G01 X15.53127 Y103.56279
G01 X15.66193 Y103.78908
G01 X15.69594 Y103.86548
G01 X15.77669 Y104.11402
G01 X15.79409 Y104.19581
G01 X15.82139 Y104.45570
G01 X15.82139 Y104.53932
G01 X15.79409 Y104.79921
G01 X15.77669 Y104.88100
G01 X15.69594 Y105.12954
G01 X15.66193 Y105.20594
G01 X15.53127 Y105.43223
G01 X15.48212 Y105.49990
G01 X15.30724 Y105.69411
G01 X15.24512 Y105.75006
G01 X15.03369 Y105.90366
G01 X14.96127 Y105.94546
G01 X14.72254 Y106.05176
G01 X14.64301 Y106.07760
G01 X14.38741 Y106.13193
G01 X14.30425 Y106.14066
G01 X14.04291 Y106.14066
G01 X13.95975 Y106.13193
G01 X13.70415 Y106.07760
G01 X13.62462 Y106.05176
G01 X13.38589 Y105.94546
G01 X13.31347 Y105.90366
G01 X13.28286 Y105.88141
G01 X13.10204 Y105.75006
G01 X13.03991 Y105.69411
G01 X12.86506 Y105.49990
G01 X12.81591 Y105.43223
G01 X12.68523 Y105.20594
G01 X12.65122 Y105.12954
G01 X12.60397 Y104.98408
G04 P0 ( dwell for no time -- G64 should not smooth over this point )
G00 Z2.00000 ( retract )

G00 X12.60397 Y104.01092 ( rapid move to begin. )
G01 F200.00000
( Mill infeed pass 1/1 )
G01 Z-0.20000
G04 P0 ( dwell for no time -- G64 should not smooth over this point )
G01 F400.00000
G01 X12.60397 Y104.01092
G01 X12.60400 Y100.90644
G01 X12.60397 Y100.24134
G04 P0 ( dwell for no time -- G64 should not smooth over this point )
G00 Z2.00000 ( retract )

G00 X12.60397 Y98.87466 ( rapid move to begin. )
G01 F200.00000
( Mill infeed pass 1/1 )
G01 Z-0.20000
G04 P0 ( dwell for no time -- G64 should not smooth over this point )
G01 F400.00000
G01 X12.60397 Y98.87466
G01 X12.60400 Y98.20962
G01 X12.60400 Y94.50028
G01 X12.80204 Y94.30223
G01 X12.83529 Y94.23253
G01 X12.87296 Y94.16304
G01 X12.96282 Y94.01638
G01 X12.99963 Y93.96276
G01 X13.02724 Y93.92677
G01 X13.04423 Y93.90348
G01 X13.09767 Y93.82626
G01 X13.10021 Y93.82263
G01 X13.13219 Y93.77719
G01 X13.18891 Y93.69637
G01 X13.22086 Y93.64569
G01 X13.22564 Y93.63726
G01 X13.26257 Y93.57922
G01 X13.27621 Y93.56004
G01 X13.31553 Y93.49850
G01 X13.35746 Y93.42530
G01 X13.36214 Y93.41740
G01 X13.36214 Y93.41737
G01 X13.36295 Y93.41603
G01 X13.36407 Y93.40470
G01 X13.36600 Y93.36548
G01 X13.36597 Y90.46084
G04 P0 ( dwell for no time -- G64 should not smooth over this point )
G00 Z2.00000 ( retract )

G00 X11.56595 Y91.14958 ( rapid move to begin. )
G01 F200.00000
( Mill infeed pass 1/1 )
G01 Z-0.20000
G04 P0 ( dwell for no time -- G64 should not smooth over this point )
G01 F400.00000
G01 X11.56595 Y91.14958
G01 X11.56598 Y90.68929
G01 X11.54924 Y90.67079
G01 X11.48706 Y90.59503
G01 X11.44347 Y90.52982
G01 X11.39727 Y90.44339
G01 X11.36727 Y90.37095
G01 X11.33882 Y90.27714
G01 X11.32353 Y90.20023
G01 X11.31391 Y90.10270
G01 X11.31198 Y90.06348
G01 X11.31198 Y72.88800
G01 X11.31391 Y72.84881
G01 X11.32353 Y72.75127
G01 X11.33882 Y72.67436
G01 X11.36727 Y72.58056
G01 X11.39727 Y72.50812
G01 X11.44347 Y72.42171
G01 X11.48706 Y72.35650
G01 X11.54924 Y72.28071
G01 X11.57560 Y72.25163
G01 X14.62360 Y69.20363
G01 X14.65269 Y69.17729
G01 X14.72845 Y69.11508
G01 X14.79366 Y69.07150
G01 X14.88009 Y69.02529
G01 X14.95253 Y68.99530
G01 X15.04634 Y68.96685
G01 X15.12325 Y68.95156
G01 X15.22078 Y68.94193
G01 X15.26000 Y68.94003
G01 X25.00997 Y68.94003
G01 X25.04832 Y68.89743
G01 X25.11045 Y68.84148
G01 X25.32188 Y68.68788
G01 X25.39430 Y68.64607
G01 X25.63303 Y68.53977
G01 X25.71256 Y68.51394
G01 X25.96816 Y68.45961
G01 X26.05132 Y68.45085
G01 X26.31266 Y68.45085
G01 X26.39582 Y68.45961
G01 X26.65142 Y68.51394
G01 X26.73094 Y68.53977
G01 X26.96968 Y68.64607
G01 X27.04209 Y68.68788
G01 X27.25352 Y68.84148
G01 X27.31565 Y68.89743
G01 X27.49051 Y69.09164
G01 X27.53968 Y69.15928
G01 X27.67034 Y69.38559
G01 X27.70435 Y69.46200
G01 X27.78510 Y69.71054
G01 X27.80247 Y69.79232
G01 X27.82980 Y70.05222
G01 X27.82980 Y70.13583
G01 X27.80247 Y70.39570
G01 X27.78510 Y70.47751
G01 X27.70435 Y70.72605
G01 X27.67034 Y70.80243
G01 X27.53968 Y71.02875
G01 X27.49051 Y71.09639
G01 X27.31565 Y71.29062
G01 X27.25352 Y71.34655
G01 X27.04209 Y71.50014
G01 X26.96968 Y71.54195
G01 X26.73094 Y71.64828
G01 X26.65142 Y71.67411
G01 X26.39582 Y71.72841
G01 X26.31266 Y71.73720
G01 X26.05132 Y71.73720
G01 X25.96816 Y71.72841
G01 X25.71256 Y71.67411
G01 X25.63303 Y71.64828
G01 X25.39430 Y71.54195
G01 X25.32188 Y71.50014
G01 X25.11045 Y71.34655
G01 X25.04832 Y71.29062
G01 X24.87347 Y71.09639
G01 X24.82429 Y71.02875
G01 X24.69364 Y70.80243
G01 X24.66585 Y70.74002
G01 X15.63277 Y70.74002
G01 X13.11200 Y73.26080
G01 X13.11200 Y88.62630
G01 X13.07385 Y88.72564
G01 X13.05002 Y88.79876
G01 X13.00519 Y88.96602
G01 X12.99242 Y89.02602
G01 X12.96595 Y89.19325
G01 X12.96041 Y89.24570
G01 X12.95162 Y89.41294
G01 X12.95162 Y89.46310
G01 X12.96041 Y89.63036
G01 X12.96595 Y89.68281
G01 X12.97611 Y89.74700
G01 X12.99904 Y89.78444
G01 X13.01169 Y89.80625
G01 X13.02912 Y89.83813
G01 X13.05556 Y89.88098
G01 X13.06265 Y89.89124
G01 X13.08683 Y89.93008
G01 X13.13443 Y90.01575
G01 X13.13971 Y90.02551
G01 X13.15619 Y90.05693
G01 X13.16326 Y90.06988
G01 X13.20534 Y90.14446
G01 X13.22963 Y90.19299
G01 X13.24296 Y90.22317
G01 X13.27301 Y90.28248
G01 X13.27557 Y90.28695
G01 X13.29208 Y90.31751
G01 X13.35894 Y90.44872
G01 X13.36597 Y90.46084
G01 X13.42729 Y90.49625
G01 X13.58007 Y90.56427
G01 X13.65960 Y90.59012
G01 X13.82320 Y90.62490
G01 X13.90636 Y90.63363
G01 X14.07362 Y90.63363
G01 X14.15678 Y90.62490
G01 X14.32038 Y90.59012
G01 X14.39991 Y90.56427
G01 X14.55269 Y90.49625
G01 X14.62510 Y90.45444
G01 X14.76041 Y90.35614
G01 X14.82256 Y90.30018
G01 X14.93445 Y90.17590
G01 X14.98362 Y90.10823
G01 X15.06724 Y89.96340
G01 X15.10125 Y89.88700
G01 X15.15294 Y89.72795
G01 X15.17031 Y89.64616
G01 X15.18779 Y89.47981
G01 X15.18779 Y89.39620
G01 X15.17031 Y89.22988
G01 X15.15294 Y89.14806
G01 X15.10125 Y88.98901
G01 X15.06724 Y88.91263
G01 X14.98362 Y88.76778
G01 X14.93445 Y88.70014
G01 X14.82256 Y88.57585
G01 X14.76041 Y88.51990
G01 X14.62510 Y88.42157
G01 X14.55269 Y88.37976
G01 X14.39991 Y88.31174
G01 X14.32038 Y88.28591
G01 X14.15678 Y88.25114
G01 X14.07362 Y88.24240
G01 X13.90636 Y88.24240
G01 X13.82320 Y88.25114
G01 X13.65960 Y88.28591
G01 X13.58007 Y88.31174
G01 X13.42729 Y88.37976
G01 X13.35487 Y88.42157
G01 X13.21957 Y88.51990
G01 X13.15741 Y88.57585
G01 X13.11200 Y88.62630
G04 P0 ( dwell for no time -- G64 should not smooth over this point )
G00 Z2.00000 ( retract )

G00 X17.36419 Y89.35619 ( rapid move to begin. )
G01 F200.00000
( Mill infeed pass 1/1 )
G01 Z-0.20000
G04 P0 ( dwell for no time -- G64 should not smooth over this point )
G01 F400.00000
G01 X17.36419 Y89.35619
G01 X17.38166 Y89.18987
G01 X17.39904 Y89.10808
G01 X17.45072 Y88.94900
G01 X17.48474 Y88.87263
G01 X17.56835 Y88.72780
G01 X17.61753 Y88.66013
G01 X17.72941 Y88.53585
G01 X17.79157 Y88.47989
G01 X17.92687 Y88.38159
G01 X17.99929 Y88.33979
G01 X18.02568 Y88.32803
G01 X18.15207 Y88.27174
G01 X18.23160 Y88.24591
G01 X18.39520 Y88.21113
G01 X18.47836 Y88.20240
G01 X18.64562 Y88.20240
G01 X18.72878 Y88.21113
G01 X18.89238 Y88.24591
G01 X18.89883 Y88.24802
G01 X19.57800 Y88.24802
G01 X19.61719 Y88.24995
G01 X19.76352 Y88.26435
G01 X19.84041 Y88.27964
G01 X19.98112 Y88.32234
G01 X20.05356 Y88.35233
G01 X20.18323 Y88.42165
G01 X20.24843 Y88.46521
G01 X20.36207 Y88.55848
G01 X20.39116 Y88.58484
G01 X22.59433 Y90.78802
G01 X25.84515 Y90.78802
G01 X25.85160 Y90.78591
G01 X26.01520 Y90.75113
G01 X26.09836 Y90.74240
G01 X26.26562 Y90.74240
G01 X26.34878 Y90.75113
G01 X26.51238 Y90.78591
G01 X26.59191 Y90.81174
G01 X26.71830 Y90.86803
G01 X26.74469 Y90.87979
G01 X26.81710 Y90.92159
G01 X26.95241 Y91.01989
G01 X27.01456 Y91.07585
G01 X27.12645 Y91.20013
G01 X27.17562 Y91.26780
G01 X27.25924 Y91.41263
G01 X27.29325 Y91.48900
G01 X27.34494 Y91.64808
G01 X27.36231 Y91.72987
G01 X27.37979 Y91.89619
G01 X27.37979 Y91.97983
G01 X27.36231 Y92.14615
G01 X27.34494 Y92.22794
G01 X27.29325 Y92.38702
G01 X27.25924 Y92.46340
G01 X27.17562 Y92.60823
G01 X27.12645 Y92.67590
G01 X27.01456 Y92.80018
G01 X26.95241 Y92.85613
G01 X26.81710 Y92.95443
G01 X26.74469 Y92.99624
G01 X26.71824 Y93.00803
G01 X26.59191 Y93.06429
G01 X26.51238 Y93.09012
G01 X26.34878 Y93.12489
G01 X26.26562 Y93.13363
G01 X26.09836 Y93.13363
G01 X26.01520 Y93.12489
G01 X25.85160 Y93.09012
G01 X25.84515 Y93.08801
G01 X22.11800 Y93.08801
G01 X22.07878 Y93.08608
G01 X21.93245 Y93.07168
G01 X21.85557 Y93.05639
G01 X21.71485 Y93.01369
G01 X21.64241 Y92.98369
G01 X21.51274 Y92.91438
G01 X21.44754 Y92.87082
G01 X21.33390 Y92.77755
G01 X21.30482 Y92.75118
G01 X19.10165 Y90.54801
G01 X18.89883 Y90.54801
G01 X18.89238 Y90.55012
G01 X18.72878 Y90.58489
G01 X18.64562 Y90.59363
G01 X18.47836 Y90.59363
G01 X18.39520 Y90.58489
G01 X18.23160 Y90.55012
G01 X18.15207 Y90.52429
G01 X18.02573 Y90.46803
G01 X17.99929 Y90.45624
G01 X17.92687 Y90.41443
G01 X17.79157 Y90.31613
G01 X17.72941 Y90.26018
G01 X17.61753 Y90.13590
G01 X17.56835 Y90.06823
G01 X17.48474 Y89.92340
G01 X17.45072 Y89.84702
G01 X17.39904 Y89.68794
G01 X17.38166 Y89.60615
G01 X17.36419 Y89.43983
G01 X17.36419 Y89.35619
G04 P0 ( dwell for no time -- G64 should not smooth over this point )
G00 Z2.00000 ( retract )

G00 X17.36419 Y91.89619 ( rapid move to begin. )
G01 F200.00000
( Mill infeed pass 1/1 )
G01 Z-0.20000
G04 P0 ( dwell for no time -- G64 should not smooth over this point )
G01 F400.00000
G01 X17.36419 Y91.89619
G01 X17.38166 Y91.72987
G01 X17.39904 Y91.64808
G01 X17.45072 Y91.48900
G01 X17.48474 Y91.41263
G01 X17.56835 Y91.26780
G01 X17.61753 Y91.20013
G01 X17.72941 Y91.07585
G01 X17.79157 Y91.01989
G01 X17.92687 Y90.92159
G01 X17.99929 Y90.87979
G01 X18.15207 Y90.81174
G01 X18.23160 Y90.78591
G01 X18.39520 Y90.75113
G01 X18.47836 Y90.74240
G01 X18.64562 Y90.74240
G01 X18.72878 Y90.75113
G01 X18.89238 Y90.78591
G01 X18.97191 Y90.81174
G01 X19.12469 Y90.87979
G01 X19.19710 Y90.92159
G01 X19.33241 Y91.01989
G01 X19.39456 Y91.07585
G01 X19.50645 Y91.20013
G01 X19.55562 Y91.26780
G01 X19.63924 Y91.41263
G01 X19.67325 Y91.48900
G01 X19.72494 Y91.64808
G01 X19.74231 Y91.72987
G01 X19.75979 Y91.89619
G01 X19.75979 Y91.97983
G01 X19.74231 Y92.14615
G01 X19.72494 Y92.22794
G01 X19.67325 Y92.38702
G01 X19.63924 Y92.46340
G01 X19.55562 Y92.60823
G01 X19.50645 Y92.67590
G01 X19.39456 Y92.80018
G01 X19.33241 Y92.85613
G01 X19.19710 Y92.95443
G01 X19.12469 Y92.99624
G01 X19.09824 Y93.00803
G01 X18.97191 Y93.06429
G01 X18.89238 Y93.09012
G01 X18.72878 Y93.12489
G01 X18.64562 Y93.13363
G01 X18.47836 Y93.13363
G01 X18.39520 Y93.12489
G01 X18.23160 Y93.09012
G01 X18.15207 Y93.06429
G01 X18.02573 Y93.00803
G01 X17.99929 Y92.99624
G01 X17.92687 Y92.95443
G01 X17.79157 Y92.85613
G01 X17.72941 Y92.80018
G01 X17.61753 Y92.67590
G01 X17.56835 Y92.60823
G01 X17.48474 Y92.46340
G01 X17.45072 Y92.38702
G01 X17.39904 Y92.22794
G01 X17.38166 Y92.14615
G01 X17.36419 Y91.97983
G01 X17.36419 Y91.89619
G04 P0 ( dwell for no time -- G64 should not smooth over this point )
G00 Z2.00000 ( retract )

G00 X17.36419 Y94.43619 ( rapid move to begin. )
G01 F200.00000
( Mill infeed pass 1/1 )
G01 Z-0.20000
G04 P0 ( dwell for no time -- G64 should not smooth over this point )
G01 F400.00000
G01 X17.36419 Y94.43619
G01 X17.38166 Y94.26987
G01 X17.39904 Y94.18808
G01 X17.45072 Y94.02900
G01 X17.48474 Y93.95263
G01 X17.56835 Y93.80780
G01 X17.61753 Y93.74013
G01 X17.72941 Y93.61585
G01 X17.79157 Y93.55989
G01 X17.92687 Y93.46159
G01 X17.99929 Y93.41979
G01 X18.15207 Y93.35174
G01 X18.23160 Y93.32591
G01 X18.39520 Y93.29113
G01 X18.47836 Y93.28240
G01 X18.64562 Y93.28240
G01 X18.72878 Y93.29113
G01 X18.89238 Y93.32591
G01 X18.97191 Y93.35174
G01 X19.12469 Y93.41979
G01 X19.19710 Y93.46159
G01 X19.33241 Y93.55989
G01 X19.39456 Y93.61585
G01 X19.50645 Y93.74013
G01 X19.55562 Y93.80780
G01 X19.63924 Y93.95263
G01 X19.67325 Y94.02900
G01 X19.72494 Y94.18808
G01 X19.74231 Y94.26987
G01 X19.75979 Y94.43619
G01 X19.75979 Y94.51983
G01 X19.74231 Y94.68615
G01 X19.72494 Y94.76794
G01 X19.67325 Y94.92702
G01 X19.63924 Y95.00340
G01 X19.55562 Y95.14823
G01 X19.50645 Y95.21590
G01 X19.39456 Y95.34018
G01 X19.33241 Y95.39613
G01 X19.19710 Y95.49443
G01 X19.12469 Y95.53624
G01 X18.97191 Y95.60429
G01 X18.89238 Y95.63012
G01 X18.72878 Y95.66489
G01 X18.64562 Y95.67363
G01 X18.47836 Y95.67363
G01 X18.39520 Y95.66489
G01 X18.23160 Y95.63012
G01 X18.15207 Y95.60429
G01 X17.99929 Y95.53624
G01 X17.92687 Y95.49443
G01 X17.79157 Y95.39613
G01 X17.72941 Y95.34018
G01 X17.61753 Y95.21590
G01 X17.56835 Y95.14823
G01 X17.48474 Y95.00340
G01 X17.45072 Y94.92702
G01 X17.39904 Y94.76794
G01 X17.38166 Y94.68615
G01 X17.36419 Y94.51983
G01 X17.36419 Y94.43619
G04 P0 ( dwell for no time -- G64 should not smooth over this point )
G00 Z2.00000 ( retract )

G00 X17.36419 Y96.97619 ( rapid move to begin. )
G01 F200.00000
( Mill infeed pass 1/1 )
G01 Z-0.20000
G04 P0 ( dwell for no time -- G64 should not smooth over this point )
G01 F400.00000
G01 X17.36419 Y96.97619
G01 X17.38166 Y96.80987
G01 X17.39904 Y96.72808
G01 X17.45072 Y96.56900
G01 X17.48474 Y96.49263
G01 X17.56835 Y96.34780
G01 X17.61753 Y96.28013
G01 X17.72941 Y96.15585
G01 X17.79157 Y96.09989
G01 X17.92687 Y96.00159
G01 X17.99929 Y95.95979
G01 X18.02568 Y95.94803
G01 X18.15207 Y95.89174
G01 X18.23160 Y95.86591
G01 X18.39520 Y95.83113
G01 X18.47836 Y95.82240
G01 X18.64562 Y95.82240
G01 X18.72878 Y95.83113
G01 X18.89238 Y95.86591
G01 X18.97191 Y95.89174
G01 X19.12469 Y95.95979
G01 X19.19710 Y96.00159
G01 X19.33241 Y96.09989
G01 X19.39456 Y96.15585
G01 X19.50645 Y96.28013
G01 X19.55562 Y96.34780
G01 X19.63924 Y96.49263
G01 X19.67325 Y96.56900
G01 X19.72494 Y96.72808
G01 X19.74231 Y96.80987
G01 X19.75979 Y96.97619
G01 X19.75979 Y97.05983
G01 X19.74231 Y97.22615
G01 X19.72494 Y97.30794
G01 X19.67325 Y97.46702
G01 X19.63924 Y97.54340
G01 X19.55562 Y97.68823
G01 X19.50645 Y97.75590
G01 X19.39456 Y97.88018
G01 X19.33241 Y97.93613
G01 X19.19710 Y98.03443
G01 X19.12469 Y98.07624
G01 X18.97191 Y98.14429
G01 X18.89238 Y98.17012
G01 X18.72878 Y98.20489
G01 X18.64562 Y98.21363
G01 X18.47836 Y98.21363
G01 X18.39520 Y98.20489
G01 X18.23160 Y98.17012
G01 X18.15207 Y98.14429
G01 X17.99929 Y98.07624
G01 X17.92687 Y98.03443
G01 X17.79157 Y97.93613
G01 X17.72941 Y97.88018
G01 X17.61753 Y97.75590
G01 X17.56835 Y97.68823
G01 X17.48474 Y97.54340
G01 X17.45072 Y97.46702
G01 X17.39904 Y97.30794
G01 X17.38166 Y97.22615
G01 X17.36419 Y97.05983
G01 X17.36419 Y96.97619
G04 P0 ( dwell for no time -- G64 should not smooth over this point )
G00 Z2.00000 ( retract )

G00 X17.36419 Y99.51619 ( rapid move to begin. )
G01 F200.00000
( Mill infeed pass 1/1 )
G01 Z-0.20000
G04 P0 ( dwell for no time -- G64 should not smooth over this point )
G01 F400.00000
G01 X17.36419 Y99.51619
G01 X17.38166 Y99.34987
G01 X17.39904 Y99.26808
G01 X17.45072 Y99.10900
G01 X17.48474 Y99.03263
G01 X17.56835 Y98.88780
G01 X17.61753 Y98.82013
G01 X17.72941 Y98.69585
G01 X17.79157 Y98.63989
G01 X17.92687 Y98.54159
G01 X17.99929 Y98.49979
G01 X18.15207 Y98.43174
G01 X18.23160 Y98.40591
G01 X18.39520 Y98.37113
G01 X18.47836 Y98.36240
G01 X18.64562 Y98.36240
G01 X18.72878 Y98.37113
G01 X18.89238 Y98.40591
G01 X18.97191 Y98.43174
G01 X19.12469 Y98.49979
G01 X19.19710 Y98.54159
G01 X19.33241 Y98.63989
G01 X19.39456 Y98.69585
G01 X19.50645 Y98.82013
G01 X19.55562 Y98.88780
G01 X19.63924 Y99.03263
G01 X19.67325 Y99.10900
G01 X19.72494 Y99.26808
G01 X19.74231 Y99.34987
G01 X19.75979 Y99.51619
G01 X19.75979 Y99.59983
G01 X19.74231 Y99.76615
G01 X19.72494 Y99.84794
G01 X19.67325 Y100.00702
G01 X19.63924 Y100.08340
G01 X19.55562 Y100.22823
G01 X19.50645 Y100.29590
G01 X19.39456 Y100.42018
G01 X19.33241 Y100.47613
G01 X19.19710 Y100.57443
G01 X19.12469 Y100.61624
G01 X18.97191 Y100.68429
G01 X18.89238 Y100.71012
G01 X18.72878 Y100.74489
G01 X18.64562 Y100.75363
G01 X18.47836 Y100.75363
G01 X18.39520 Y100.74489
G01 X18.23160 Y100.71012
G01 X18.15207 Y100.68429
G01 X17.99929 Y100.61624
G01 X17.92687 Y100.57443
G01 X17.79157 Y100.47613
G01 X17.72941 Y100.42018
G01 X17.61753 Y100.29590
G01 X17.56835 Y100.22823
G01 X17.48474 Y100.08340
G01 X17.45072 Y100.00702
G01 X17.39904 Y99.84794
G01 X17.38166 Y99.76615
G01 X17.36419 Y99.59983
G01 X17.36419 Y99.51619
G04 P0 ( dwell for no time -- G64 should not smooth over this point )
G00 Z2.00000 ( retract )

G00 X17.36419 Y102.05619 ( rapid move to begin. )
G01 F200.00000
( Mill infeed pass 1/1 )
G01 Z-0.20000
G04 P0 ( dwell for no time -- G64 should not smooth over this point )
G01 F400.00000
G01 X17.36419 Y102.05619
G01 X17.38166 Y101.88987
G01 X17.39904 Y101.80808
G01 X17.45072 Y101.64900
G01 X17.48474 Y101.57263
G01 X17.56835 Y101.42780
G01 X17.61753 Y101.36013
G01 X17.72941 Y101.23585
G01 X17.79157 Y101.17989
G01 X17.92687 Y101.08159
G01 X17.99929 Y101.03979
G01 X18.15207 Y100.97174
G01 X18.23160 Y100.94591
G01 X18.39520 Y100.91113
G01 X18.47836 Y100.90240
G01 X18.64562 Y100.90240
G01 X18.72878 Y100.91113
G01 X18.89238 Y100.94591
G01 X18.97191 Y100.97174
G01 X19.12469 Y101.03979
G01 X19.19710 Y101.08159
G01 X19.33241 Y101.17989
G01 X19.39456 Y101.23585
G01 X19.50645 Y101.36013
G01 X19.55562 Y101.42780
G01 X19.63924 Y101.57263
G01 X19.67325 Y101.64900
G01 X19.72494 Y101.80808
G01 X19.74231 Y101.88987
G01 X19.75979 Y102.05619
G01 X19.75979 Y102.13983
G01 X19.74231 Y102.30615
G01 X19.72494 Y102.38794
G01 X19.67325 Y102.54702
G01 X19.63924 Y102.62340
G01 X19.55562 Y102.76823
G01 X19.50645 Y102.83590
G01 X19.39456 Y102.96018
G01 X19.33241 Y103.01613
G01 X19.19710 Y103.11443
G01 X19.12469 Y103.15624
G01 X18.97191 Y103.22429
G01 X18.89238 Y103.25012
G01 X18.72878 Y103.28489
G01 X18.64562 Y103.29363
G01 X18.47836 Y103.29363
G01 X18.39520 Y103.28489
G01 X18.23160 Y103.25012
G01 X18.15207 Y103.22429
G01 X17.99929 Y103.15624
G01 X17.92687 Y103.11443
G01 X17.79157 Y103.01613
G01 X17.72941 Y102.96018
G01 X17.61753 Y102.83590
G01 X17.56835 Y102.76823
G01 X17.48474 Y102.62340
G01 X17.45072 Y102.54702
G01 X17.39904 Y102.38794
G01 X17.38166 Y102.30615
G01 X17.36419 Y102.13983
G01 X17.36419 Y102.05619
G04 P0 ( dwell for no time -- G64 should not smooth over this point )
G00 Z2.00000 ( retract )

G00 X17.36419 Y104.59619 ( rapid move to begin. )
G01 F200.00000
( Mill infeed pass 1/1 )
G01 Z-0.20000
G04 P0 ( dwell for no time -- G64 should not smooth over this point )
G01 F400.00000
G01 X17.36419 Y104.59619
G01 X17.38166 Y104.42987
G01 X17.39904 Y104.34808
G01 X17.45072 Y104.18900
G01 X17.48474 Y104.11263
G01 X17.56835 Y103.96780
G01 X17.61753 Y103.90013
G01 X17.72941 Y103.77585
G01 X17.79157 Y103.71989
G01 X17.92687 Y103.62159
G01 X17.99929 Y103.57979
G01 X18.02568 Y103.56802
G01 X18.15207 Y103.51174
G01 X18.23160 Y103.48591
G01 X18.39520 Y103.45113
G01 X18.47836 Y103.44240
G01 X18.64562 Y103.44240
G01 X18.72878 Y103.45113
G01 X18.89238 Y103.48591
G01 X18.97191 Y103.51174
G01 X19.09830 Y103.56802
G01 X19.12469 Y103.57979
G01 X19.19710 Y103.62159
G01 X19.33241 Y103.71989
G01 X19.39456 Y103.77585
G01 X19.50645 Y103.90013
G01 X19.55562 Y103.96780
G01 X19.63924 Y104.11263
G01 X19.67325 Y104.18900
G01 X19.72494 Y104.34808
G01 X19.74231 Y104.42987
G01 X19.75979 Y104.59619
G01 X19.75979 Y104.67983
G01 X19.74231 Y104.84615
G01 X19.72494 Y104.92794
G01 X19.67325 Y105.08702
G01 X19.63924 Y105.16340
G01 X19.55562 Y105.30823
G01 X19.50645 Y105.37590
G01 X19.39456 Y105.50018
G01 X19.33241 Y105.55613
G01 X19.19710 Y105.65443
G01 X19.12469 Y105.69624
G01 X19.09824 Y105.70803
G01 X18.97191 Y105.76429
G01 X18.89238 Y105.79012
G01 X18.72878 Y105.82489
G01 X18.64562 Y105.83363
G01 X18.47836 Y105.83363
G01 X18.39520 Y105.82489
G01 X18.23160 Y105.79012
G01 X18.15207 Y105.76429
G01 X17.99929 Y105.69624
G01 X17.92687 Y105.65443
G01 X17.79157 Y105.55613
G01 X17.72941 Y105.50018
G01 X17.61753 Y105.37590
G01 X17.56835 Y105.30823
G01 X17.48474 Y105.16340
G01 X17.45072 Y105.08702
G01 X17.39904 Y104.92794
G01 X17.38166 Y104.84615
G01 X17.36419 Y104.67983
G01 X17.36419 Y104.59619
G04 P0 ( dwell for no time -- G64 should not smooth over this point )
G00 Z2.00000 ( retract )

G00 X17.36419 Y107.13619 ( rapid move to begin. )
G01 F200.00000
( Mill infeed pass 1/1 )
G01 Z-0.20000
G04 P0 ( dwell for no time -- G64 should not smooth over this point )
G01 F400.00000
G01 X17.36419 Y107.13619
G01 X17.38166 Y106.96987
G01 X17.39904 Y106.88808
G01 X17.45072 Y106.72900
G01 X17.48474 Y106.65263
G01 X17.56835 Y106.50780
G01 X17.61753 Y106.44013
G01 X17.72941 Y106.31585
G01 X17.79157 Y106.25989
G01 X17.92687 Y106.16159
G01 X17.99929 Y106.11979
G01 X18.02568 Y106.10803
G01 X18.15207 Y106.05174
G01 X18.23160 Y106.02591
G01 X18.39520 Y105.99113
G01 X18.47836 Y105.98240
G01 X18.64562 Y105.98240
G01 X18.72878 Y105.99113
G01 X18.89238 Y106.02591
G01 X18.97191 Y106.05174
G01 X19.09830 Y106.10803
G01 X19.12469 Y106.11979
G01 X19.19710 Y106.16159
G01 X19.33241 Y106.25989
G01 X19.39456 Y106.31585
G01 X19.50645 Y106.44013
G01 X19.55562 Y106.50780
G01 X19.63924 Y106.65263
G01 X19.67325 Y106.72900
G01 X19.72494 Y106.88808
G01 X19.74231 Y106.96987
G01 X19.75979 Y107.13619
G01 X19.75979 Y107.21983
G01 X19.74231 Y107.38615
G01 X19.72494 Y107.46794
G01 X19.67325 Y107.62702
G01 X19.63924 Y107.70340
G01 X19.55562 Y107.84823
G01 X19.50645 Y107.91590
G01 X19.39456 Y108.04018
G01 X19.33241 Y108.09613
G01 X19.19710 Y108.19443
G01 X19.12469 Y108.23624
G01 X18.97191 Y108.30429
G01 X18.89238 Y108.33012
G01 X18.72878 Y108.36489
G01 X18.64562 Y108.37363
G01 X18.47836 Y108.37363
G01 X18.39520 Y108.36489
G01 X18.23160 Y108.33012
G01 X18.15207 Y108.30429
G01 X17.99929 Y108.23624
G01 X17.92687 Y108.19443
G01 X17.79157 Y108.09613
G01 X17.72941 Y108.04018
G01 X17.61753 Y107.91590
G01 X17.56835 Y107.84823
G01 X17.48474 Y107.70340
G01 X17.45072 Y107.62702
G01 X17.39904 Y107.46794
G01 X17.38166 Y107.38615
G01 X17.36419 Y107.21983
G01 X17.36419 Y107.13619
G04 P0 ( dwell for no time -- G64 should not smooth over this point )
G00 Z2.00000 ( retract )

G00 X24.68800 Y115.43940 ( rapid move to begin. )
G01 F200.00000
( Mill infeed pass 1/1 )
G01 Z-0.20000
G04 P0 ( dwell for no time -- G64 should not smooth over this point )
G01 F400.00000
G01 X24.68800 Y115.43940
G01 X24.72539 Y115.32434
G01 X24.75940 Y115.24796
G01 X24.85345 Y115.08499
G01 X24.90260 Y115.01735
G01 X25.02851 Y114.87753
G01 X25.04258 Y114.86488
G01 X25.09066 Y114.82157
G01 X25.24289 Y114.71098
G01 X25.31530 Y114.66917
G01 X25.48718 Y114.59264
G01 X25.56671 Y114.56681
G01 X25.75076 Y114.52769
G01 X25.83392 Y114.51896
G01 X26.02206 Y114.51896
G01 X26.10522 Y114.52769
G01 X26.28926 Y114.56681
G01 X26.36879 Y114.59264
G01 X26.54067 Y114.66917
G01 X26.61309 Y114.71098
G01 X26.76531 Y114.82157
G01 X26.82746 Y114.87753
G01 X26.95337 Y115.01735
G01 X27.00252 Y115.08499
G01 X27.09658 Y115.24796
G01 X27.13059 Y115.32434
G01 X27.18875 Y115.50328
G01 X27.20613 Y115.58507
G01 X27.22579 Y115.77219
G01 X27.22579 Y115.85583
G01 X27.20613 Y116.04296
G01 X27.18875 Y116.12474
G01 X27.13059 Y116.30369
G01 X27.09658 Y116.38006
G01 X27.00252 Y116.54303
G01 X26.95337 Y116.61067
G01 X26.82746 Y116.75050
G01 X26.76531 Y116.80645
G01 X26.61309 Y116.91705
G01 X26.54067 Y116.95885
G01 X26.36879 Y117.03538
G01 X26.28926 Y117.06122
G01 X26.10522 Y117.10033
G01 X26.02206 Y117.10907
G01 X25.83392 Y117.10907
G01 X25.75076 Y117.10033
G01 X25.56671 Y117.06122
G01 X25.48718 Y117.03538
G01 X25.31530 Y116.95885
G01 X25.24289 Y116.91705
G01 X25.09066 Y116.80645
G01 X25.04256 Y116.76315
G01 X25.02851 Y116.75050
G01 X24.90260 Y116.61067
G01 X24.85345 Y116.54303
G01 X24.75940 Y116.38006
G01 X24.72539 Y116.30369
G01 X24.68797 Y116.18860
G01 X24.68800 Y116.71402
G01 X24.68030 Y116.79205
G01 X24.65754 Y116.86708
G01 X24.62059 Y116.93625
G01 X24.57083 Y116.99685
G01 X24.51022 Y117.04661
G01 X24.44106 Y117.08357
G01 X24.36603 Y117.10633
G01 X24.28800 Y117.11402
G01 X22.48798 Y117.11402
G01 X22.40995 Y117.10633
G01 X22.33492 Y117.08357
G01 X22.26575 Y117.04661
G01 X22.20515 Y116.99685
G01 X22.15539 Y116.93625
G01 X22.11843 Y116.86708
G01 X22.09567 Y116.79205
G01 X22.08798 Y116.71402
G01 X22.08798 Y114.91400
G01 X22.09567 Y114.83597
G01 X22.11843 Y114.76094
G01 X22.15539 Y114.69178
G01 X22.20515 Y114.63117
G01 X22.26575 Y114.58141
G01 X22.33492 Y114.54446
G01 X22.40995 Y114.52170
G01 X22.48798 Y114.51400
G01 X24.28800 Y114.51400
G01 X24.36603 Y114.52170
G01 X24.44106 Y114.54446
G01 X24.51022 Y114.58141
G01 X24.57083 Y114.63117
G01 X24.62059 Y114.69178
G01 X24.65665 Y114.75927
G01 X24.65754 Y114.76094
G01 X24.68030 Y114.83597
G01 X24.68800 Y114.91400
G01 X24.68800 Y115.43940
G01 X24.67735 Y115.50661
G01 X24.66887 Y115.58705
G01 X24.65899 Y115.77519
G01 X24.65899 Y115.85284
G01 X24.66887 Y116.04097
G01 X24.67735 Y116.12144
G01 X24.68797 Y116.18860
G04 P0 ( dwell for no time -- G64 should not smooth over this point )
G00 Z2.00000 ( retract )

G00 X28.44019 Y114.59620 ( rapid move to begin. )
G01 F200.00000
( Mill infeed pass 1/1 )
G01 Z-0.20000
G04 P0 ( dwell for no time -- G64 should not smooth over this point )
G01 F400.00000
G01 X28.44019 Y114.59620
G01 X28.45985 Y114.40908
G01 X28.47722 Y114.32729
G01 X28.53539 Y114.14834
G01 X28.56940 Y114.07194
G01 X28.66345 Y113.90900
G01 X28.71260 Y113.84136
G01 X28.83851 Y113.70153
G01 X28.90066 Y113.64558
G01 X29.05289 Y113.53499
G01 X29.12530 Y113.49318
G01 X29.29718 Y113.41665
G01 X29.37671 Y113.39081
G01 X29.56076 Y113.35167
G01 X29.64392 Y113.34294
G01 X29.83206 Y113.34294
G01 X29.91522 Y113.35167
G01 X30.09926 Y113.39081
G01 X30.17879 Y113.41665
G01 X30.35067 Y113.49318
G01 X30.42309 Y113.53499
G01 X30.57531 Y113.64558
G01 X30.63746 Y113.70153
G01 X30.76337 Y113.84136
G01 X30.81252 Y113.90900
G01 X30.90658 Y114.07194
G01 X30.94059 Y114.14834
G01 X30.99875 Y114.32729
G01 X31.01613 Y114.40908
G01 X31.03579 Y114.59620
G01 X31.03579 Y114.67981
G01 X31.01613 Y114.86694
G01 X30.99875 Y114.94875
G01 X30.94059 Y115.12769
G01 X30.90658 Y115.20407
G01 X30.81252 Y115.36701
G01 X30.76337 Y115.43468
G01 X30.63746 Y115.57450
G01 X30.57531 Y115.63046
G01 X30.42309 Y115.74105
G01 X30.35067 Y115.78286
G01 X30.17879 Y115.85939
G01 X30.09926 Y115.88522
G01 X29.91522 Y115.92434
G01 X29.83206 Y115.93308
G01 X29.64392 Y115.93308
G01 X29.56076 Y115.92434
G01 X29.37671 Y115.88522
G01 X29.29718 Y115.85939
G01 X29.12530 Y115.78286
G01 X29.05289 Y115.74105
G01 X28.90066 Y115.63046
G01 X28.83851 Y115.57450
G01 X28.71260 Y115.43468
G01 X28.66345 Y115.36701
G01 X28.56940 Y115.20407
G01 X28.53539 Y115.12769
G01 X28.47722 Y114.94875
G01 X28.45985 Y114.86694
G01 X28.44019 Y114.67981
G01 X28.44019 Y114.59620
G04 P0 ( dwell for no time -- G64 should not smooth over this point )
G00 Z2.00000 ( retract )

G00 X29.20137 Y118.00739 ( rapid move to begin. )
G01 F200.00000
( Mill infeed pass 1/1 )
G01 Z-0.20000
G04 P0 ( dwell for no time -- G64 should not smooth over this point )
G01 F400.00000
G01 X29.20137 Y118.00739
G01 X29.22870 Y117.74752
G01 X29.24608 Y117.66571
G01 X29.32682 Y117.41720
G01 X29.36084 Y117.34079
G01 X29.49152 Y117.11448
G01 X29.54067 Y117.04684
G01 X29.71552 Y116.85263
G01 X29.77765 Y116.79668
G01 X29.98908 Y116.64308
G01 X30.06149 Y116.60127
G01 X30.30023 Y116.49497
G01 X30.37976 Y116.46914
G01 X30.63536 Y116.41481
G01 X30.71852 Y116.40605
G01 X30.97986 Y116.40605
G01 X31.06302 Y116.41481
G01 X31.31862 Y116.46914
G01 X31.39814 Y116.49497
G01 X31.63688 Y116.60127
G01 X31.70929 Y116.64308
G01 X31.92072 Y116.79668
G01 X31.98285 Y116.85263
G01 X32.07053 Y116.95002
G01 X36.07436 Y116.95002
G01 X36.11632 Y116.90343
G01 X36.17845 Y116.84748
G01 X36.38988 Y116.69388
G01 X36.46229 Y116.65207
G01 X36.70103 Y116.54577
G01 X36.78056 Y116.51994
G01 X37.03616 Y116.46561
G01 X37.11929 Y116.45685
G01 X37.38066 Y116.45685
G01 X37.46382 Y116.46561
G01 X37.71942 Y116.51994
G01 X37.79892 Y116.54577
G01 X38.03768 Y116.65207
G01 X38.11009 Y116.69388
G01 X38.32152 Y116.84748
G01 X38.38365 Y116.90343
G01 X38.55851 Y117.09764
G01 X38.60768 Y117.16528
G01 X38.73834 Y117.39159
G01 X38.77232 Y117.46800
G01 X38.85309 Y117.71651
G01 X38.87044 Y117.79832
G01 X38.89780 Y118.05819
G01 X38.89780 Y118.14183
G01 X38.87044 Y118.40170
G01 X38.85309 Y118.48351
G01 X38.77232 Y118.73203
G01 X38.73834 Y118.80843
G01 X38.60768 Y119.03475
G01 X38.55851 Y119.10239
G01 X38.38365 Y119.29659
G01 X38.32152 Y119.35255
G01 X38.11009 Y119.50614
G01 X38.03768 Y119.54795
G01 X37.79892 Y119.65425
G01 X37.71942 Y119.68008
G01 X37.46382 Y119.73441
G01 X37.38066 Y119.74318
G01 X37.11929 Y119.74318
G01 X37.03616 Y119.73441
G01 X36.78056 Y119.68008
G01 X36.70103 Y119.65425
G01 X36.46229 Y119.54795
G01 X36.38988 Y119.50614
G01 X36.17845 Y119.35255
G01 X36.11632 Y119.29659
G01 X36.07436 Y119.25001
G01 X31.97818 Y119.25001
G01 X31.92072 Y119.30175
G01 X31.70929 Y119.45534
G01 X31.63688 Y119.49715
G01 X31.39814 Y119.60345
G01 X31.31862 Y119.62928
G01 X31.06302 Y119.68361
G01 X30.97986 Y119.69238
G01 X30.71852 Y119.69238
G01 X30.63536 Y119.68361
G01 X30.37976 Y119.62928
G01 X30.30023 Y119.60345
G01 X30.06149 Y119.49715
G01 X29.98908 Y119.45534
G01 X29.77765 Y119.30175
G01 X29.71552 Y119.24579
G01 X29.54067 Y119.05159
G01 X29.49152 Y118.98395
G01 X29.36084 Y118.75763
G01 X29.32682 Y118.68123
G01 X29.24608 Y118.43271
G01 X29.22870 Y118.35090
G01 X29.20137 Y118.09103
G01 X29.20137 Y118.00739
G04 P0 ( dwell for no time -- G64 should not smooth over this point )
G00 Z2.00000 ( retract )

G00 X25.32117 Y122.03019 ( rapid move to begin. )
G01 F200.00000
( Mill infeed pass 1/1 )
G01 Z-0.20000
G04 P0 ( dwell for no time -- G64 should not smooth over this point )
G01 F400.00000
G01 X25.32117 Y122.03019
G01 X25.33867 Y121.86387
G01 X25.35604 Y121.78209
G01 X25.40773 Y121.62301
G01 X25.44174 Y121.54663
G01 X25.52536 Y121.40180
G01 X25.57451 Y121.33413
G01 X25.68642 Y121.20985
G01 X25.74857 Y121.15389
G01 X25.88388 Y121.05559
G01 X25.95630 Y121.01379
G01 X26.10908 Y120.94574
G01 X26.18860 Y120.91991
G01 X26.35221 Y120.88514
G01 X26.43536 Y120.87640
G01 X26.60260 Y120.87640
G01 X26.68578 Y120.88514
G01 X26.84936 Y120.91991
G01 X26.92889 Y120.94574
G01 X27.08169 Y121.01379
G01 X27.15411 Y121.05559
G01 X27.28941 Y121.15389
G01 X27.35154 Y121.20985
G01 X27.46346 Y121.33413
G01 X27.51260 Y121.40180
G01 X27.59622 Y121.54663
G01 X27.63026 Y121.62301
G01 X27.68192 Y121.78209
G01 X27.69932 Y121.86387
G01 X27.71680 Y122.03019
G01 X27.71680 Y122.11383
G01 X27.69932 Y122.28015
G01 X27.68192 Y122.36194
G01 X27.63026 Y122.52100
G01 X27.59622 Y122.59740
G01 X27.51260 Y122.74223
G01 X27.46346 Y122.80990
G01 X27.35154 Y122.93418
G01 X27.28941 Y122.99014
G01 X27.15411 Y123.08843
G01 X27.08169 Y123.13024
G01 X26.92889 Y123.19829
G01 X26.84936 Y123.22412
G01 X26.68578 Y123.25889
G01 X26.60260 Y123.26766
G01 X26.43536 Y123.26766
G01 X26.35221 Y123.25889
G01 X26.18860 Y123.22412
G01 X26.10908 Y123.19829
G01 X25.95630 Y123.13024
G01 X25.88388 Y123.08843
G01 X25.74857 Y122.99014
G01 X25.68642 Y122.93418
G01 X25.57451 Y122.80990
G01 X25.52536 Y122.74223
G01 X25.44174 Y122.59740
G01 X25.40773 Y122.52100
G01 X25.35604 Y122.36194
G01 X25.33867 Y122.28015
G01 X25.32117 Y122.11383
G01 X25.32117 Y122.03019
G04 P0 ( dwell for no time -- G64 should not smooth over this point )
G00 Z2.00000 ( retract )

G00 X20.32118 Y122.03019 ( rapid move to begin. )
G01 F200.00000
( Mill infeed pass 1/1 )
G01 Z-0.20000
G04 P0 ( dwell for no time -- G64 should not smooth over this point )
G01 F400.00000
G01 X20.32118 Y122.03019
G01 X20.33865 Y121.86387
G01 X20.35605 Y121.78209
G01 X20.40772 Y121.62301
G01 X20.44175 Y121.54663
G01 X20.52537 Y121.40180
G01 X20.57452 Y121.33413
G01 X20.68643 Y121.20985
G01 X20.74856 Y121.15389
G01 X20.88386 Y121.05559
G01 X20.95628 Y121.01379
G01 X21.10909 Y120.94574
G01 X21.18861 Y120.91991
G01 X21.35219 Y120.88514
G01 X21.43538 Y120.87640
G01 X21.60261 Y120.87640
G01 X21.68577 Y120.88514
G01 X21.84937 Y120.91991
G01 X21.92890 Y120.94574
G01 X22.08168 Y121.01379
G01 X22.15409 Y121.05559
G01 X22.28940 Y121.15389
G01 X22.35155 Y121.20985
G01 X22.46347 Y121.33413
G01 X22.51261 Y121.40180
G01 X22.59623 Y121.54663
G01 X22.63024 Y121.62301
G01 X22.68193 Y121.78209
G01 X22.69930 Y121.86387
G01 X22.71681 Y122.03019
G01 X22.71681 Y122.11383
G01 X22.69930 Y122.28015
G01 X22.68193 Y122.36194
G01 X22.63024 Y122.52100
G01 X22.59623 Y122.59740
G01 X22.51261 Y122.74223
G01 X22.46347 Y122.80990
G01 X22.35155 Y122.93418
G01 X22.28940 Y122.99014
G01 X22.15409 Y123.08843
G01 X22.08168 Y123.13024
G01 X21.92890 Y123.19829
G01 X21.84937 Y123.22412
G01 X21.68577 Y123.25889
G01 X21.60261 Y123.26766
G01 X21.43538 Y123.26766
G01 X21.35219 Y123.25889
G01 X21.18861 Y123.22412
G01 X21.10909 Y123.19829
G01 X20.95628 Y123.13024
G01 X20.88386 Y123.08843
G01 X20.74856 Y122.99014
G01 X20.68643 Y122.93418
G01 X20.57452 Y122.80990
G01 X20.52537 Y122.74223
G01 X20.44175 Y122.59740
G01 X20.40772 Y122.52100
G01 X20.35605 Y122.36194
G01 X20.33865 Y122.28015
G01 X20.32118 Y122.11383
G01 X20.32118 Y122.03019
G04 P0 ( dwell for no time -- G64 should not smooth over this point )
G00 Z2.00000 ( retract )

G00 X17.59817 Y125.84019 ( rapid move to begin. )
G01 F200.00000
( Mill infeed pass 1/1 )
G01 Z-0.20000
G04 P0 ( dwell for no time -- G64 should not smooth over this point )
G01 F400.00000
G01 X17.59817 Y125.84019
G01 X17.62332 Y125.60110
G01 X17.64069 Y125.51931
G01 X17.71499 Y125.29066
G01 X17.74900 Y125.21426
G01 X17.86921 Y125.00606
G01 X17.91836 Y124.93842
G01 X18.07922 Y124.75975
G01 X18.14138 Y124.70380
G01 X18.33586 Y124.56247
G01 X18.40830 Y124.52066
G01 X18.62791 Y124.42287
G01 X18.70744 Y124.39704
G01 X18.94262 Y124.34708
G01 X19.02578 Y124.33832
G01 X19.26619 Y124.33832
G01 X19.34935 Y124.34708
G01 X19.58453 Y124.39704
G01 X19.66406 Y124.42287
G01 X19.88369 Y124.52066
G01 X19.95610 Y124.56247
G01 X20.15059 Y124.70380
G01 X20.21275 Y124.75975
G01 X20.37360 Y124.93842
G01 X20.42278 Y125.00606
G01 X20.54297 Y125.21426
G01 X20.57698 Y125.29066
G01 X20.65128 Y125.51931
G01 X20.66868 Y125.60110
G01 X20.69380 Y125.84019
G01 X20.69380 Y125.92383
G01 X20.66868 Y126.16293
G01 X20.65128 Y126.24471
G01 X20.57698 Y126.47336
G01 X20.54297 Y126.54977
G01 X20.42278 Y126.75797
G01 X20.37360 Y126.82561
G01 X20.21275 Y127.00427
G01 X20.15059 Y127.06023
G01 X19.95610 Y127.20156
G01 X19.88369 Y127.24336
G01 X19.66406 Y127.34116
G01 X19.58453 Y127.36699
G01 X19.34935 Y127.41697
G01 X19.26619 Y127.42571
G01 X19.02578 Y127.42571
G01 X18.94262 Y127.41697
G01 X18.70744 Y127.36699
G01 X18.62791 Y127.34116
G01 X18.40830 Y127.24336
G01 X18.33586 Y127.20156
G01 X18.14138 Y127.06023
G01 X18.07922 Y127.00427
G01 X17.91836 Y126.82561
G01 X17.86921 Y126.75797
G01 X17.74900 Y126.54977
G01 X17.71499 Y126.47336
G01 X17.64069 Y126.24471
G01 X17.62332 Y126.16293
G01 X17.59817 Y125.92383
G01 X17.59817 Y125.84019
G04 P0 ( dwell for no time -- G64 should not smooth over this point )
G00 Z2.00000 ( retract )

G00 X17.59817 Y129.90419 ( rapid move to begin. )
G01 F200.00000
( Mill infeed pass 1/1 )
G01 Z-0.20000
G04 P0 ( dwell for no time -- G64 should not smooth over this point )
G01 F400.00000
G01 X17.59817 Y129.90419
G01 X17.62332 Y129.66510
G01 X17.64069 Y129.58331
G01 X17.71499 Y129.35466
G01 X17.74900 Y129.27826
G01 X17.86921 Y129.07006
G01 X17.91836 Y129.00242
G01 X18.07922 Y128.82375
G01 X18.14138 Y128.76780
G01 X18.33586 Y128.62647
G01 X18.40830 Y128.58466
G01 X18.62791 Y128.48687
G01 X18.70744 Y128.46104
G01 X18.94262 Y128.41105
G01 X19.02578 Y128.40232
G01 X19.26619 Y128.40232
G01 X19.34935 Y128.41105
G01 X19.58453 Y128.46104
G01 X19.66406 Y128.48687
G01 X19.88369 Y128.58466
G01 X19.95610 Y128.62647
G01 X20.15059 Y128.76780
G01 X20.21275 Y128.82375
G01 X20.37360 Y129.00242
G01 X20.42278 Y129.07006
G01 X20.54297 Y129.27826
G01 X20.57698 Y129.35466
G01 X20.65128 Y129.58331
G01 X20.66868 Y129.66510
G01 X20.69380 Y129.90419
G01 X20.69380 Y129.98784
G01 X20.66868 Y130.22693
G01 X20.65128 Y130.30871
G01 X20.57698 Y130.53736
G01 X20.54297 Y130.61377
G01 X20.42278 Y130.82197
G01 X20.37360 Y130.88961
G01 X20.21275 Y131.06827
G01 X20.15059 Y131.12423
G01 X19.95610 Y131.26556
G01 X19.88369 Y131.30737
G01 X19.66406 Y131.40516
G01 X19.58453 Y131.43099
G01 X19.34935 Y131.48097
G01 X19.26619 Y131.48971
G01 X19.02578 Y131.48971
G01 X18.94262 Y131.48097
G01 X18.70744 Y131.43099
G01 X18.62791 Y131.40516
G01 X18.40830 Y131.30737
G01 X18.33586 Y131.26556
G01 X18.14138 Y131.12423
G01 X18.07922 Y131.06827
G01 X17.91836 Y130.88961
G01 X17.86921 Y130.82197
G01 X17.74900 Y130.61377
G01 X17.71499 Y130.53736
G01 X17.64069 Y130.30871
G01 X17.62332 Y130.22693
G01 X17.59817 Y129.98784
G01 X17.59817 Y129.90419
G04 P0 ( dwell for no time -- G64 should not smooth over this point )
G00 Z2.00000 ( retract )

G00 X17.84818 Y133.96819 ( rapid move to begin. )
G01 F200.00000
( Mill infeed pass 1/1 )
G01 Z-0.20000
G04 P0 ( dwell for no time -- G64 should not smooth over this point )
G01 F400.00000
G01 X17.84818 Y133.96819
G01 X17.84818 Y134.05184
G01 X17.86784 Y134.23896
G01 X17.88524 Y134.32074
G01 X17.94338 Y134.49969
G01 X17.97739 Y134.57607
G01 X18.07145 Y134.73903
G01 X18.12062 Y134.80667
G01 X18.24651 Y134.94650
G01 X18.30866 Y135.00246
G01 X18.46088 Y135.11305
G01 X18.53330 Y135.15486
G01 X18.70518 Y135.23139
G01 X18.78471 Y135.25722
G01 X18.96876 Y135.29633
G01 X19.05192 Y135.30507
G01 X19.24005 Y135.30507
G01 X19.32324 Y135.29633
G01 X19.50726 Y135.25722
G01 X19.58679 Y135.23139
G01 X19.75867 Y135.15486
G01 X19.83111 Y135.11305
G01 X19.98331 Y135.00246
G01 X20.04546 Y134.94650
G01 X20.17137 Y134.80667
G01 X20.22052 Y134.73903
G01 X20.31460 Y134.57607
G01 X20.34861 Y134.49969
G01 X20.40675 Y134.32074
G01 X20.42412 Y134.23896
G01 X20.44378 Y134.05184
G01 X20.44378 Y133.96819
G01 X20.42412 Y133.78107
G01 X20.40675 Y133.69928
G01 X20.34861 Y133.52034
G01 X20.31460 Y133.44396
G01 X20.22052 Y133.28100
G01 X20.17137 Y133.21336
G01 X20.04546 Y133.07353
G01 X19.98331 Y133.01757
G01 X19.83111 Y132.90698
G01 X19.75867 Y132.86517
G01 X19.58679 Y132.78864
G01 X19.50726 Y132.76281
G01 X19.32324 Y132.72369
G01 X19.24005 Y132.71493
G01 X19.05192 Y132.71493
G01 X18.96876 Y132.72369
G01 X18.78471 Y132.76281
G01 X18.70518 Y132.78864
G01 X18.53330 Y132.86517
G01 X18.46088 Y132.90698
G01 X18.30866 Y133.01757
G01 X18.24651 Y133.07353
G01 X18.12062 Y133.21336
G01 X18.07145 Y133.28100
G01 X17.97739 Y133.44396
G01 X17.94338 Y133.52034
G01 X17.88524 Y133.69928
G01 X17.86784 Y133.78107
G01 X17.84818 Y133.96819
G04 P0 ( dwell for no time -- G64 should not smooth over this point )
G00 Z2.00000 ( retract )

G00 X17.84818 Y138.05221 ( rapid move to begin. )
G01 F200.00000
( Mill infeed pass 1/1 )
G01 Z-0.20000
G04 P0 ( dwell for no time -- G64 should not smooth over this point )
G01 F400.00000
G01 X17.84818 Y138.05221
G01 X17.84818 Y138.13582
G01 X17.86784 Y138.32295
G01 X17.88524 Y138.40473
G01 X17.94338 Y138.58368
G01 X17.97739 Y138.66008
G01 X18.07145 Y138.82302
G01 X18.12062 Y138.89066
G01 X18.24651 Y139.03049
G01 X18.30866 Y139.08645
G01 X18.46088 Y139.19704
G01 X18.53330 Y139.23885
G01 X18.70518 Y139.31538
G01 X18.78471 Y139.34123
G01 X18.96876 Y139.38035
G01 X19.05192 Y139.38909
G01 X19.24005 Y139.38909
G01 X19.32324 Y139.38035
G01 X19.50726 Y139.34123
G01 X19.58679 Y139.31538
G01 X19.75867 Y139.23885
G01 X19.83111 Y139.19704
G01 X19.98331 Y139.08645
G01 X20.04546 Y139.03049
G01 X20.17137 Y138.89066
G01 X20.22052 Y138.82302
G01 X20.31460 Y138.66008
G01 X20.34861 Y138.58368
G01 X20.40675 Y138.40473
G01 X20.42412 Y138.32295
G01 X20.44378 Y138.13582
G01 X20.44378 Y138.05221
G01 X20.42412 Y137.86509
G01 X20.40675 Y137.78327
G01 X20.34861 Y137.60436
G01 X20.31460 Y137.52795
G01 X20.22052 Y137.36501
G01 X20.17137 Y137.29735
G01 X20.04546 Y137.15752
G01 X19.98331 Y137.10159
G01 X19.83111 Y136.99097
G01 X19.75867 Y136.94916
G01 X19.58679 Y136.87263
G01 X19.50726 Y136.84680
G01 X19.32324 Y136.80768
G01 X19.24005 Y136.79895
G01 X19.05192 Y136.79895
G01 X18.96876 Y136.80768
G01 X18.78471 Y136.84680
G01 X18.70518 Y136.87263
G01 X18.53330 Y136.94916
G01 X18.46088 Y136.99097
G01 X18.30866 Y137.10159
G01 X18.24651 Y137.15752
G01 X18.12062 Y137.29735
G01 X18.07145 Y137.36501
G01 X17.97739 Y137.52795
G01 X17.94338 Y137.60436
G01 X17.88524 Y137.78327
G01 X17.86784 Y137.86509
G01 X17.84818 Y138.05221
G04 P0 ( dwell for no time -- G64 should not smooth over this point )
G00 Z2.00000 ( retract )

G00 X13.72419 Y138.05221 ( rapid move to begin. )
G01 F200.00000
( Mill infeed pass 1/1 )
G01 Z-0.20000
G04 P0 ( dwell for no time -- G64 should not smooth over this point )
G01 F400.00000
G01 X13.72419 Y138.05221
G01 X13.72419 Y138.13582
G01 X13.74385 Y138.32295
G01 X13.76122 Y138.40473
G01 X13.81936 Y138.58368
G01 X13.85340 Y138.66008
G01 X13.94746 Y138.82302
G01 X13.99660 Y138.89066
G01 X14.12251 Y139.03049
G01 X14.18467 Y139.08645
G01 X14.33686 Y139.19704
G01 X14.40930 Y139.23885
G01 X14.58119 Y139.31538
G01 X14.66071 Y139.34123
G01 X14.84474 Y139.38035
G01 X14.92792 Y139.38909
G01 X15.11606 Y139.38909
G01 X15.19922 Y139.38035
G01 X15.38327 Y139.34123
G01 X15.46279 Y139.31538
G01 X15.63468 Y139.23885
G01 X15.70709 Y139.19704
G01 X15.85931 Y139.08645
G01 X15.92147 Y139.03049
G01 X16.04735 Y138.89066
G01 X16.09652 Y138.82302
G01 X16.19058 Y138.66008
G01 X16.22459 Y138.58368
G01 X16.28273 Y138.40473
G01 X16.30013 Y138.32295
G01 X16.31979 Y138.13582
G01 X16.31979 Y138.05221
G01 X16.30013 Y137.86509
G01 X16.28273 Y137.78327
G01 X16.22459 Y137.60436
G01 X16.19058 Y137.52795
G01 X16.09652 Y137.36501
G01 X16.04735 Y137.29735
G01 X15.92147 Y137.15752
G01 X15.85931 Y137.10159
G01 X15.70709 Y136.99097
G01 X15.63468 Y136.94916
G01 X15.46279 Y136.87263
G01 X15.38327 Y136.84680
G01 X15.19922 Y136.80768
G01 X15.11606 Y136.79895
G01 X14.92792 Y136.79895
G01 X14.84474 Y136.80768
G01 X14.66071 Y136.84680
G01 X14.58119 Y136.87263
G01 X14.40930 Y136.94916
G01 X14.33686 Y136.99097
G01 X14.18467 Y137.10159
G01 X14.12251 Y137.15752
G01 X13.99660 Y137.29735
G01 X13.94746 Y137.36501
G01 X13.85340 Y137.52795
G01 X13.81936 Y137.60436
G01 X13.76122 Y137.78327
G01 X13.74385 Y137.86509
G01 X13.72419 Y138.05221
G04 P0 ( dwell for no time -- G64 should not smooth over this point )
G00 Z2.00000 ( retract )

G00 X17.12398 Y144.49601 ( rapid move to begin. )
G01 F200.00000
( Mill infeed pass 1/1 )
G01 Z-0.20000
G04 P0 ( dwell for no time -- G64 should not smooth over this point )
G01 F400.00000
G01 X17.12398 Y144.49601
G01 X17.12398 Y147.49600
G01 X17.13168 Y147.57406
G01 X17.15443 Y147.64909
G01 X17.19139 Y147.71823
G01 X17.24115 Y147.77886
G01 X17.30175 Y147.82859
G01 X17.37092 Y147.86557
G01 X17.44595 Y147.88833
G01 X17.52398 Y147.89600
G01 X19.02398 Y147.89600
G01 X19.10203 Y147.88833
G01 X19.17706 Y147.86557
G01 X19.24623 Y147.82859
G01 X19.30683 Y147.77886
G01 X19.35656 Y147.71823
G01 X19.39355 Y147.64909
G01 X19.41630 Y147.57406
G01 X19.42400 Y147.49600
G01 X19.42400 Y144.49601
G01 X19.41630 Y144.41798
G01 X19.39355 Y144.34295
G01 X19.35656 Y144.27379
G01 X19.30683 Y144.21318
G01 X19.24623 Y144.16342
G01 X19.17706 Y144.12647
G01 X19.10203 Y144.10371
G01 X19.02398 Y144.09601
G01 X17.52398 Y144.09601
G01 X17.44595 Y144.10371
G01 X17.37092 Y144.12647
G01 X17.30175 Y144.16342
G01 X17.24115 Y144.21318
G01 X17.19139 Y144.27379
G01 X17.15443 Y144.34295
G01 X17.13168 Y144.41798
G01 X17.12398 Y144.49601
G04 P0 ( dwell for no time -- G64 should not smooth over this point )
G00 Z2.00000 ( retract )

G00 X17.12398 Y149.49600 ( rapid move to begin. )
G01 F200.00000
( Mill infeed pass 1/1 )
G01 Z-0.20000
G04 P0 ( dwell for no time -- G64 should not smooth over this point )
G01 F400.00000
G01 X17.12398 Y149.49600
G01 X17.12398 Y152.49602
G01 X17.13168 Y152.57405
G01 X17.15443 Y152.64908
G01 X17.19139 Y152.71824
G01 X17.24115 Y152.77885
G01 X17.30175 Y152.82861
G01 X17.37092 Y152.86556
G01 X17.44595 Y152.88832
G01 X17.52398 Y152.89602
G01 X19.02398 Y152.89602
G01 X19.10203 Y152.88832
G01 X19.17706 Y152.86556
G01 X19.24623 Y152.82861
G01 X19.30683 Y152.77885
G01 X19.35656 Y152.71824
G01 X19.39355 Y152.64908
G01 X19.41630 Y152.57405
G01 X19.42400 Y152.49602
G01 X19.42400 Y149.49600
G01 X19.41630 Y149.41797
G01 X19.39355 Y149.34294
G01 X19.35656 Y149.27378
G01 X19.30683 Y149.21317
G01 X19.24623 Y149.16341
G01 X19.17706 Y149.12646
G01 X19.10203 Y149.10370
G01 X19.02398 Y149.09600
G01 X17.52398 Y149.09600
G01 X17.44595 Y149.10370
G01 X17.37092 Y149.12646
G01 X17.30175 Y149.16341
G01 X17.24115 Y149.21317
G01 X17.19139 Y149.27378
G01 X17.15443 Y149.34294
G01 X17.13168 Y149.41797
G01 X17.12398 Y149.49600
G04 P0 ( dwell for no time -- G64 should not smooth over this point )
G00 Z2.00000 ( retract )

G00 X22.12399 Y145.24602 ( rapid move to begin. )
G01 F200.00000
( Mill infeed pass 1/1 )
G01 Z-0.20000
G04 P0 ( dwell for no time -- G64 should not smooth over this point )
G01 F400.00000
G01 X22.12399 Y145.24602
G01 X22.12399 Y146.74602
G01 X22.12618 Y146.78783
G01 X22.14256 Y146.94376
G01 X22.15996 Y147.02555
G01 X22.20840 Y147.17467
G01 X22.24241 Y147.25107
G01 X22.32082 Y147.38686
G01 X22.36997 Y147.45450
G01 X22.47487 Y147.57104
G01 X22.53702 Y147.62697
G01 X22.66387 Y147.71914
G01 X22.73629 Y147.76095
G01 X22.87952 Y147.82473
G01 X22.95907 Y147.85056
G01 X23.11244 Y147.88315
G01 X23.19560 Y147.89191
G01 X23.35239 Y147.89191
G01 X23.43555 Y147.88315
G01 X23.58891 Y147.85056
G01 X23.66844 Y147.82473
G01 X23.81167 Y147.76095
G01 X23.88411 Y147.71914
G01 X24.01096 Y147.62697
G01 X24.07309 Y147.57104
G01 X24.17802 Y147.45450
G01 X24.22717 Y147.38686
G01 X24.30555 Y147.25107
G01 X24.33956 Y147.17467
G01 X24.38802 Y147.02555
G01 X24.40540 Y146.94376
G01 X24.42181 Y146.78783
G01 X24.42399 Y146.74602
G01 X24.42399 Y145.24602
G01 X24.42181 Y145.20421
G01 X24.40540 Y145.04826
G01 X24.38802 Y144.96647
G01 X24.33956 Y144.81735
G01 X24.30555 Y144.74097
G01 X24.22717 Y144.60518
G01 X24.17802 Y144.53751
G01 X24.07309 Y144.42100
G01 X24.01096 Y144.36505
G01 X23.88411 Y144.27290
G01 X23.81167 Y144.23106
G01 X23.66844 Y144.16731
G01 X23.58891 Y144.14145
G01 X23.43555 Y144.10886
G01 X23.35239 Y144.10013
G01 X23.19560 Y144.10013
G01 X23.11244 Y144.10886
G01 X22.95907 Y144.14145
G01 X22.87952 Y144.16731
G01 X22.73629 Y144.23106
G01 X22.66387 Y144.27290
G01 X22.53702 Y144.36505
G01 X22.47487 Y144.42100
G01 X22.36997 Y144.53751
G01 X22.32082 Y144.60518
G01 X22.24241 Y144.74097
G01 X22.20840 Y144.81735
G01 X22.15996 Y144.96647
G01 X22.14256 Y145.04826
G01 X22.12618 Y145.20421
G01 X22.12399 Y145.24602
G04 P0 ( dwell for no time -- G64 should not smooth over this point )
G00 Z2.00000 ( retract )

G00 X27.12398 Y145.24602 ( rapid move to begin. )
G01 F200.00000
( Mill infeed pass 1/1 )
G01 Z-0.20000
G04 P0 ( dwell for no time -- G64 should not smooth over this point )
G01 F400.00000
G01 X27.12398 Y145.24602
G01 X27.12398 Y146.74602
G01 X27.12617 Y146.78783
G01 X27.14258 Y146.94376
G01 X27.15995 Y147.02555
G01 X27.20841 Y147.17467
G01 X27.24242 Y147.25107
G01 X27.32081 Y147.38686
G01 X27.36996 Y147.45450
G01 X27.47489 Y147.57104
G01 X27.53701 Y147.62697
G01 X27.66386 Y147.71914
G01 X27.73630 Y147.76095
G01 X27.87953 Y147.82473
G01 X27.95906 Y147.85056
G01 X28.11243 Y147.88315
G01 X28.19559 Y147.89191
G01 X28.35238 Y147.89191
G01 X28.43554 Y147.88315
G01 X28.58890 Y147.85056
G01 X28.66846 Y147.82473
G01 X28.81169 Y147.76095
G01 X28.88410 Y147.71914
G01 X29.01095 Y147.62697
G01 X29.07310 Y147.57104
G01 X29.17801 Y147.45450
G01 X29.22716 Y147.38686
G01 X29.30556 Y147.25107
G01 X29.33958 Y147.17467
G01 X29.38801 Y147.02555
G01 X29.40541 Y146.94376
G01 X29.42180 Y146.78783
G01 X29.42398 Y146.74602
G01 X29.42398 Y145.24602
G01 X29.42180 Y145.20421
G01 X29.40541 Y145.04826
G01 X29.38801 Y144.96647
G01 X29.33958 Y144.81735
G01 X29.30556 Y144.74097
G01 X29.22716 Y144.60518
G01 X29.17801 Y144.53751
G01 X29.07310 Y144.42100
G01 X29.01095 Y144.36505
G01 X28.88410 Y144.27290
G01 X28.81169 Y144.23106
G01 X28.66846 Y144.16731
G01 X28.58890 Y144.14145
G01 X28.43554 Y144.10886
G01 X28.35238 Y144.10013
G01 X28.19559 Y144.10013
G01 X28.11243 Y144.10886
G01 X27.95906 Y144.14145
G01 X27.87953 Y144.16731
G01 X27.73630 Y144.23106
G01 X27.66386 Y144.27290
G01 X27.53701 Y144.36505
G01 X27.47489 Y144.42100
G01 X27.36996 Y144.53751
G01 X27.32081 Y144.60518
G01 X27.24242 Y144.74097
G01 X27.20841 Y144.81735
G01 X27.15995 Y144.96647
G01 X27.14258 Y145.04826
G01 X27.12617 Y145.20421
G01 X27.12398 Y145.24602
G04 P0 ( dwell for no time -- G64 should not smooth over this point )
G00 Z2.00000 ( retract )

G00 X22.12399 Y150.24601 ( rapid move to begin. )
G01 F200.00000
( Mill infeed pass 1/1 )
G01 Z-0.20000
G04 P0 ( dwell for no time -- G64 should not smooth over this point )
G01 F400.00000
G01 X22.12399 Y150.24601
G01 X22.12399 Y151.74601
G01 X22.12618 Y151.78782
G01 X22.14256 Y151.94375
G01 X22.15996 Y152.02556
G01 X22.20840 Y152.17468
G01 X22.24241 Y152.25106
G01 X22.32082 Y152.38685
G01 X22.36997 Y152.45452
G01 X22.47487 Y152.57103
G01 X22.53702 Y152.62698
G01 X22.66387 Y152.71913
G01 X22.73629 Y152.76094
G01 X22.87952 Y152.82472
G01 X22.95907 Y152.85055
G01 X23.11244 Y152.88317
G01 X23.19560 Y152.89190
G01 X23.35239 Y152.89190
G01 X23.43555 Y152.88317
G01 X23.58891 Y152.85055
G01 X23.66844 Y152.82472
G01 X23.81167 Y152.76094
G01 X23.88411 Y152.71913
G01 X24.01096 Y152.62698
G01 X24.07309 Y152.57103
G01 X24.17802 Y152.45452
G01 X24.22717 Y152.38685
G01 X24.30555 Y152.25106
G01 X24.33956 Y152.17468
G01 X24.38802 Y152.02556
G01 X24.40540 Y151.94375
G01 X24.42181 Y151.78782
G01 X24.42399 Y151.74601
G01 X24.42399 Y150.24601
G01 X24.42181 Y150.20420
G01 X24.40540 Y150.04827
G01 X24.38802 Y149.96648
G01 X24.33956 Y149.81736
G01 X24.30555 Y149.74096
G01 X24.22717 Y149.60517
G01 X24.17802 Y149.53753
G01 X24.07309 Y149.42099
G01 X24.01096 Y149.36504
G01 X23.88411 Y149.27289
G01 X23.81167 Y149.23108
G01 X23.66844 Y149.16730
G01 X23.58891 Y149.14147
G01 X23.43555 Y149.10885
G01 X23.35239 Y149.10012
G01 X23.19560 Y149.10012
G01 X23.11244 Y149.10885
G01 X22.95907 Y149.14147
G01 X22.87952 Y149.16730
G01 X22.73629 Y149.23108
G01 X22.66387 Y149.27289
G01 X22.53702 Y149.36504
G01 X22.47487 Y149.42099
G01 X22.36997 Y149.53753
G01 X22.32082 Y149.60517
G01 X22.24241 Y149.74096
G01 X22.20840 Y149.81736
G01 X22.15996 Y149.96648
G01 X22.14256 Y150.04827
G01 X22.12618 Y150.20420
G01 X22.12399 Y150.24601
G04 P0 ( dwell for no time -- G64 should not smooth over this point )
G00 Z2.00000 ( retract )

G00 X27.12398 Y150.24601 ( rapid move to begin. )
G01 F200.00000
( Mill infeed pass 1/1 )
G01 Z-0.20000
G04 P0 ( dwell for no time -- G64 should not smooth over this point )
G01 F400.00000
G01 X27.12398 Y150.24601
G01 X27.12398 Y151.74601
G01 X27.12617 Y151.78782
G01 X27.14258 Y151.94375
G01 X27.15995 Y152.02556
G01 X27.20841 Y152.17468
G01 X27.24242 Y152.25106
G01 X27.32081 Y152.38685
G01 X27.36996 Y152.45452
G01 X27.47489 Y152.57103
G01 X27.53701 Y152.62698
G01 X27.66386 Y152.71913
G01 X27.73630 Y152.76094
G01 X27.87953 Y152.82472
G01 X27.95906 Y152.85055
G01 X28.11243 Y152.88317
G01 X28.19559 Y152.89190
G01 X28.35238 Y152.89190
G01 X28.43554 Y152.88317
G01 X28.58890 Y152.85055
G01 X28.66846 Y152.82472
G01 X28.81169 Y152.76094
G01 X28.88410 Y152.71913
G01 X29.01095 Y152.62698
G01 X29.07310 Y152.57103
G01 X29.17801 Y152.45452
G01 X29.22716 Y152.38685
G01 X29.30556 Y152.25106
G01 X29.33958 Y152.17468
G01 X29.38801 Y152.02556
G01 X29.40541 Y151.94375
G01 X29.42180 Y151.78782
G01 X29.42398 Y151.74601
G01 X29.42398 Y150.24601
G01 X29.42180 Y150.20420
G01 X29.40541 Y150.04827
G01 X29.38801 Y149.96648
G01 X29.33958 Y149.81736
G01 X29.30556 Y149.74096
G01 X29.22716 Y149.60517
G01 X29.17801 Y149.53753
G01 X29.07310 Y149.42099
G01 X29.01095 Y149.36504
G01 X28.88410 Y149.27289
G01 X28.81169 Y149.23108
G01 X28.66846 Y149.16730
G01 X28.58890 Y149.14147
G01 X28.43554 Y149.10885
G01 X28.35238 Y149.10012
G01 X28.19559 Y149.10012
G01 X28.11243 Y149.10885
G01 X27.95906 Y149.14147
G01 X27.87953 Y149.16730
G01 X27.73630 Y149.23108
G01 X27.66386 Y149.27289
G01 X27.53701 Y149.36504
G01 X27.47489 Y149.42099
G01 X27.36996 Y149.53753
G01 X27.32081 Y149.60517
G01 X27.24242 Y149.74096
G01 X27.20841 Y149.81736
G01 X27.15995 Y149.96648
G01 X27.14258 Y150.04827
G01 X27.12617 Y150.20420
G01 X27.12398 Y150.24601
G04 P0 ( dwell for no time -- G64 should not smooth over this point )
G00 Z2.00000 ( retract )

G00 X32.12400 Y150.24601 ( rapid move to begin. )
G01 F200.00000
( Mill infeed pass 1/1 )
G01 Z-0.20000
G04 P0 ( dwell for no time -- G64 should not smooth over this point )
G01 F400.00000
G01 X32.12400 Y150.24601
G01 X32.12400 Y151.74601
G01 X32.12618 Y151.78782
G01 X32.14257 Y151.94375
G01 X32.15997 Y152.02556
G01 X32.20840 Y152.17468
G01 X32.24241 Y152.25106
G01 X32.32082 Y152.38685
G01 X32.36997 Y152.45452
G01 X32.47488 Y152.57103
G01 X32.53703 Y152.62698
G01 X32.66388 Y152.71913
G01 X32.73629 Y152.76094
G01 X32.87952 Y152.82472
G01 X32.95905 Y152.85055
G01 X33.11242 Y152.88317
G01 X33.19560 Y152.89190
G01 X33.35239 Y152.89190
G01 X33.43555 Y152.88317
G01 X33.58892 Y152.85055
G01 X33.66845 Y152.82472
G01 X33.81168 Y152.76094
G01 X33.88409 Y152.71913
G01 X34.01094 Y152.62698
G01 X34.07309 Y152.57103
G01 X34.17800 Y152.45452
G01 X34.22717 Y152.38685
G01 X34.30555 Y152.25106
G01 X34.33957 Y152.17468
G01 X34.38803 Y152.02556
G01 X34.40540 Y151.94375
G01 X34.42179 Y151.78782
G01 X34.42400 Y151.74601
G01 X34.42400 Y150.24601
G01 X34.42179 Y150.20420
G01 X34.40540 Y150.04827
G01 X34.38803 Y149.96648
G01 X34.33957 Y149.81736
G01 X34.30555 Y149.74096
G01 X34.22717 Y149.60517
G01 X34.17800 Y149.53753
G01 X34.07309 Y149.42099
G01 X34.01094 Y149.36504
G01 X33.88409 Y149.27289
G01 X33.81168 Y149.23108
G01 X33.66845 Y149.16730
G01 X33.58892 Y149.14147
G01 X33.43555 Y149.10885
G01 X33.35239 Y149.10012
G01 X33.19560 Y149.10012
G01 X33.11242 Y149.10885
G01 X32.95905 Y149.14147
G01 X32.87952 Y149.16730
G01 X32.73629 Y149.23108
G01 X32.66388 Y149.27289
G01 X32.53703 Y149.36504
G01 X32.47488 Y149.42099
G01 X32.36997 Y149.53753
G01 X32.32082 Y149.60517
G01 X32.24241 Y149.74096
G01 X32.20840 Y149.81736
G01 X32.15997 Y149.96648
G01 X32.14257 Y150.04827
G01 X32.12618 Y150.20420
G01 X32.12400 Y150.24601
G04 P0 ( dwell for no time -- G64 should not smooth over this point )
G00 Z2.00000 ( retract )

G00 X32.12400 Y145.24602 ( rapid move to begin. )
G01 F200.00000
( Mill infeed pass 1/1 )
G01 Z-0.20000
G04 P0 ( dwell for no time -- G64 should not smooth over this point )
G01 F400.00000
G01 X32.12400 Y145.24602
G01 X32.12618 Y145.20421
G01 X32.14257 Y145.04826
G01 X32.15997 Y144.96647
G01 X32.20840 Y144.81735
G01 X32.24241 Y144.74097
G01 X32.32082 Y144.60518
G01 X32.36997 Y144.53751
G01 X32.47488 Y144.42100
G01 X32.53703 Y144.36505
G01 X32.66388 Y144.27290
G01 X32.73629 Y144.23106
G01 X32.87952 Y144.16731
G01 X32.95905 Y144.14145
G01 X33.11242 Y144.10886
G01 X33.19560 Y144.10013
G01 X33.35239 Y144.10013
G01 X33.43555 Y144.10886
G01 X33.58892 Y144.14145
G01 X33.66845 Y144.16731
G01 X33.81168 Y144.23106
G01 X33.88409 Y144.27290
G01 X34.01094 Y144.36505
G01 X34.07309 Y144.42100
G01 X34.17800 Y144.53751
G01 X34.22717 Y144.60518
G01 X34.30555 Y144.74097
G01 X34.33957 Y144.81735
G01 X34.38803 Y144.96647
G01 X34.40540 Y145.04826
G01 X34.42179 Y145.20421
G01 X34.42400 Y145.24602
G01 X34.42400 Y146.74602
G01 X34.42179 Y146.78783
G01 X34.40540 Y146.94376
G01 X34.38803 Y147.02555
G01 X34.33957 Y147.17467
G01 X34.30555 Y147.25107
G01 X34.22717 Y147.38686
G01 X34.17800 Y147.45450
G01 X34.07309 Y147.57104
G01 X34.01094 Y147.62697
G01 X33.88409 Y147.71914
G01 X33.81168 Y147.76095
G01 X33.66845 Y147.82473
G01 X33.58892 Y147.85056
G01 X33.43555 Y147.88315
G01 X33.35239 Y147.89191
G01 X33.19560 Y147.89191
G01 X33.11242 Y147.88315
G01 X32.95905 Y147.85056
G01 X32.87952 Y147.82473
G01 X32.73629 Y147.76095
G01 X32.66388 Y147.71914
G01 X32.53703 Y147.62697
G01 X32.47488 Y147.57104
G01 X32.36997 Y147.45450
G01 X32.32082 Y147.38686
G01 X32.24241 Y147.25107
G01 X32.20840 Y147.17467
G01 X32.15997 Y147.02555
G01 X32.14257 Y146.94376
G01 X32.12618 Y146.78783
G01 X32.12400 Y146.74602
G01 X32.12400 Y145.24602
G04 P0 ( dwell for no time -- G64 should not smooth over this point )
G00 Z2.00000 ( retract )

G00 X27.84819 Y138.05221 ( rapid move to begin. )
G01 F200.00000
( Mill infeed pass 1/1 )
G01 Z-0.20000
G04 P0 ( dwell for no time -- G64 should not smooth over this point )
G01 F400.00000
G01 X27.84819 Y138.05221
G01 X27.86785 Y137.86509
G01 X27.88522 Y137.78327
G01 X27.94336 Y137.60436
G01 X27.97737 Y137.52795
G01 X28.07146 Y137.36501
G01 X28.12060 Y137.29735
G01 X28.24651 Y137.15752
G01 X28.30867 Y137.10159
G01 X28.46086 Y136.99097
G01 X28.53330 Y136.94916
G01 X28.70519 Y136.87263
G01 X28.78471 Y136.84680
G01 X28.96874 Y136.80768
G01 X29.05192 Y136.79895
G01 X29.24006 Y136.79895
G01 X29.32322 Y136.80768
G01 X29.50727 Y136.84680
G01 X29.58679 Y136.87263
G01 X29.75868 Y136.94916
G01 X29.83109 Y136.99097
G01 X29.98331 Y137.10159
G01 X30.04547 Y137.15752
G01 X30.17135 Y137.29735
G01 X30.22052 Y137.36501
G01 X30.31458 Y137.52795
G01 X30.34859 Y137.60436
G01 X30.40673 Y137.78327
G01 X30.42413 Y137.86509
G01 X30.44379 Y138.05221
G01 X30.44379 Y138.13582
G01 X30.42413 Y138.32295
G01 X30.40673 Y138.40473
G01 X30.34859 Y138.58368
G01 X30.31458 Y138.66008
G01 X30.22052 Y138.82302
G01 X30.17135 Y138.89066
G01 X30.04547 Y139.03049
G01 X29.98331 Y139.08645
G01 X29.83109 Y139.19704
G01 X29.75868 Y139.23885
G01 X29.58679 Y139.31538
G01 X29.50727 Y139.34123
G01 X29.32322 Y139.38035
G01 X29.24006 Y139.38909
G01 X29.05192 Y139.38909
G01 X28.96874 Y139.38035
G01 X28.78471 Y139.34123
G01 X28.70519 Y139.31538
G01 X28.53330 Y139.23885
G01 X28.46086 Y139.19704
G01 X28.30867 Y139.08645
G01 X28.24651 Y139.03049
G01 X28.12060 Y138.89066
G01 X28.07146 Y138.82302
G01 X27.97737 Y138.66008
G01 X27.94336 Y138.58368
G01 X27.88522 Y138.40473
G01 X27.86785 Y138.32295
G01 X27.84819 Y138.13582
G01 X27.84819 Y138.05221
G04 P0 ( dwell for no time -- G64 should not smooth over this point )
G00 Z2.00000 ( retract )

G00 X32.07218 Y138.03219 ( rapid move to begin. )
G01 F200.00000
( Mill infeed pass 1/1 )
G01 Z-0.20000
G04 P0 ( dwell for no time -- G64 should not smooth over this point )
G01 F400.00000
G01 X32.07218 Y138.03219
G01 X32.09184 Y137.84507
G01 X32.10924 Y137.76328
G01 X32.16738 Y137.58434
G01 X32.20139 Y137.50796
G01 X32.29545 Y137.34500
G01 X32.34462 Y137.27736
G01 X32.47051 Y137.13753
G01 X32.53266 Y137.08157
G01 X32.68488 Y136.97098
G01 X32.75730 Y136.92917
G01 X32.92918 Y136.85264
G01 X33.00871 Y136.82681
G01 X33.19276 Y136.78769
G01 X33.27592 Y136.77893
G01 X33.46405 Y136.77893
G01 X33.54724 Y136.78769
G01 X33.73126 Y136.82681
G01 X33.81079 Y136.85264
G01 X33.98267 Y136.92917
G01 X34.05511 Y136.97098
