( pcb2gcode 2.4.0 )
( Software-independent Gcode )

G94 ( Millimeters per minute feed rate. )
G21 ( Units == Millimeters. )

G90 ( Absolute coordinates. )
G00 S10000 ( RPM spindle speed. )
G64 P0.05000 ( set maximum deviation from commanded toolpath )
G01 F200.00000 ( Feedrate. )


G00 Z30.00000 (Retract to tool change height)
T0
M5      (Spindle stop.)
G04 P1.00000 (Wait for spindle to stop)
(MSG, Change tool bit to cutter diameter 3.00000mm)
M6      (Tool change.)
M0      (Temporary machine stop.)
M3 ( Spindle on clockwise. )
G04 P1.00000 (Wait for spindle to get up to speed)
G04 P0 ( dwell for no time -- G64 should not smooth over this point )
G00 Z2.00000 ( retract )

G00 X1.74997 Y3.25002 ( rapid move to begin. )
G01 Z-0.45000 F60.00000 ( plunge. )
G04 P0 ( dwell for no time -- G64 should not smooth over this point )
G01 F200.00000
G01 X1.74997 Y163.25000
G01 X1.77880 Y163.54266
G01 X1.86417 Y163.82404
G01 X2.00278 Y164.08338
G01 X2.18932 Y164.31068
G01 X2.41662 Y164.49722
G01 X2.67596 Y164.63583
G01 X2.95734 Y164.72120
G01 X3.25000 Y164.75003
G01 X51.24999 Y164.75003
G01 X55.24999 Y164.75003
G01 X103.24997 Y164.75003
G01 X103.54261 Y164.72120
G01 X103.82399 Y164.63583
G01 X104.08332 Y164.49722
G01 X104.31063 Y164.31068
G01 X104.49717 Y164.08338
G01 X104.63577 Y163.82404
G01 X104.72114 Y163.54266
G01 X104.74997 Y163.25000
G01 X104.74997 Y3.25002
G01 X104.72114 Y2.95739
G01 X104.63577 Y2.67601
G01 X104.49717 Y2.41667
G01 X104.31063 Y2.18937
G01 X104.08332 Y2.00283
G01 X103.82399 Y1.86422
G01 X103.54261 Y1.77885
G01 X103.24997 Y1.75002
G01 X55.24999 Y1.75002
G01 X51.24999 Y1.75002
G01 X3.25000 Y1.75002
G01 X2.95734 Y1.77885
G01 X2.67596 Y1.86422
G01 X2.41662 Y2.00283
G01 X2.18932 Y2.18937
G01 X2.00278 Y2.41667
G01 X1.86417 Y2.67601
G01 X1.77880 Y2.95739
G01 X1.74997 Y3.25002
G01 Z-0.90000 F60.00000 ( plunge. )
G04 P0 ( dwell for no time -- G64 should not smooth over this point )
G01 F200.00000
G01 X1.74997 Y163.25000
G01 X1.77880 Y163.54266
G01 X1.86417 Y163.82404
G01 X2.00278 Y164.08338
G01 X2.18932 Y164.31068
G01 X2.41662 Y164.49722
G01 X2.67596 Y164.63583
G01 X2.95734 Y164.72120
G01 X3.25000 Y164.75003
G01 X51.24999 Y164.75003
G00 Z-0.60000
G01 X55.24999 Y164.75003
G01 Z-0.90000 F60.00000
G01 F200.00000
G01 X103.24997 Y164.75003
G01 X103.54261 Y164.72120
G01 X103.82399 Y164.63583
G01 X104.08332 Y164.49722
G01 X104.31063 Y164.31068
G01 X104.49717 Y164.08338
G01 X104.63577 Y163.82404
G01 X104.72114 Y163.54266
G01 X104.74997 Y163.25000
G01 X104.74997 Y3.25002
G01 X104.72114 Y2.95739
G01 X104.63577 Y2.67601
G01 X104.49717 Y2.41667
G01 X104.31063 Y2.18937
G01 X104.08332 Y2.00283
G01 X103.82399 Y1.86422
G01 X103.54261 Y1.77885
G01 X103.24997 Y1.75002
G01 X55.24999 Y1.75002
G00 Z-0.60000
G01 X51.24999 Y1.75002
G01 Z-0.90000 F60.00000
G01 F200.00000
G01 X3.25000 Y1.75002
G01 X2.95734 Y1.77885
G01 X2.67596 Y1.86422
G01 X2.41662 Y2.00283
G01 X2.18932 Y2.18937
G01 X2.00278 Y2.41667
G01 X1.86417 Y2.67601
G01 X1.77880 Y2.95739
G01 X1.74997 Y3.25002
G01 Z-1.35000 F60.00000 ( plunge. )
G04 P0 ( dwell for no time -- G64 should not smooth over this point )
G01 F200.00000
G01 X1.74997 Y163.25000
G01 X1.77880 Y163.54266
G01 X1.86417 Y163.82404
G01 X2.00278 Y164.08338
G01 X2.18932 Y164.31068
G01 X2.41662 Y164.49722
G01 X2.67596 Y164.63583
G01 X2.95734 Y164.72120
G01 X3.25000 Y164.75003
G01 X51.24999 Y164.75003
G00 Z-0.60000
G01 X55.24999 Y164.75003
G01 Z-1.35000 F60.00000
G01 F200.00000
G01 X103.24997 Y164.75003
G01 X103.54261 Y164.72120
G01 X103.82399 Y164.63583
G01 X104.08332 Y164.49722
G01 X104.31063 Y164.31068
G01 X104.49717 Y164.08338
G01 X104.63577 Y163.82404
G01 X104.72114 Y163.54266
G01 X104.74997 Y163.25000
G01 X104.74997 Y3.25002
G01 X104.72114 Y2.95739
G01 X104.63577 Y2.67601
G01 X104.49717 Y2.41667
G01 X104.31063 Y2.18937
G01 X104.08332 Y2.00283
G01 X103.82399 Y1.86422
G01 X103.54261 Y1.77885
G01 X103.24997 Y1.75002
G01 X55.24999 Y1.75002
G00 Z-0.60000
G01 X51.24999 Y1.75002
G01 Z-1.35000 F60.00000
G01 F200.00000
G01 X3.25000 Y1.75002
G01 X2.95734 Y1.77885
G01 X2.67596 Y1.86422
G01 X2.41662 Y2.00283
G01 X2.18932 Y2.18937
G01 X2.00278 Y2.41667
G01 X1.86417 Y2.67601
G01 X1.77880 Y2.95739
G01 X1.74997 Y3.25002
G01 Z-1.80000 F60.00000 ( plunge. )
G04 P0 ( dwell for no time -- G64 should not smooth over this point )
G01 F200.00000
G01 X1.74997 Y163.25000
G01 X1.77880 Y163.54266
G01 X1.86417 Y163.82404
G01 X2.00278 Y164.08338
G01 X2.18932 Y164.31068
G01 X2.41662 Y164.49722
G01 X2.67596 Y164.63583
G01 X2.95734 Y164.72120
G01 X3.25000 Y164.75003
G01 X51.24999 Y164.75003
G00 Z-0.60000
G01 X55.24999 Y164.75003
G01 Z-1.80000 F60.00000
G01 F200.00000
G01 X103.24997 Y164.75003
G01 X103.54261 Y164.72120
G01 X103.82399 Y164.63583
G01 X104.08332 Y164.49722
G01 X104.31063 Y164.31068
G01 X104.49717 Y164.08338
G01 X104.63577 Y163.82404
G01 X104.72114 Y163.54266
G01 X104.74997 Y163.25000
G01 X104.74997 Y3.25002
G01 X104.72114 Y2.95739
G01 X104.63577 Y2.67601
G01 X104.49717 Y2.41667
G01 X104.31063 Y2.18937
G01 X104.08332 Y2.00283
G01 X103.82399 Y1.86422
G01 X103.54261 Y1.77885
G01 X103.24997 Y1.75002
G01 X55.24999 Y1.75002
G00 Z-0.60000
G01 X51.24999 Y1.75002
G01 Z-1.80000 F60.00000
G01 F200.00000
G01 X3.25000 Y1.75002
G01 X2.95734 Y1.77885
G01 X2.67596 Y1.86422
G01 X2.41662 Y2.00283
G01 X2.18932 Y2.18937
G01 X2.00278 Y2.41667
G01 X1.86417 Y2.67601
G01 X1.77880 Y2.95739
G01 X1.74997 Y3.25002
G01 Z-2.25000 F60.00000 ( plunge. )
G04 P0 ( dwell for no time -- G64 should not smooth over this point )
G01 F200.00000
G01 X1.74997 Y163.25000
G01 X1.77880 Y163.54266
G01 X1.86417 Y163.82404
G01 X2.00278 Y164.08338
G01 X2.18932 Y164.31068
G01 X2.41662 Y164.49722
G01 X2.67596 Y164.63583
G01 X2.95734 Y164.72120
G01 X3.25000 Y164.75003
G01 X51.24999 Y164.75003
G00 Z-0.60000
G01 X55.24999 Y164.75003
G01 Z-2.25000 F60.00000
G01 F200.00000
G01 X103.24997 Y164.75003
G01 X103.54261 Y164.72120
G01 X103.82399 Y164.63583
G01 X104.08332 Y164.49722
G01 X104.31063 Y164.31068
G01 X104.49717 Y164.08338
G01 X104.63577 Y163.82404
G01 X104.72114 Y163.54266
G01 X104.74997 Y163.25000
G01 X104.74997 Y3.25002
G01 X104.72114 Y2.95739
G01 X104.63577 Y2.67601
G01 X104.49717 Y2.41667
G01 X104.31063 Y2.18937
G01 X104.08332 Y2.00283
G01 X103.82399 Y1.86422
G01 X103.54261 Y1.77885
G01 X103.24997 Y1.75002
G01 X55.24999 Y1.75002
G00 Z-0.60000
G01 X51.24999 Y1.75002
G01 Z-2.25000 F60.00000
G01 F200.00000
G01 X3.25000 Y1.75002
G01 X2.95734 Y1.77885
G01 X2.67596 Y1.86422
G01 X2.41662 Y2.00283
G01 X2.18932 Y2.18937
G01 X2.00278 Y2.41667
G01 X1.86417 Y2.67601
G01 X1.77880 Y2.95739
G01 X1.74997 Y3.25002
G01 Z-2.70000 F60.00000 ( plunge. )
G04 P0 ( dwell for no time -- G64 should not smooth over this point )
G01 F200.00000
G01 X1.74997 Y163.25000
G01 X1.77880 Y163.54266
G01 X1.86417 Y163.82404
G01 X2.00278 Y164.08338
G01 X2.18932 Y164.31068
G01 X2.41662 Y164.49722
G01 X2.67596 Y164.63583
G01 X2.95734 Y164.72120
G01 X3.25000 Y164.75003
G01 X51.24999 Y164.75003
G00 Z-0.60000
G01 X55.24999 Y164.75003
G01 Z-2.70000 F60.00000
G01 F200.00000
G01 X103.24997 Y164.75003
G01 X103.54261 Y164.72120
G01 X103.82399 Y164.63583
G01 X104.08332 Y164.49722
G01 X104.31063 Y164.31068
G01 X104.49717 Y164.08338
G01 X104.63577 Y163.82404
G01 X104.72114 Y163.54266
G01 X104.74997 Y163.25000
G01 X104.74997 Y3.25002
G01 X104.72114 Y2.95739
G01 X104.63577 Y2.67601
G01 X104.49717 Y2.41667
G01 X104.31063 Y2.18937
G01 X104.08332 Y2.00283
G01 X103.82399 Y1.86422
G01 X103.54261 Y1.77885
G01 X103.24997 Y1.75002
G01 X55.24999 Y1.75002
G00 Z-0.60000
G01 X51.24999 Y1.75002
G01 Z-2.70000 F60.00000
G01 F200.00000
G01 X3.25000 Y1.75002
G01 X2.95734 Y1.77885
G01 X2.67596 Y1.86422
G01 X2.41662 Y2.00283
G01 X2.18932 Y2.18937
G01 X2.00278 Y2.41667
G01 X1.86417 Y2.67601
G01 X1.77880 Y2.95739
G01 X1.74997 Y3.25002

G04 P0 ( dwell for no time -- G64 should not smooth over this point )
G00 Z30.000000 ( retract )

M5 ( Spindle off. )
G04 P1.000000
M9 ( Coolant off. )
M2 ( Program end. )

